; generated by Slic3r 0.9.8 on 2013-07-07 at 14:12:59

; layer_height = .25
; perimeters = 1
; top_solid_layers = 4
; bottom_solid_layers = 4
; fill_density = .9
; perimeter_speed = 30
; infill_speed = 40
; travel_speed = 130
; scale = 1
; nozzle_diameter = 0.5
; filament_diameter = 3
; extrusion_multiplier = 1
; perimeters extrusion width = 0.80mm
; infill extrusion width = 0.80mm
; first layer extrusion width = 0.50mm

M107
M104 S220 ; set temperature
G28 ; home all axes
M109 S220 ; wait for temperature to be reached
G90 ; use absolute coordinates
G21 ; set units to millimeters
G92 E0
M82 ; use absolute distances for extrusion
G1 Z0.250 F7800.000
G1 X113.880 Y113.620
G1 X113.620 Y113.880 F900.000 E0.00650
G1 X113.060 Y114.350 E0.01943
G1 X110.180 Y116.550 E0.08352
G1 X109.880 Y116.750 E0.08990
G1 X109.560 Y116.930 E0.09639
G1 X108.890 Y117.250 E0.10952
G1 X105.890 Y118.490 E0.16692
G1 X105.300 Y118.700 E0.17800
G1 X104.680 Y118.870 E0.18937
G1 X104.060 Y118.970 E0.20047
G1 X100.890 Y119.380 E0.25700
G1 X100.170 Y119.440 E0.26977
G1 X99.440 Y119.420 E0.28269
G1 X99.080 Y119.380 E0.28909
G1 X95.520 Y118.910 E0.35259
G1 X94.830 Y118.750 E0.36512
G1 X94.040 Y118.470 E0.37994
G1 X91.090 Y117.250 E0.43639
G1 X90.760 Y117.100 E0.44280
G1 X90.110 Y116.750 E0.45586
G1 X89.510 Y116.330 E0.46881
G1 X86.930 Y114.350 E0.52632
G1 X86.370 Y113.880 E0.53925
G1 X86.110 Y113.620 E0.54575
G1 X85.640 Y113.060 E0.55868
G1 X83.440 Y110.180 E0.62277
G1 X83.240 Y109.880 E0.62915
G1 X83.060 Y109.560 E0.63564
G1 X82.740 Y108.890 E0.64877
G1 X81.500 Y105.890 E0.70617
G1 X81.370 Y105.550 E0.71261
G1 X81.160 Y104.850 E0.72554
G1 X81.030 Y104.120 E0.73865
G1 X80.610 Y100.890 E0.79625
G1 X80.550 Y100.170 E0.80902
G1 X80.550 Y99.810 E0.81539
G1 X80.610 Y99.080 E0.82834
G1 X81.030 Y95.860 E0.88577
G1 X81.160 Y95.140 E0.89871
G1 X81.370 Y94.440 E0.91163
G1 X81.500 Y94.100 E0.91807
G1 X82.740 Y91.100 E0.97547
G1 X82.890 Y90.760 E0.98204
G1 X83.240 Y90.110 E0.99510
G1 X83.660 Y89.510 E1.00805
G1 X85.870 Y86.640 E1.07211
G1 X86.110 Y86.370 E1.07849
G1 X86.640 Y85.870 E1.09138
G1 X89.510 Y83.660 E1.15544
G1 X90.110 Y83.240 E1.16839
G1 X90.760 Y82.890 E1.18144
G1 X91.100 Y82.740 E1.18801
G1 X94.100 Y81.500 E1.24542
G1 X94.690 Y81.290 E1.25649
G1 X95.310 Y81.120 E1.26786
G1 X95.930 Y81.020 E1.27897
G1 X99.090 Y80.610 E1.33532
G1 X99.810 Y80.550 E1.34809
G1 X100.170 Y80.550 E1.35446
G1 X100.890 Y80.610 E1.36724
G1 X104.120 Y81.030 E1.42484
G1 X104.850 Y81.160 E1.43795
G1 X105.550 Y81.370 E1.45087
G1 X105.890 Y81.500 E1.45731
G1 X108.890 Y82.740 E1.51471
G1 X109.230 Y82.890 E1.52129
G1 X109.880 Y83.240 E1.53434
G1 X110.480 Y83.660 E1.54729
G1 X113.060 Y85.640 E1.60480
G1 X113.350 Y85.870 E1.61135
G1 X113.620 Y86.120 E1.61786
G1 X114.130 Y86.650 E1.63086
G1 X116.520 Y89.760 E1.70022
G1 X116.690 Y90.010 E1.70557
G1 X116.990 Y90.540 E1.71634
G1 X117.250 Y91.100 E1.72726
G1 X118.490 Y94.100 E1.78466
G1 X118.620 Y94.440 E1.79110
G1 X118.830 Y95.140 E1.80402
G1 X118.960 Y95.860 E1.81696
G1 X119.380 Y99.080 E1.87439
G1 X119.440 Y99.810 E1.88734
G1 X119.420 Y100.530 E1.90008
G1 X118.970 Y104.060 E1.96301
G1 X118.870 Y104.680 E1.97411
G1 X118.790 Y104.990 E1.97977
G1 X118.700 Y105.300 E1.98548
G1 X118.490 Y105.890 E1.99656
G1 X117.250 Y108.890 E2.05396
G1 X117.100 Y109.230 E2.06053
G1 X116.750 Y109.880 E2.07359
G1 X116.330 Y110.480 E2.08654
G1 X114.350 Y113.060 E2.14405
G1 X113.930 Y113.564 E2.15565
G1 X113.880 Y113.620 E2.15698
G1 X113.510 Y113.270 F7800.000
G1 X113.270 Y113.510 F900.000 E2.16298
G1 X112.760 Y113.960 E2.17501
G1 X110.180 Y115.940 E2.23252
G1 X109.900 Y116.140 E2.23861
G1 X109.320 Y116.490 E2.25059
G1 X108.700 Y116.790 E2.26277
G1 X105.700 Y118.030 E2.32017
G1 X105.150 Y118.230 E2.33052
G1 X104.870 Y118.310 E2.33567
G1 X104.580 Y118.380 E2.34095
G1 X103.990 Y118.480 E2.35153
G1 X100.820 Y118.890 E2.40805
G1 X100.150 Y118.940 E2.41993
G1 X99.820 Y118.940 E2.42577
G1 X99.150 Y118.890 E2.43765
G1 X95.930 Y118.470 E2.49507
G1 X95.610 Y118.420 E2.50080
G1 X94.970 Y118.270 E2.51243
G1 X94.310 Y118.040 E2.52479
G1 X91.290 Y116.790 E2.58259
G1 X90.970 Y116.650 E2.58876
G1 X90.370 Y116.320 E2.60087
G1 X89.810 Y115.940 E2.61284
G1 X87.230 Y113.960 E2.67035
G1 X86.720 Y113.510 E2.68238
G1 X86.480 Y113.270 E2.68838
G1 X86.030 Y112.760 E2.70041
G1 X84.050 Y110.180 E2.75792
G1 X83.850 Y109.900 E2.76400
G1 X83.500 Y109.320 E2.77598
G1 X83.200 Y108.700 E2.78816
G1 X81.960 Y105.700 E2.84557
G1 X81.840 Y105.380 E2.85161
G1 X81.650 Y104.730 E2.86359
G1 X81.520 Y104.060 E2.87566
G1 X81.100 Y100.830 E2.93326
G1 X81.050 Y100.160 E2.94514
G1 X81.050 Y99.820 E2.95115
G1 X81.100 Y99.150 E2.96303
G1 X81.520 Y95.930 E3.02046
G1 X81.650 Y95.260 E3.03253
G1 X81.840 Y94.610 E3.04450
G1 X81.960 Y94.290 E3.05054
G1 X83.200 Y91.290 E3.10795
G1 X83.500 Y90.670 E3.12013
G1 X83.850 Y90.090 E3.13211
G1 X84.050 Y89.810 E3.13819
G1 X86.030 Y87.230 E3.19571
G1 X86.250 Y86.970 E3.20173
G1 X86.720 Y86.480 E3.21374
G1 X87.230 Y86.030 E3.22576
G1 X89.810 Y84.050 E3.28327
G1 X90.090 Y83.850 E3.28936
G1 X90.670 Y83.500 E3.30134
G1 X91.290 Y83.200 E3.31352
G1 X94.290 Y81.960 E3.37092
G1 X94.840 Y81.760 E3.38127
G1 X95.120 Y81.680 E3.38642
G1 X95.410 Y81.610 E3.39170
G1 X95.990 Y81.510 E3.40211
G1 X99.150 Y81.100 E3.45846
G1 X99.820 Y81.050 E3.47034
G1 X100.160 Y81.050 E3.47635
G1 X100.830 Y81.100 E3.48823
G1 X104.060 Y81.520 E3.54583
G1 X104.730 Y81.650 E3.55790
G1 X105.380 Y81.840 E3.56987
G1 X105.700 Y81.960 E3.57592
G1 X108.700 Y83.200 E3.63332
G1 X109.320 Y83.500 E3.64550
G1 X109.610 Y83.670 E3.65145
G1 X110.180 Y84.050 E3.66356
G1 X112.760 Y86.030 E3.72107
G1 X113.280 Y86.480 E3.73323
G1 X113.520 Y86.720 E3.73924
G1 X113.970 Y87.240 E3.75140
G1 X116.110 Y90.040 E3.81372
G1 X116.550 Y90.770 E3.82879
G1 X116.790 Y91.290 E3.83892
G1 X118.030 Y94.290 E3.89632
G1 X118.150 Y94.610 E3.90237
G1 X118.340 Y95.260 E3.91434
G1 X118.470 Y95.930 E3.92641
G1 X118.890 Y99.150 E3.98384
G1 X118.940 Y99.820 E3.99572
G1 X118.940 Y100.150 E4.00155
G1 X118.890 Y100.820 E4.01343
G1 X118.480 Y103.990 E4.06996
G1 X118.380 Y104.580 E4.08054
G1 X118.310 Y104.870 E4.08582
G1 X118.230 Y105.150 E4.09097
G1 X118.030 Y105.700 E4.10132
G1 X116.790 Y108.700 E4.15872
G1 X116.490 Y109.320 E4.17090
G1 X116.320 Y109.610 E4.17685
G1 X115.940 Y110.180 E4.18896
G1 X113.960 Y112.760 E4.24647
G1 X113.561 Y113.215 E4.25717
G1 X113.510 Y113.270 E4.25850
G1 X103.624 Y103.624 F7800.000
G1 X102.563 Y104.439 F300.000 E4.28216
G1 X101.445 Y104.902 E4.30355
G1 X101.327 Y104.951 E4.30582
G1 X100.000 Y105.126 E4.32948
G1 X98.673 Y104.951 E4.35315
G1 X97.556 Y104.488 E4.37453
G1 X97.437 Y104.439 E4.37681
G1 X96.376 Y103.624 E4.40047
G1 X95.561 Y102.563 E4.42413
G1 X95.049 Y101.327 E4.44779
G1 X94.874 Y100.000 E4.47145
G1 X95.049 Y98.673 E4.49511
G1 X95.098 Y98.555 E4.49739
G1 X95.561 Y97.437 E4.51878
G1 X96.376 Y96.376 E4.54244
G1 X97.437 Y95.561 E4.56610
G1 X98.555 Y95.098 E4.58749
G1 X98.673 Y95.049 E4.58976
G1 X100.000 Y94.874 E4.61342
G1 X101.327 Y95.049 E4.63708
G1 X102.563 Y95.561 E4.66075
G1 X103.624 Y96.376 E4.68441
G1 X104.439 Y97.437 E4.70807
G1 X104.951 Y98.673 E4.73173
G1 X105.126 Y100.000 E4.75539
G1 X104.951 Y101.327 E4.77905
G1 X104.439 Y102.563 E4.80271
G1 X103.670 Y103.565 E4.82505
G1 X103.624 Y103.624 E4.82638
G1 X103.268 Y103.268 F7800.000
G1 X102.311 Y104.002 F300.000 E4.84771
G1 X101.254 Y104.440 E4.86793
G1 X101.196 Y104.464 E4.86904
G1 X100.000 Y104.621 E4.89038
G1 X98.804 Y104.464 E4.91171
G1 X97.747 Y104.026 E4.93193
G1 X97.689 Y104.002 E4.93304
G1 X96.732 Y103.268 E4.95438
G1 X95.998 Y102.311 E4.97571
G1 X95.536 Y101.196 E4.99704
G1 X95.379 Y100.000 E5.01838
G1 X95.536 Y98.804 E5.03971
G1 X95.560 Y98.746 E5.04082
G1 X95.998 Y97.689 E5.06104
G1 X96.732 Y96.732 E5.08238
G1 X97.689 Y95.998 E5.10371
G1 X98.746 Y95.560 E5.12393
G1 X98.804 Y95.536 E5.12504
G1 X100.000 Y95.379 E5.14638
G1 X101.196 Y95.536 E5.16771
G1 X102.311 Y95.998 E5.18904
G1 X103.268 Y96.732 E5.21038
G1 X104.002 Y97.689 E5.23171
G1 X104.464 Y98.804 E5.25304
G1 X104.621 Y100.000 E5.27438
G1 X104.464 Y101.196 E5.29571
G1 X104.002 Y102.311 E5.31705
G1 X103.313 Y103.208 E5.33705
G1 X103.268 Y103.268 E5.33838
G1 X103.376 Y103.756 F7800.000
G1 X108.445 Y108.445
G1 X105.972 Y110.343 F900.000 E5.39351
G1 X103.091 Y111.537 E5.44865
G1 X100.000 Y111.944 E5.50379
G1 X96.909 Y111.537 E5.55892
G1 X94.028 Y110.343 E5.61406
G1 X91.555 Y108.445 E5.66920
G1 X89.657 Y105.972 E5.72433
G1 X88.463 Y103.091 E5.77947
G1 X88.056 Y100.000 E5.83461
G1 X88.463 Y96.909 E5.88974
G1 X89.657 Y94.028 E5.94488
G1 X91.555 Y91.555 E6.00001
G1 X94.028 Y89.657 E6.05515
G1 X96.909 Y88.463 E6.11029
G1 X100.000 Y88.056 E6.16542
G1 X103.091 Y88.463 E6.22056
G1 X105.972 Y89.657 E6.27570
G1 X108.445 Y91.555 E6.33083
G1 X110.343 Y94.028 E6.38597
G1 X111.537 Y96.909 E6.44111
G1 X111.944 Y100.000 E6.49624
G1 X111.537 Y103.091 E6.55138
G1 X110.343 Y105.972 E6.60651
G1 X108.491 Y108.386 E6.66032
G1 X108.445 Y108.445 E6.66165
G1 X108.835 Y108.759 F7800.000
G1 X108.802 Y108.802 F900.000 E6.66261
G1 X106.224 Y110.780 E6.72007
G1 X103.222 Y112.024 E6.77754
G1 X100.000 Y112.448 E6.83500
G1 X96.778 Y112.024 E6.89247
G1 X96.728 Y112.003 E6.89342
G1 X93.776 Y110.780 E6.94993
G1 X91.198 Y108.802 E7.00739
G1 X89.220 Y106.224 E7.06486
G1 X87.976 Y103.222 E7.12232
G1 X87.552 Y100.000 E7.17979
G1 X87.976 Y96.778 E7.23725
G1 X89.220 Y93.776 E7.29472
G1 X91.198 Y91.198 E7.35218
G1 X93.776 Y89.220 E7.40965
G1 X96.778 Y87.976 E7.46711
G1 X100.000 Y87.552 E7.52457
G1 X103.222 Y87.976 E7.58204
G1 X106.224 Y89.220 E7.63950
G1 X108.802 Y91.198 E7.69697
G1 X110.780 Y93.776 E7.75443
G1 X112.003 Y96.728 E7.81094
G1 X112.024 Y96.778 E7.81190
G1 X112.448 Y100.000 E7.86936
G1 X112.024 Y103.222 E7.92683
G1 X110.780 Y106.224 E7.98429
G1 X108.881 Y108.700 E8.03947
G1 X108.835 Y108.759 E8.04080
G1 X108.339 Y108.694 F7800.000
G1 X100.226 Y111.439
G1 X99.774 Y111.439 F1500.000 E8.04892
G1 X96.528 Y110.931 F7800.000
G1 X103.472 Y110.931 F1500.000 E8.17379
G1 X104.700 Y110.422 E8.19768
G1 X95.300 Y110.422 E8.36670
G1 X94.073 Y109.914 E8.39059
G1 X105.927 Y109.914 E8.60374
G1 X106.598 Y109.406 E8.61888
G1 X93.402 Y109.406 E8.85615
G1 X92.740 Y108.897 E8.87117
G1 X107.260 Y108.897 E9.13227
G1 X107.923 Y108.389 E9.14729
G1 X92.077 Y108.389 E9.43222
G1 X91.526 Y107.880 E9.44569
G1 X108.474 Y107.880 E9.75043
G1 X108.864 Y107.372 E9.76196
G1 X91.136 Y107.372 E10.08073
G1 X90.746 Y106.863 E10.09225
G1 X109.254 Y106.863 E10.42505
G1 X109.644 Y106.355 E10.43657
G1 X90.356 Y106.355 E10.78340
G1 X89.966 Y105.847 E10.79492
G1 X110.034 Y105.847 E11.15578
G1 X110.290 Y105.338 E11.16601
G1 X101.473 Y105.338 E11.32456
G1 X102.649 Y104.830 E11.34761
G1 X110.500 Y104.830 E11.48878
G1 X110.711 Y104.321 E11.49867
G1 X103.312 Y104.321 E11.63172
G1 X103.885 Y103.813 E11.64549
G1 X110.922 Y103.813 E11.77203
G1 X111.132 Y103.305 E11.78192
G1 X104.275 Y103.305 E11.90523
G1 X104.658 Y102.796 E11.91668
G1 X111.296 Y102.796 E12.03604
G1 X111.363 Y102.288 E12.04526
G1 X104.869 Y102.288 E12.16204
G1 X105.079 Y101.779 E12.17193
G1 X111.430 Y101.779 E12.28613
G1 X111.497 Y101.271 E12.29535
G1 X105.237 Y101.271 E12.40790
G1 X105.304 Y100.763 E12.41712
G1 X111.564 Y100.763 E12.52968
G1 X111.631 Y100.254 E12.53890
G1 X105.371 Y100.254 E12.65146
G1 X105.371 Y99.746 F7800.000
G1 X111.631 Y99.746 F1500.000 E12.76401
G1 X111.564 Y99.237 E12.77323
G1 X105.304 Y99.237 E12.88579
G1 X105.237 Y98.729 E12.89501
G1 X111.497 Y98.729 E13.00756
G1 X111.430 Y98.221 E13.01679
G1 X105.079 Y98.221 E13.13098
G1 X104.869 Y97.712 E13.14087
G1 X111.363 Y97.712 E13.25765
G1 X111.296 Y97.204 E13.26687
G1 X104.658 Y97.204 E13.38623
G1 X104.275 Y96.695 E13.39768
G1 X111.132 Y96.695 E13.52099
G1 X110.922 Y96.187 E13.53089
G1 X103.885 Y96.187 E13.65742
G1 X103.312 Y95.678 E13.67119
G1 X110.711 Y95.678 E13.80424
G1 X110.500 Y95.170 E13.81413
G1 X102.649 Y95.170 E13.95530
G1 X101.473 Y94.662 E13.97835
G1 X110.290 Y94.662 E14.13690
G1 X110.034 Y94.153 E14.14713
G1 X89.966 Y94.153 E14.50799
G1 X89.710 Y94.662 E14.51822
G1 X98.528 Y94.662 E14.67676
G1 X97.351 Y95.170 E14.69981
G1 X89.500 Y95.170 E14.84099
G1 X89.289 Y95.678 E14.85088
G1 X96.688 Y95.678 E14.98392
G1 X96.116 Y96.187 E14.99769
G1 X89.079 Y96.187 E15.12423
G1 X88.868 Y96.695 E15.13412
G1 X95.725 Y96.695 E15.25743
G1 X95.342 Y97.204 E15.26888
G1 X88.704 Y97.204 E15.38824
G1 X88.637 Y97.712 E15.39746
G1 X95.131 Y97.712 E15.51424
G1 X94.921 Y98.221 E15.52413
G1 X88.570 Y98.221 E15.63833
G1 X88.503 Y98.729 E15.64755
G1 X94.763 Y98.729 E15.76010
G1 X94.696 Y99.237 E15.76932
G1 X88.436 Y99.237 E15.88188
G1 X88.369 Y99.746 E15.89110
G1 X94.629 Y99.746 E16.00366
G1 X94.629 Y100.254 F7800.000
G1 X88.369 Y100.254 F1500.000 E16.11621
G1 X88.436 Y100.763 E16.12543
G1 X94.696 Y100.763 E16.23799
G1 X94.763 Y101.271 E16.24721
G1 X88.503 Y101.271 E16.35976
G1 X88.570 Y101.779 E16.36898
G1 X94.921 Y101.779 E16.48318
G1 X95.131 Y102.288 E16.49307
G1 X88.637 Y102.288 E16.60985
G1 X88.704 Y102.796 E16.61907
G1 X95.342 Y102.796 E16.73843
G1 X95.725 Y103.305 E16.74988
G1 X88.868 Y103.305 E16.87319
G1 X89.079 Y103.813 E16.88308
G1 X96.116 Y103.813 E17.00962
G1 X96.688 Y104.321 E17.02339
G1 X89.289 Y104.321 E17.15643
G1 X89.500 Y104.830 E17.16633
G1 X97.351 Y104.830 E17.30750
G1 X98.528 Y105.338 E17.33055
G1 X89.710 Y105.338 E17.48909
G1 X90.356 Y93.645 F7800.000
G1 X109.644 Y93.645 F1500.000 E17.83592
G1 X109.254 Y93.136 E17.84744
G1 X90.746 Y93.136 E18.18024
G1 X91.136 Y92.628 E18.19176
G1 X108.864 Y92.628 E18.51053
G1 X108.474 Y92.120 E18.52206
G1 X91.526 Y92.120 E18.82680
G1 X92.077 Y91.611 E18.84028
G1 X107.923 Y91.611 E19.12520
G1 X107.260 Y91.103 E19.14022
G1 X92.740 Y91.103 E19.40132
G1 X93.402 Y90.594 E19.41634
G1 X106.598 Y90.594 E19.65362
G1 X105.927 Y90.086 E19.66875
G1 X94.073 Y90.086 E19.88191
G1 X95.300 Y89.578 E19.90579
G1 X104.700 Y89.578 E20.07481
G1 X103.472 Y89.069 E20.09870
G1 X96.528 Y89.069 E20.22357
G1 X99.774 Y88.561 F7800.000
G1 X100.226 Y88.561 F1500.000 E20.23169
M106 S254
G1 Z0.500 F7800.000
G1 X100.000 Y95.227
G1 X101.235 Y95.390 F600.000 E20.26458
G1 X102.255 Y95.812 E20.29370
G1 X102.386 Y95.867 E20.29747
G1 X103.375 Y96.625 E20.33035
G1 X104.133 Y97.614 E20.36324
G1 X104.610 Y98.765 E20.39613
G1 X104.772 Y100.000 E20.42901
G1 X104.610 Y101.235 E20.46190
G1 X104.555 Y101.367 E20.46566
G1 X104.133 Y102.386 E20.49479
G1 X103.375 Y103.375 E20.52767
G1 X102.386 Y104.133 E20.56056
G1 X101.235 Y104.610 E20.59345
G1 X100.000 Y104.772 E20.62634
G1 X98.765 Y104.610 E20.65922
G1 X97.614 Y104.133 E20.69211
G1 X96.625 Y103.375 E20.72500
G1 X95.867 Y102.386 E20.75788
G1 X95.390 Y101.235 E20.79077
G1 X95.227 Y100.000 E20.82366
G1 X95.390 Y98.765 E20.85654
G1 X95.867 Y97.614 E20.88943
G1 X96.625 Y96.625 E20.92232
G1 X97.614 Y95.867 E20.95520
G1 X98.765 Y95.390 E20.98809
G1 X99.889 Y95.242 E21.01802
G1 X100.000 Y95.227 E21.02098
G1 X100.401 Y94.598 F7800.000
G1 X100.207 Y87.731
G1 X103.183 Y88.122 F1800.000 E21.10021
G1 X106.148 Y89.351 E21.18495
G1 X108.695 Y91.305 E21.26968
G1 X110.649 Y93.852 E21.35442
G1 X111.798 Y96.625 E21.43365
G1 X111.878 Y96.817 E21.43915
G1 X112.297 Y100.000 E21.52389
G1 X111.878 Y103.183 E21.60862
G1 X110.729 Y105.956 E21.68785
G1 X110.649 Y106.148 E21.69335
G1 X108.695 Y108.695 E21.77809
G1 X106.148 Y110.649 E21.86282
G1 X105.956 Y110.729 E21.86832
G1 X103.183 Y111.878 E21.94756
G1 X100.000 Y112.297 E22.03229
G1 X96.817 Y111.878 E22.11703
G1 X96.625 Y111.798 E22.12253
G1 X93.852 Y110.649 E22.20176
G1 X91.305 Y108.695 E22.28650
G1 X89.351 Y106.148 E22.37123
