; generated by Slic3r 0.9.8 on 2013-06-05 at 14:39:55

; layer_height = .25
; perimeters = 1
; top_solid_layers = 4
; bottom_solid_layers = 4
; fill_density = .9
; perimeter_speed = 30
; infill_speed = 40
; travel_speed = 130
; scale = 1
; nozzle_diameter = 0.5
; filament_diameter = 3
; extrusion_multiplier = 1
; perimeters extrusion width = 0.80mm
; infill extrusion width = 0.80mm
; first layer extrusion width = 0.50mm

M107
M104 S220 ; set temperature
G28 ; home all axes
M109 S220 ; wait for temperature to be reached
G90 ; use absolute coordinates
G21 ; set units to millimeters
G92 E0
M82 ; use absolute distances for extrusion
G1 Z0.250 F7800.000
G1 X129.700 Y129.025
G1 X129.480 Y129.205 F900.000 E0.00503
G1 X128.810 Y129.675 E0.01950
G1 X128.330 Y129.945 E0.02924
G1 X127.570 Y130.275 E0.04389
G1 X127.050 Y130.445 E0.05357
G1 X126.520 Y130.575 E0.06322
G1 X125.700 Y130.685 E0.07785
G1 X125.150 Y130.705 E0.08758
G1 X74.840 Y130.705 E0.97725
G1 X74.290 Y130.685 E0.98699
G1 X73.470 Y130.575 E1.00162
G1 X72.940 Y130.445 E1.01127
G1 X72.160 Y130.175 E1.02586
G1 X71.660 Y129.945 E1.03560
G1 X70.950 Y129.525 E1.05019
G1 X70.290 Y129.025 E1.06483
G1 X69.890 Y128.655 E1.07446
G1 X69.520 Y128.255 E1.08410
G1 X69.020 Y127.595 E1.09874
G1 X68.730 Y127.125 E1.10851
G1 X68.480 Y126.635 E1.11824
G1 X68.270 Y126.125 E1.12799
G1 X68.100 Y125.605 E1.13766
G1 X67.970 Y125.075 E1.14731
G1 X67.860 Y124.255 E1.16194
G1 X67.840 Y123.705 E1.17168
G1 X67.840 Y76.285 E2.01025
G1 X67.860 Y75.735 E2.01998
G1 X67.970 Y74.915 E2.03461
G1 X68.180 Y74.125 E2.04907
G1 X68.480 Y73.355 E2.06368
G1 X68.870 Y72.625 E2.07831
G1 X69.340 Y71.955 E2.09279
G1 X69.890 Y71.335 E2.10744
G1 X70.290 Y70.965 E2.11708
G1 X70.510 Y70.785 E2.12211
G1 X71.180 Y70.315 E2.13658
G1 X71.660 Y70.045 E2.14632
G1 X72.420 Y69.715 E2.16097
G1 X72.940 Y69.545 E2.17064
G1 X73.470 Y69.415 E2.18029
G1 X74.290 Y69.305 E2.19493
G1 X74.840 Y69.285 E2.20466
G1 X125.150 Y69.285 E3.09433
G1 X125.700 Y69.305 E3.10407
G1 X126.520 Y69.415 E3.11870
G1 X127.050 Y69.545 E3.12835
G1 X127.830 Y69.815 E3.14294
G1 X128.330 Y70.045 E3.15268
G1 X129.040 Y70.465 E3.16726
G1 X129.700 Y70.965 E3.18191
G1 X130.100 Y71.335 E3.19154
G1 X130.470 Y71.735 E3.20118
G1 X130.970 Y72.395 E3.21582
G1 X131.260 Y72.865 E3.22559
G1 X131.510 Y73.355 E3.23531
G1 X131.720 Y73.865 E3.24507
G1 X131.890 Y74.385 E3.25474
G1 X132.020 Y74.915 E3.26439
G1 X132.130 Y75.735 E3.27902
G1 X132.150 Y76.285 E3.28876
G1 X132.150 Y123.705 E4.12733
G1 X132.130 Y124.255 E4.13706
G1 X132.020 Y125.075 E4.15169
G1 X131.810 Y125.865 E4.16614
G1 X131.510 Y126.635 E4.18076
G1 X131.120 Y127.365 E4.19539
G1 X130.650 Y128.035 E4.20987
G1 X130.100 Y128.655 E4.22452
G1 X129.756 Y128.974 E4.23283
G1 X129.700 Y129.025 E4.23416
G1 X129.460 Y128.575 F7800.000
G1 X129.050 Y128.905 F900.000 E4.24347
G1 X128.400 Y129.335 E4.25725
G1 X127.940 Y129.575 E4.26642
G1 X127.450 Y129.785 E4.27585
G1 X127.210 Y129.875 E4.28038
G1 X126.710 Y130.015 E4.28957
G1 X126.190 Y130.125 E4.29896
G1 X125.670 Y130.185 E4.30822
G1 X125.150 Y130.205 E4.31742
G1 X74.840 Y130.205 E5.20710
G1 X74.320 Y130.185 E5.21630
G1 X73.800 Y130.125 E5.22556
G1 X73.540 Y130.075 E5.23024
G1 X72.780 Y129.875 E5.24414
G1 X72.290 Y129.685 E5.25343
G1 X71.820 Y129.465 E5.26261
G1 X71.150 Y129.055 E5.27650
G1 X70.530 Y128.575 E5.29037
G1 X70.340 Y128.395 E5.29499
G1 X69.970 Y128.015 E5.30437
G1 X69.490 Y127.395 E5.31824
G1 X69.080 Y126.725 E5.33213
G1 X68.860 Y126.255 E5.34131
G1 X68.670 Y125.765 E5.35060
G1 X68.470 Y125.005 E5.36450
G1 X68.420 Y124.745 E5.36918
G1 X68.360 Y124.225 E5.37844
G1 X68.340 Y123.705 E5.38764
G1 X68.340 Y76.285 E6.22621
G1 X68.360 Y75.765 E6.23541
G1 X68.420 Y75.245 E6.24467
G1 X68.470 Y74.985 E6.24935
G1 X68.670 Y74.225 E6.26325
G1 X68.860 Y73.735 E6.27254
G1 X69.080 Y73.265 E6.28172
G1 X69.490 Y72.595 E6.29561
G1 X69.970 Y71.975 E6.30947
G1 X70.340 Y71.595 E6.31885
G1 X70.530 Y71.415 E6.32348
G1 X71.150 Y70.935 E6.33735
G1 X71.820 Y70.525 E6.35124
G1 X72.290 Y70.305 E6.36041
G1 X72.780 Y70.115 E6.36971
G1 X73.540 Y69.915 E6.38360
G1 X73.800 Y69.865 E6.38829
G1 X74.320 Y69.805 E6.39754
G1 X74.840 Y69.785 E6.40675
G1 X125.150 Y69.785 E7.29642
G1 X125.670 Y69.805 E7.30562
G1 X126.190 Y69.865 E7.31488
G1 X126.450 Y69.915 E7.31956
G1 X127.210 Y70.115 E7.33346
G1 X127.700 Y70.305 E7.34275
G1 X128.170 Y70.525 E7.35193
G1 X128.840 Y70.935 E7.36582
G1 X129.460 Y71.415 E7.37969
G1 X129.650 Y71.595 E7.38432
G1 X130.020 Y71.975 E7.39370
G1 X130.500 Y72.595 E7.40756
G1 X130.910 Y73.265 E7.42145
G1 X131.130 Y73.735 E7.43063
G1 X131.320 Y74.225 E7.43992
G1 X131.520 Y74.985 E7.45382
G1 X131.570 Y75.245 E7.45850
G1 X131.630 Y75.765 E7.46776
G1 X131.650 Y76.285 E7.47696
G1 X131.650 Y123.705 E8.31553
G1 X131.630 Y124.225 E8.32473
G1 X131.570 Y124.745 E8.33399
G1 X131.520 Y125.005 E8.33867
G1 X131.320 Y125.765 E8.35257
G1 X131.130 Y126.255 E8.36186
G1 X130.910 Y126.725 E8.37104
G1 X130.500 Y127.395 E8.38493
G1 X130.020 Y128.015 E8.39880
G1 X129.514 Y128.523 E8.41147
G1 X129.460 Y128.575 E8.41280
G1 X114.380 Y85.883 F7800.000
G1 X113.568 Y85.990 F300.000 E8.42729
G1 X112.755 Y85.883 E8.44177
G1 X111.999 Y85.569 E8.45626
G1 X111.349 Y85.071 E8.47074
G1 X110.850 Y84.421 E8.48523
G1 X110.537 Y83.664 E8.49971
G1 X110.430 Y82.852 E8.51420
G1 X110.537 Y82.040 E8.52868
G1 X110.850 Y81.283 E8.54317
G1 X111.349 Y80.633 E8.55765
G1 X111.999 Y80.134 E8.57214
G1 X112.755 Y79.821 E8.58662
G1 X113.568 Y79.714 E8.60111
G1 X114.380 Y79.821 E8.61559
G1 X115.136 Y80.134 E8.63008
G1 X115.786 Y80.633 E8.64456
G1 X116.285 Y81.283 E8.65905
G1 X116.598 Y82.040 E8.67353
G1 X116.705 Y82.852 E8.68802
G1 X116.598 Y83.664 E8.70250
G1 X116.285 Y84.421 E8.71699
G1 X115.786 Y85.071 E8.73147
G1 X115.136 Y85.569 E8.74596
G1 X114.449 Y85.854 E8.75912
G1 X114.380 Y85.883 E8.76044
G1 X114.249 Y85.396 F7800.000
G1 X113.568 Y85.485 F300.000 E8.77260
G1 X112.886 Y85.396 E8.78476
G1 X112.251 Y85.132 E8.79691
G1 X111.705 Y84.714 E8.80907
G1 X111.287 Y84.169 E8.82123
G1 X111.024 Y83.533 E8.83338
G1 X110.934 Y82.852 E8.84554
G1 X111.024 Y82.170 E8.85770
G1 X111.287 Y81.535 E8.86985
G1 X111.705 Y80.990 E8.88201
G1 X112.251 Y80.571 E8.89417
G1 X112.886 Y80.308 E8.90632
G1 X113.568 Y80.218 E8.91848
G1 X114.249 Y80.308 E8.93064
G1 X114.884 Y80.571 E8.94280
G1 X115.430 Y80.990 E8.95495
G1 X115.848 Y81.535 E8.96711
G1 X116.111 Y82.170 E8.97927
G1 X116.201 Y82.852 E8.99142
G1 X116.111 Y83.533 E9.00358
G1 X115.848 Y84.169 E9.01574
G1 X115.430 Y84.714 E9.02789
G1 X114.884 Y85.132 E9.04005
G1 X114.318 Y85.367 E9.05088
G1 X114.249 Y85.396 E9.05221
G1 X114.099 Y85.872 F7800.000
G1 X89.570 Y82.852
G1 X89.463 Y83.664 F300.000 E9.06669
G1 X89.150 Y84.421 E9.08118
G1 X88.651 Y85.071 E9.09566
G1 X88.001 Y85.569 E9.11015
G1 X87.245 Y85.883 E9.12463
G1 X86.432 Y85.990 E9.13912
G1 X85.620 Y85.883 E9.15360
G1 X84.864 Y85.569 E9.16809
G1 X84.214 Y85.071 E9.18257
G1 X83.715 Y84.421 E9.19706
G1 X83.402 Y83.664 E9.21154
G1 X83.295 Y82.852 E9.22603
G1 X83.402 Y82.040 E9.24051
G1 X83.715 Y81.283 E9.25500
G1 X84.214 Y80.633 E9.26948
G1 X84.864 Y80.134 E9.28397
G1 X85.620 Y79.821 E9.29845
G1 X86.432 Y79.714 E9.31294
G1 X87.245 Y79.821 E9.32742
G1 X88.001 Y80.134 E9.34191
G1 X88.651 Y80.633 E9.35639
G1 X89.150 Y81.283 E9.37088
G1 X89.463 Y82.040 E9.38536
G1 X89.560 Y82.777 E9.39852
G1 X89.570 Y82.852 E9.39985
G1 X89.066 Y82.852 F7800.000
G1 X88.976 Y83.533 F300.000 E9.41201
G1 X88.713 Y84.169 E9.42416
G1 X88.295 Y84.714 E9.43632
G1 X87.749 Y85.132 E9.44848
G1 X87.114 Y85.396 E9.46063
G1 X86.432 Y85.485 E9.47279
G1 X85.751 Y85.396 E9.48495
G1 X85.116 Y85.132 E9.49710
G1 X84.570 Y84.714 E9.50926
G1 X84.152 Y84.169 E9.52142
G1 X83.889 Y83.533 E9.53357
G1 X83.799 Y82.852 E9.54573
G1 X83.889 Y82.170 E9.55789
G1 X84.152 Y81.535 E9.57005
G1 X84.570 Y80.990 E9.58220
G1 X85.116 Y80.571 E9.59436
G1 X85.751 Y80.308 E9.60652
G1 X86.432 Y80.218 E9.61867
G1 X87.114 Y80.308 E9.63083
G1 X87.749 Y80.571 E9.64299
G1 X88.295 Y80.990 E9.65514
G1 X88.713 Y81.535 E9.66730
G1 X88.976 Y82.170 E9.67946
G1 X89.056 Y82.777 E9.69029
G1 X89.066 Y82.852 E9.69161
G1 X89.488 Y83.120 F7800.000
G1 X87.300 Y114.468
G1 X88.112 Y114.575 F300.000 E9.70610
G1 X88.869 Y114.888 E9.72059
G1 X89.519 Y115.387 E9.73507
G1 X90.017 Y116.037 E9.74955
G1 X90.331 Y116.793 E9.76404
G1 X90.438 Y117.605 E9.77853
G1 X90.331 Y118.417 E9.79301
G1 X90.017 Y119.174 E9.80750
G1 X89.519 Y119.824 E9.82198
G1 X88.869 Y120.323 E9.83647
G1 X88.112 Y120.636 E9.85095
G1 X87.300 Y120.743 E9.86544
G1 X86.488 Y120.636 E9.87992
G1 X85.731 Y120.323 E9.89441
G1 X85.081 Y119.824 E9.90889
G1 X84.583 Y119.174 E9.92338
G1 X84.269 Y118.417 E9.93786
G1 X84.162 Y117.605 E9.95235
G1 X84.269 Y116.793 E9.96683
G1 X84.583 Y116.037 E9.98132
G1 X85.081 Y115.387 E9.99580
G1 X85.731 Y114.888 E10.01029
G1 X86.488 Y114.575 E10.02477
G1 X87.226 Y114.477 E10.03793
G1 X87.300 Y114.468 E10.03926
G1 X87.300 Y114.972 F7800.000
G1 X87.982 Y115.062 F300.000 E10.05141
G1 X88.617 Y115.325 E10.06357
G1 X89.162 Y115.743 E10.07573
G1 X89.581 Y116.289 E10.08788
G1 X89.844 Y116.924 E10.10004
G1 X89.933 Y117.605 E10.11220
G1 X89.844 Y118.287 E10.12435
G1 X89.581 Y118.922 E10.13651
G1 X89.162 Y119.467 E10.14867
G1 X88.617 Y119.886 E10.16082
G1 X87.982 Y120.149 E10.17298
G1 X87.300 Y120.239 E10.18514
G1 X86.618 Y120.149 E10.19730
G1 X85.983 Y119.886 E10.20945
G1 X85.438 Y119.467 E10.22161
G1 X85.019 Y118.922 E10.23377
G1 X84.756 Y118.287 E10.24592
G1 X84.667 Y117.605 E10.25808
G1 X84.756 Y116.924 E10.27024
G1 X85.019 Y116.289 E10.28239
G1 X85.438 Y115.743 E10.29455
G1 X85.983 Y115.325 E10.30671
G1 X86.618 Y115.062 E10.31886
G1 X87.226 Y114.982 E10.32970
G1 X87.300 Y114.972 E10.33102
G1 X87.569 Y114.550 F7800.000
G1 X109.562 Y117.605
G1 X109.669 Y116.793 F300.000 E10.34551
G1 X109.983 Y116.037 E10.35999
G1 X110.481 Y115.387 E10.37448
G1 X111.131 Y114.888 E10.38896
G1 X111.888 Y114.575 E10.40345
G1 X112.700 Y114.468 E10.41793
G1 X113.512 Y114.575 E10.43242
G1 X114.269 Y114.888 E10.44690
G1 X114.919 Y115.387 E10.46139
G1 X115.417 Y116.037 E10.47587
G1 X115.731 Y116.793 E10.49036
G1 X115.838 Y117.605 E10.50484
G1 X115.731 Y118.417 E10.51933
G1 X115.417 Y119.174 E10.53381
G1 X114.919 Y119.824 E10.54830
G1 X114.269 Y120.323 E10.56278
G1 X113.512 Y120.636 E10.57727
G1 X112.700 Y120.743 E10.59175
G1 X111.888 Y120.636 E10.60624
G1 X111.131 Y120.323 E10.62072
G1 X110.481 Y119.824 E10.63521
G1 X109.983 Y119.174 E10.64969
G1 X109.669 Y118.417 E10.66418
G1 X109.572 Y117.680 E10.67734
G1 X109.562 Y117.605 E10.67866
G1 X110.067 Y117.605 F7800.000
G1 X110.156 Y116.924 F300.000 E10.69082
G1 X110.419 Y116.289 E10.70298
G1 X110.838 Y115.743 E10.71513
G1 X111.383 Y115.325 E10.72729
G1 X112.018 Y115.062 E10.73945
G1 X112.700 Y114.972 E10.75160
G1 X113.382 Y115.062 E10.76376
G1 X114.017 Y115.325 E10.77592
G1 X114.562 Y115.743 E10.78807
G1 X114.981 Y116.289 E10.80023
G1 X115.244 Y116.924 E10.81239
G1 X115.333 Y117.605 E10.82455
G1 X115.244 Y118.287 E10.83670
G1 X114.981 Y118.922 E10.84886
G1 X114.562 Y119.467 E10.86102
G1 X114.017 Y119.886 E10.87317
G1 X113.382 Y120.149 E10.88533
G1 X112.700 Y120.239 E10.89749
G1 X112.018 Y120.149 E10.90964
G1 X111.383 Y119.886 E10.92180
G1 X110.838 Y119.467 E10.93396
G1 X110.419 Y118.922 E10.94611
G1 X110.156 Y118.287 E10.95827
G1 X110.076 Y117.680 E10.96910
G1 X110.067 Y117.605 E10.97043
G1 X109.645 Y117.337 F7800.000
G1 X124.650 Y123.205
G1 X75.350 Y123.205 F900.000 E11.84224
G1 X75.350 Y76.795 E12.66297
G1 X124.650 Y76.795 E13.53478
G1 X124.650 Y123.130 E14.35418
G1 X124.650 Y123.205 E14.35550
G1 X125.150 Y123.705 F7800.000
G1 X74.850 Y123.705 F900.000 E15.24500
G1 X74.850 Y76.295 E16.08341
G1 X125.150 Y76.295 E16.97291
G1 X125.150 Y123.630 E17.80999
G1 X125.150 Y123.705 E17.81131
G1 X124.717 Y123.455 F7800.000
G1 X124.375 Y122.705
G1 X75.625 Y122.705 F1500.000 E18.68128
G1 X75.625 Y122.201 E18.69028
G1 X124.375 Y122.201 E19.56024
G1 X124.375 Y121.696 E19.56924
G1 X75.625 Y121.696 E20.43920
G1 X75.625 Y121.192 E20.44821
G1 X87.103 Y121.192 E20.65303
G1 X87.497 Y121.192 F7800.000
G1 X112.503 Y121.192 F1500.000 E21.09926
G1 X112.897 Y121.192 F7800.000
G1 X124.375 Y121.192 F1500.000 E21.30408
G1 X124.375 Y120.687 E21.31309
G1 X114.390 Y120.687 E21.49127
G1 X115.048 Y120.183 E21.50606
G1 X124.375 Y120.183 E21.67251
G1 X124.375 Y119.678 E21.68151
G1 X115.436 Y119.678 E21.84104
G1 X115.734 Y119.173 E21.85149
G1 X124.375 Y119.173 E22.00570
G1 X124.375 Y118.669 E22.01470
G1 X115.943 Y118.669 E22.16518
G1 X116.043 Y118.164 E22.17436
G1 X124.375 Y118.164 E22.32304
G1 X124.375 Y117.660 E22.33205
G1 X116.110 Y117.660 E22.47955
G1 X116.058 Y117.155 E22.48860
G1 X124.375 Y117.155 E22.63702
G1 X124.375 Y116.651 E22.64603
G1 X115.988 Y116.651 E22.79570
G1 X115.779 Y116.146 E22.80545
G1 X124.375 Y116.146 E22.95885
G1 X124.375 Y115.641 E22.96786
G1 X115.519 Y115.641 E23.12589
G1 X115.132 Y115.137 E23.13724
G1 X124.375 Y115.137 E23.30218
G1 X124.375 Y114.632 E23.31118
G1 X114.532 Y114.632 E23.48684
G1 X113.515 Y114.128 E23.50710
G1 X124.375 Y114.128 E23.70091
G1 X124.375 Y113.623 E23.70991
G1 X75.625 Y113.623 E24.57987
G1 X75.625 Y113.119 E24.58887
G1 X124.375 Y113.119 E25.45883
G1 X124.375 Y112.614 E25.46784
G1 X75.625 Y112.614 E26.33780
G1 X75.625 Y112.109 E26.34680
G1 X124.375 Y112.109 E27.21676
G1 X124.375 Y111.605 E27.22577
G1 X75.625 Y111.605 E28.09573
G1 X75.625 Y111.100 E28.10473
G1 X124.375 Y111.100 E28.97469
G1 X124.375 Y110.596 E28.98370
G1 X75.625 Y110.596 E29.85366
G1 X75.625 Y110.091 E29.86266
G1 X124.375 Y110.091 E30.73262
G1 X124.375 Y109.587 E30.74163
G1 X75.625 Y109.587 E31.61159
G1 X75.625 Y109.082 E31.62059
G1 X124.375 Y109.082 E32.49055
G1 X124.375 Y108.578 E32.49955
G1 X75.625 Y108.578 E33.36951
G1 X75.625 Y108.073 E33.37852
G1 X124.375 Y108.073 E34.24848
G1 X124.375 Y107.568 E34.25748
G1 X75.625 Y107.568 E35.12744
G1 X75.625 Y107.064 E35.13645
G1 X124.375 Y107.064 E36.00641
G1 X124.375 Y106.559 E36.01541
G1 X75.625 Y106.559 E36.88537
G1 X75.625 Y106.055 E36.89438
G1 X124.375 Y106.055 E37.76434
G1 X124.375 Y105.550 E37.77334
G1 X75.625 Y105.550 E38.64330
G1 X75.625 Y105.046 E38.65231
G1 X124.375 Y105.046 E39.52227
G1 X124.375 Y104.541 E39.53127
G1 X75.625 Y104.541 E40.40123
G1 X75.625 Y104.036 E40.41024
G1 X124.375 Y104.036 E41.28020
G1 X124.375 Y103.532 E41.28920
G1 X75.625 Y103.532 E42.15916
G1 X75.625 Y103.027 E42.16816
G1 X124.375 Y103.027 E43.03812
G1 X124.375 Y102.523 E43.04713
G1 X75.625 Y102.523 E43.91709
G1 X75.625 Y102.018 E43.92609
G1 X124.375 Y102.018 E44.79605
G1 X124.375 Y101.514 E44.80506
G1 X75.625 Y101.514 E45.67502
G1 X75.625 Y101.009 E45.68402
G1 X124.375 Y101.009 E46.55398
G1 X124.375 Y100.505 E46.56299
G1 X75.625 Y100.505 E47.43295
G1 X75.625 Y100.000 E47.44195
G1 X124.375 Y100.000 E48.31191
G1 X124.375 Y99.495 E48.32092
G1 X75.625 Y99.495 E49.19088
G1 X75.625 Y98.991 E49.19988
G1 X124.375 Y98.991 E50.06984
G1 X124.375 Y98.486 E50.07884
G1 X75.625 Y98.486 E50.94880
G1 X75.625 Y97.982 E50.95781
G1 X124.375 Y97.982 E51.82777
G1 X124.375 Y97.477 E51.83677
G1 X75.625 Y97.477 E52.70673
G1 X75.625 Y96.973 E52.71574
G1 X124.375 Y96.973 E53.58570
G1 X124.375 Y96.468 E53.59470
G1 X75.625 Y96.468 E54.46466
G1 X75.625 Y95.963 E54.47367
G1 X124.375 Y95.963 E55.34363
G1 X124.375 Y95.459 E55.35263
G1 X75.625 Y95.459 E56.22259
G1 X75.625 Y94.954 E56.23159
G1 X124.375 Y94.954 E57.10156
G1 X124.375 Y94.450 E57.11056
G1 X75.625 Y94.450 E57.98052
G1 X75.625 Y93.945 E57.98953
G1 X124.375 Y93.945 E58.85949
G1 X124.375 Y93.441 E58.86849
G1 X75.625 Y93.441 E59.73845
G1 X75.625 Y92.936 E59.74745
