; generated by Slic3r 0.9.8 on 2013-06-05 at 13:39:27

; layer_height = .25
; perimeters = 1
; top_solid_layers = 4
; bottom_solid_layers = 4
; fill_density = .9
; perimeter_speed = 30
; infill_speed = 40
; travel_speed = 130
; scale = 1
; nozzle_diameter = 0.5
; filament_diameter = 3
; extrusion_multiplier = 1
; perimeters extrusion width = 0.80mm
; infill extrusion width = 0.80mm
; first layer extrusion width = 0.50mm

M107
M104 S220 ; set temperature
G28 ; home all axes
M109 S220 ; wait for temperature to be reached
G90 ; use absolute coordinates
G21 ; set units to millimeters
G92 E0
M82 ; use absolute distances for extrusion
G1 Z0.250 F7800.000
G1 X129.700 Y129.025
G1 X129.480 Y129.205 F900.000 E0.00503
G1 X128.810 Y129.675 E0.01950
G1 X128.330 Y129.945 E0.02924
G1 X127.570 Y130.275 E0.04389
G1 X127.050 Y130.445 E0.05357
G1 X126.520 Y130.575 E0.06322
G1 X125.700 Y130.685 E0.07785
G1 X125.150 Y130.705 E0.08758
G1 X74.840 Y130.705 E0.97725
G1 X74.290 Y130.685 E0.98699
G1 X73.470 Y130.575 E1.00162
G1 X72.940 Y130.445 E1.01127
G1 X72.160 Y130.175 E1.02586
G1 X71.660 Y129.945 E1.03560
G1 X70.950 Y129.525 E1.05019
G1 X70.290 Y129.025 E1.06483
G1 X69.890 Y128.655 E1.07446
G1 X69.520 Y128.255 E1.08410
G1 X69.020 Y127.595 E1.09874
G1 X68.730 Y127.125 E1.10851
G1 X68.480 Y126.635 E1.11824
G1 X68.270 Y126.125 E1.12799
G1 X68.100 Y125.605 E1.13766
G1 X67.970 Y125.075 E1.14731
G1 X67.860 Y124.255 E1.16194
G1 X67.840 Y123.705 E1.17168
G1 X67.840 Y76.285 E2.01025
G1 X67.860 Y75.735 E2.01998
G1 X67.970 Y74.915 E2.03461
G1 X68.180 Y74.125 E2.04907
G1 X68.480 Y73.355 E2.06368
G1 X68.870 Y72.625 E2.07831
G1 X69.340 Y71.955 E2.09279
G1 X69.890 Y71.335 E2.10744
G1 X70.290 Y70.965 E2.11708
G1 X70.510 Y70.785 E2.12211
G1 X71.180 Y70.315 E2.13658
G1 X71.660 Y70.045 E2.14632
G1 X72.420 Y69.715 E2.16097
G1 X72.940 Y69.545 E2.17064
G1 X73.470 Y69.415 E2.18029
G1 X74.290 Y69.305 E2.19493
G1 X74.840 Y69.285 E2.20466
G1 X125.150 Y69.285 E3.09433
G1 X125.700 Y69.305 E3.10407
G1 X126.520 Y69.415 E3.11870
G1 X127.050 Y69.545 E3.12835
G1 X127.830 Y69.815 E3.14294
G1 X128.330 Y70.045 E3.15268
G1 X129.040 Y70.465 E3.16726
G1 X129.700 Y70.965 E3.18191
G1 X130.100 Y71.335 E3.19154
G1 X130.470 Y71.735 E3.20118
G1 X130.970 Y72.395 E3.21582
G1 X131.260 Y72.865 E3.22559
G1 X131.510 Y73.355 E3.23531
G1 X131.720 Y73.865 E3.24507
G1 X131.890 Y74.385 E3.25474
G1 X132.020 Y74.915 E3.26439
G1 X132.130 Y75.735 E3.27902
G1 X132.150 Y76.285 E3.28876
G1 X132.150 Y123.705 E4.12733
G1 X132.130 Y124.255 E4.13706
G1 X132.020 Y125.075 E4.15169
G1 X131.810 Y125.865 E4.16614
G1 X131.510 Y126.635 E4.18076
G1 X131.120 Y127.365 E4.19539
G1 X130.650 Y128.035 E4.20987
G1 X130.100 Y128.655 E4.22452
G1 X129.756 Y128.974 E4.23283
G1 X129.700 Y129.025 E4.23416
G1 X129.460 Y128.575 F7800.000
G1 X129.050 Y128.905 F900.000 E4.24347
G1 X128.400 Y129.335 E4.25725
G1 X127.940 Y129.575 E4.26642
G1 X127.450 Y129.785 E4.27585
G1 X127.210 Y129.875 E4.28038
G1 X126.710 Y130.015 E4.28957
G1 X126.190 Y130.125 E4.29896
G1 X125.670 Y130.185 E4.30822
G1 X125.150 Y130.205 E4.31742
G1 X74.840 Y130.205 E5.20710
G1 X74.320 Y130.185 E5.21630
G1 X73.800 Y130.125 E5.22556
G1 X73.540 Y130.075 E5.23024
G1 X72.780 Y129.875 E5.24414
G1 X72.290 Y129.685 E5.25343
G1 X71.820 Y129.465 E5.26261
G1 X71.150 Y129.055 E5.27650
G1 X70.530 Y128.575 E5.29037
G1 X70.340 Y128.395 E5.29499
G1 X69.970 Y128.015 E5.30437
G1 X69.490 Y127.395 E5.31824
G1 X69.080 Y126.725 E5.33213
G1 X68.860 Y126.255 E5.34131
G1 X68.670 Y125.765 E5.35060
G1 X68.470 Y125.005 E5.36450
G1 X68.420 Y124.745 E5.36918
G1 X68.360 Y124.225 E5.37844
G1 X68.340 Y123.705 E5.38764
G1 X68.340 Y76.285 E6.22621
G1 X68.360 Y75.765 E6.23541
G1 X68.420 Y75.245 E6.24467
G1 X68.470 Y74.985 E6.24935
G1 X68.670 Y74.225 E6.26325
G1 X68.860 Y73.735 E6.27254
G1 X69.080 Y73.265 E6.28172
G1 X69.490 Y72.595 E6.29561
G1 X69.970 Y71.975 E6.30947
G1 X70.340 Y71.595 E6.31885
G1 X70.530 Y71.415 E6.32348
G1 X71.150 Y70.935 E6.33735
G1 X71.820 Y70.525 E6.35124
G1 X72.290 Y70.305 E6.36041
G1 X72.780 Y70.115 E6.36971
G1 X73.540 Y69.915 E6.38360
G1 X73.800 Y69.865 E6.38829
G1 X74.320 Y69.805 E6.39754
G1 X74.840 Y69.785 E6.40675
G1 X125.150 Y69.785 E7.29642
G1 X125.670 Y69.805 E7.30562
G1 X126.190 Y69.865 E7.31488
G1 X126.450 Y69.915 E7.31956
G1 X127.210 Y70.115 E7.33346
G1 X127.700 Y70.305 E7.34275
G1 X128.170 Y70.525 E7.35193
G1 X128.840 Y70.935 E7.36582
G1 X129.460 Y71.415 E7.37969
G1 X129.650 Y71.595 E7.38432
G1 X130.020 Y71.975 E7.39370
G1 X130.500 Y72.595 E7.40756
G1 X130.910 Y73.265 E7.42145
G1 X131.130 Y73.735 E7.43063
G1 X131.320 Y74.225 E7.43992
G1 X131.520 Y74.985 E7.45382
G1 X131.570 Y75.245 E7.45850
G1 X131.630 Y75.765 E7.46776
G1 X131.650 Y76.285 E7.47696
G1 X131.650 Y123.705 E8.31553
G1 X131.630 Y124.225 E8.32473
G1 X131.570 Y124.745 E8.33399
G1 X131.520 Y125.005 E8.33867
G1 X131.320 Y125.765 E8.35257
G1 X131.130 Y126.255 E8.36186
G1 X130.910 Y126.725 E8.37104
G1 X130.500 Y127.395 E8.38493
G1 X130.020 Y128.015 E8.39880
G1 X129.514 Y128.523 E8.41147
G1 X129.460 Y128.575 E8.41280
G1 X89.519 Y85.010 F7800.000
G1 X88.869 Y85.509 F300.000 E8.42729
G1 X88.112 Y85.822 E8.44177
G1 X87.300 Y85.929 E8.45626
G1 X86.488 Y85.822 E8.47074
G1 X85.731 Y85.509 E8.48523
G1 X85.081 Y85.010 E8.49971
G1 X84.583 Y84.360 E8.51420
G1 X84.269 Y83.604 E8.52868
G1 X84.162 Y82.791 E8.54317
G1 X84.269 Y81.979 E8.55765
G1 X84.583 Y81.223 E8.57214
G1 X85.081 Y80.573 E8.58662
G1 X85.731 Y80.074 E8.60111
G1 X86.488 Y79.761 E8.61559
G1 X87.300 Y79.654 E8.63008
G1 X88.112 Y79.761 E8.64456
G1 X88.869 Y80.074 E8.65905
G1 X89.519 Y80.573 E8.67353
G1 X90.017 Y81.223 E8.68802
G1 X90.331 Y81.979 E8.70250
G1 X90.438 Y82.791 E8.71699
G1 X90.331 Y83.604 E8.73147
G1 X90.017 Y84.360 E8.74596
G1 X89.564 Y84.951 E8.75912
G1 X89.519 Y85.010 E8.76044
G1 X89.162 Y84.654 F7800.000
G1 X88.617 Y85.072 F300.000 E8.77260
G1 X87.982 Y85.335 E8.78476
G1 X87.300 Y85.425 E8.79691
G1 X86.618 Y85.335 E8.80907
G1 X85.983 Y85.072 E8.82123
G1 X85.438 Y84.654 E8.83338
G1 X85.019 Y84.108 E8.84554
G1 X84.756 Y83.473 E8.85770
G1 X84.667 Y82.791 E8.86985
G1 X84.756 Y82.110 E8.88201
G1 X85.019 Y81.475 E8.89417
G1 X85.438 Y80.929 E8.90632
G1 X85.983 Y80.511 E8.91848
G1 X86.618 Y80.248 E8.93064
G1 X87.300 Y80.158 E8.94280
G1 X87.982 Y80.248 E8.95495
G1 X88.617 Y80.511 E8.96711
G1 X89.162 Y80.929 E8.97927
G1 X89.581 Y81.475 E8.99142
G1 X89.844 Y82.110 E9.00358
G1 X89.933 Y82.791 E9.01574
G1 X89.844 Y83.473 E9.02789
G1 X89.581 Y84.108 E9.04005
G1 X89.208 Y84.594 E9.05088
G1 X89.162 Y84.654 E9.05221
G1 X89.270 Y85.142 F7800.000
G1 X109.562 Y82.792
G1 X109.669 Y81.979 F300.000 E9.06669
G1 X109.983 Y81.223 E9.08118
G1 X110.481 Y80.573 E9.09566
G1 X111.131 Y80.074 E9.11015
G1 X111.888 Y79.761 E9.12463
G1 X112.700 Y79.654 E9.13912
G1 X113.512 Y79.761 E9.15360
G1 X114.269 Y80.074 E9.16809
G1 X114.919 Y80.573 E9.18257
G1 X115.417 Y81.223 E9.19706
G1 X115.731 Y81.979 E9.21154
G1 X115.838 Y82.791 E9.22603
G1 X115.731 Y83.604 E9.24051
G1 X115.417 Y84.360 E9.25500
G1 X114.919 Y85.010 E9.26948
G1 X114.269 Y85.509 E9.28397
G1 X113.512 Y85.822 E9.29845
G1 X112.700 Y85.929 E9.31294
G1 X111.888 Y85.822 E9.32742
G1 X111.131 Y85.509 E9.34191
G1 X110.481 Y85.010 E9.35639
G1 X109.983 Y84.360 E9.37088
G1 X109.669 Y83.604 E9.38536
G1 X109.572 Y82.866 E9.39852
G1 X109.562 Y82.792 E9.39985
G1 X110.067 Y82.792 F7800.000
G1 X110.156 Y82.110 F300.000 E9.41201
G1 X110.419 Y81.475 E9.42416
G1 X110.838 Y80.929 E9.43632
G1 X111.383 Y80.511 E9.44848
G1 X112.018 Y80.248 E9.46063
G1 X112.700 Y80.158 E9.47279
G1 X113.382 Y80.248 E9.48495
G1 X114.017 Y80.511 E9.49710
G1 X114.562 Y80.929 E9.50926
G1 X114.981 Y81.475 E9.52142
G1 X115.244 Y82.110 E9.53358
G1 X115.333 Y82.791 E9.54573
G1 X115.244 Y83.473 E9.55789
G1 X114.981 Y84.108 E9.57005
G1 X114.562 Y84.654 E9.58220
G1 X114.017 Y85.072 E9.59436
G1 X113.382 Y85.335 E9.60652
G1 X112.700 Y85.425 E9.61867
G1 X112.018 Y85.335 E9.63083
G1 X111.383 Y85.072 E9.64299
G1 X110.838 Y84.654 E9.65514
G1 X110.419 Y84.108 E9.66730
G1 X110.156 Y83.473 E9.67946
G1 X110.076 Y82.866 E9.69029
G1 X110.067 Y82.792 E9.69161
G1 X109.645 Y82.523 F7800.000
G1 X113.568 Y114.010
G1 X114.380 Y114.117 F300.000 E9.70610
G1 X115.136 Y114.431 E9.72058
G1 X115.786 Y114.929 E9.73507
G1 X116.285 Y115.579 E9.74956
G1 X116.598 Y116.336 E9.76404
G1 X116.705 Y117.148 E9.77853
G1 X116.598 Y117.960 E9.79301
G1 X116.285 Y118.717 E9.80750
G1 X115.786 Y119.367 E9.82198
G1 X115.136 Y119.866 E9.83647
G1 X114.380 Y120.179 E9.85095
G1 X113.568 Y120.286 E9.86544
G1 X112.755 Y120.179 E9.87992
G1 X111.999 Y119.866 E9.89441
G1 X111.349 Y119.367 E9.90889
G1 X110.850 Y118.717 E9.92338
G1 X110.537 Y117.960 E9.93786
G1 X110.430 Y117.148 E9.95235
G1 X110.537 Y116.336 E9.96683
G1 X110.850 Y115.579 E9.98132
G1 X111.349 Y114.929 E9.99580
G1 X111.999 Y114.431 E10.01029
G1 X112.755 Y114.117 E10.02477
G1 X113.493 Y114.020 E10.03793
G1 X113.568 Y114.010 E10.03926
G1 X113.568 Y114.515 F7800.000
G1 X114.249 Y114.605 F300.000 E10.05141
G1 X114.884 Y114.868 E10.06357
G1 X115.430 Y115.286 E10.07573
G1 X115.848 Y115.831 E10.08788
G1 X116.111 Y116.467 E10.10004
G1 X116.201 Y117.148 E10.11220
G1 X116.111 Y117.830 E10.12435
G1 X115.848 Y118.465 E10.13651
G1 X115.430 Y119.010 E10.14867
G1 X114.884 Y119.429 E10.16083
G1 X114.249 Y119.692 E10.17298
G1 X113.568 Y119.782 E10.18514
G1 X112.886 Y119.692 E10.19730
G1 X112.251 Y119.429 E10.20945
G1 X111.705 Y119.010 E10.22161
G1 X111.287 Y118.465 E10.23377
G1 X111.024 Y117.830 E10.24592
G1 X110.934 Y117.148 E10.25808
G1 X111.024 Y116.467 E10.27024
G1 X111.287 Y115.831 E10.28239
G1 X111.705 Y115.286 E10.29455
G1 X112.251 Y114.868 E10.30671
G1 X112.886 Y114.604 E10.31886
G1 X113.493 Y114.525 E10.32970
G1 X113.568 Y114.515 E10.33102
G1 X113.836 Y114.093 F7800.000
G1 X89.570 Y117.148
G1 X89.463 Y117.960 F300.000 E10.34551
G1 X89.150 Y118.717 E10.35999
G1 X88.651 Y119.367 E10.37448
G1 X88.001 Y119.866 E10.38896
G1 X87.245 Y120.179 E10.40345
G1 X86.432 Y120.286 E10.41793
G1 X85.620 Y120.179 E10.43242
G1 X84.864 Y119.866 E10.44690
G1 X84.214 Y119.367 E10.46139
G1 X83.715 Y118.717 E10.47587
G1 X83.402 Y117.960 E10.49036
G1 X83.295 Y117.148 E10.50484
G1 X83.402 Y116.336 E10.51933
G1 X83.715 Y115.579 E10.53381
G1 X84.214 Y114.929 E10.54830
G1 X84.864 Y114.431 E10.56278
G1 X85.620 Y114.117 E10.57727
G1 X86.432 Y114.010 E10.59175
G1 X87.245 Y114.117 E10.60624
G1 X88.001 Y114.431 E10.62072
G1 X88.651 Y114.929 E10.63521
G1 X89.150 Y115.579 E10.64969
G1 X89.463 Y116.336 E10.66418
G1 X89.560 Y117.074 E10.67734
G1 X89.570 Y117.148 E10.67866
G1 X89.066 Y117.148 F7800.000
G1 X88.976 Y117.830 F300.000 E10.69082
G1 X88.713 Y118.465 E10.70298
G1 X88.295 Y119.010 E10.71513
G1 X87.749 Y119.429 E10.72729
G1 X87.114 Y119.692 E10.73945
G1 X86.432 Y119.782 E10.75160
G1 X85.751 Y119.692 E10.76376
G1 X85.116 Y119.429 E10.77592
G1 X84.570 Y119.010 E10.78807
G1 X84.152 Y118.465 E10.80023
G1 X83.889 Y117.830 E10.81239
G1 X83.799 Y117.148 E10.82455
G1 X83.889 Y116.467 E10.83670
G1 X84.152 Y115.831 E10.84886
G1 X84.570 Y115.286 E10.86102
G1 X85.116 Y114.868 E10.87317
G1 X85.751 Y114.604 E10.88533
G1 X86.432 Y114.515 E10.89749
G1 X87.114 Y114.604 E10.90964
G1 X87.749 Y114.868 E10.92180
G1 X88.295 Y115.286 E10.93396
G1 X88.713 Y115.831 E10.94611
G1 X88.976 Y116.467 E10.95827
G1 X89.056 Y117.074 E10.96910
G1 X89.066 Y117.148 E10.97043
G1 X89.488 Y117.417 F7800.000
G1 X75.350 Y123.205
G1 X75.350 Y76.795 F900.000 E11.79115
G1 X124.650 Y76.795 E12.66297
G1 X124.650 Y123.205 E13.48369
G1 X75.425 Y123.205 E14.35418
G1 X75.350 Y123.205 E14.35550
G1 X74.850 Y123.705 F7800.000
G1 X74.850 Y76.295 F900.000 E15.19391
G1 X125.150 Y76.295 E16.08341
G1 X125.150 Y123.705 E16.92182
G1 X74.925 Y123.705 E17.80999
G1 X74.850 Y123.705 E17.81132
G1 X75.100 Y123.272 F7800.000
G1 X85.875 Y120.687
G1 X75.625 Y120.687 F1500.000 E17.99424
G1 X75.625 Y120.183 E18.00324
G1 X84.681 Y120.183 E18.16484
G1 X84.047 Y119.678 E18.17929
G1 X75.625 Y119.678 E18.32959
G1 X75.625 Y119.173 E18.33859
G1 X83.660 Y119.173 E18.48198
G1 X83.379 Y118.669 E18.49229
G1 X75.625 Y118.669 E18.63066
G1 X75.625 Y118.164 E18.63967
G1 X83.170 Y118.164 E18.77431
G1 X83.083 Y117.660 E18.78345
G1 X75.625 Y117.660 E18.91654
G1 X75.625 Y117.155 E18.92554
G1 X83.016 Y117.155 E19.05745
G1 X83.081 Y116.651 E19.06653
G1 X75.625 Y116.651 E19.19958
G1 X75.625 Y116.146 E19.20858
G1 X83.164 Y116.146 E19.34313
G1 X83.373 Y115.641 E19.35287
G1 X75.625 Y115.641 E19.49114
G1 X75.625 Y115.137 E19.50015
G1 X83.649 Y115.137 E19.64335
G1 X84.037 Y114.632 E19.65470
G1 X75.625 Y114.632 E19.80481
G1 X75.625 Y114.128 E19.81381
G1 X84.662 Y114.128 E19.97509
G1 X85.769 Y113.623 E19.99679
G1 X75.625 Y113.623 E20.17781
G1 X75.625 Y113.119 E20.18681
G1 X124.375 Y113.119 E21.05677
G1 X124.375 Y113.623 E21.06578
G1 X114.231 Y113.623 E21.24680
G1 X115.338 Y114.128 E21.26850
G1 X124.375 Y114.128 E21.42977
G1 X124.375 Y114.632 E21.43878
G1 X115.963 Y114.632 E21.58889
G1 X116.351 Y115.137 E21.60024
G1 X124.375 Y115.137 E21.74344
G1 X124.375 Y115.641 E21.75244
G1 X116.627 Y115.641 E21.89071
G1 X116.836 Y116.146 E21.90046
G1 X124.375 Y116.146 E22.03500
G1 X124.375 Y116.651 E22.04400
G1 X116.919 Y116.651 E22.17706
G1 X116.984 Y117.155 E22.18614
G1 X124.375 Y117.155 E22.31804
G1 X124.375 Y117.660 E22.32704
G1 X116.917 Y117.660 E22.46013
G1 X116.830 Y118.164 E22.46927
G1 X124.375 Y118.164 E22.60392
G1 X124.375 Y118.669 E22.61292
G1 X116.621 Y118.669 E22.75129
G1 X116.340 Y119.173 E22.76160
G1 X124.375 Y119.173 E22.90499
G1 X124.375 Y119.678 E22.91400
G1 X115.953 Y119.678 E23.06430
G1 X115.319 Y120.183 E23.07875
G1 X124.375 Y120.183 E23.24035
G1 X124.375 Y122.705 F7800.000
G1 X75.625 Y122.705 F1500.000 E24.11031
G1 X75.625 Y122.201 E24.11931
G1 X124.375 Y122.201 E24.98927
G1 X124.375 Y121.696 E24.99828
G1 X75.625 Y121.696 E25.86824
G1 X75.625 Y121.192 E25.87724
G1 X124.375 Y121.192 E26.74720
G1 X124.375 Y120.687 E26.75621
G1 X114.125 Y120.687 E26.93913
G1 X113.010 Y120.687 F7800.000
G1 X86.990 Y120.687 F1500.000 E27.40348
G1 X88.184 Y120.183 F7800.000
G1 X111.816 Y120.183 F1500.000 E27.82519
G1 X111.182 Y119.678 E27.83964
G1 X88.817 Y119.678 E28.23875
G1 X89.205 Y119.173 E28.25010
G1 X110.795 Y119.173 E28.63539
G1 X110.514 Y118.669 E28.64570
G1 X89.486 Y118.669 E29.02096
G1 X89.695 Y118.164 E29.03070
G1 X110.305 Y118.164 E29.39850
G1 X110.218 Y117.660 E29.40764
G1 X89.782 Y117.660 E29.77232
G1 X89.848 Y117.155 E29.78140
G1 X110.152 Y117.155 E30.14372
G1 X110.216 Y116.651 E30.15280
G1 X89.784 Y116.651 E30.51742
G1 X89.701 Y116.146 E30.52654
G1 X110.299 Y116.146 E30.89413
G1 X110.508 Y115.641 E30.90388
G1 X89.492 Y115.641 E31.27893
G1 X89.215 Y115.137 E31.28919
G1 X110.785 Y115.137 E31.67410
G1 X111.172 Y114.632 E31.68545
G1 X88.828 Y114.632 E32.08418
G1 X88.203 Y114.128 E32.09852
G1 X111.797 Y114.128 E32.51958
G1 X112.904 Y113.623 E32.54128
G1 X87.096 Y113.623 E33.00183
G1 X87.095 Y86.377 F7800.000
G1 X75.625 Y86.377 F1500.000 E33.20651
G1 X75.625 Y85.872 E33.21552
G1 X85.609 Y85.872 E33.39368
G1 X84.951 Y85.368 E33.40847
G1 X75.625 Y85.368 E33.57489
G1 X75.625 Y84.863 E33.58390
G1 X84.563 Y84.863 E33.74340
G1 X84.266 Y84.358 E33.75386
G1 X75.625 Y84.358 E33.90806
G1 X75.625 Y83.854 E33.91706
G1 X84.057 Y83.854 E34.06753
G1 X83.957 Y83.349 E34.07671
G1 X75.625 Y83.349 E34.22539
G1 X75.625 Y82.845 E34.23439
G1 X83.890 Y82.845 E34.38189
G1 X83.942 Y82.340 E34.39094
G1 X75.625 Y82.340 E34.53937
G1 X75.625 Y81.836 E34.54837
G1 X84.013 Y81.836 E34.69805
G1 X84.222 Y81.331 E34.70780
G1 X75.625 Y81.331 E34.86121
G1 X75.625 Y80.827 E34.87021
