; generated by Slic3r 0.9.8 on 2013-06-05 at 12:26:01

; layer_height = .25
; perimeters = 1
; top_solid_layers = 4
; bottom_solid_layers = 4
; fill_density = .9
; perimeter_speed = 30
; infill_speed = 40
; travel_speed = 130
; scale = 1
; nozzle_diameter = 0.5
; filament_diameter = 3
; extrusion_multiplier = 1
; perimeters extrusion width = 0.80mm
; infill extrusion width = 0.80mm
; first layer extrusion width = 0.50mm

M107
M104 S220 ; set temperature
G28 ; home all axes
M109 S220 ; wait for temperature to be reached
G90 ; use absolute coordinates
G21 ; set units to millimeters
G92 E0
M82 ; use absolute distances for extrusion
G1 Z0.250 F7800.000
G1 X127.820 Y120.448
G1 X127.040 Y120.718 F900.000 E0.01460
G1 X126.510 Y120.848 E0.02425
G1 X125.690 Y120.958 E0.03888
G1 X125.140 Y120.978 E0.04861
G1 X74.840 Y120.978 E0.93811
G1 X74.290 Y120.958 E0.94784
G1 X73.470 Y120.848 E0.96247
G1 X72.940 Y120.718 E0.97212
G1 X72.420 Y120.548 E0.98180
G1 X71.910 Y120.338 E0.99155
G1 X71.420 Y120.088 E1.00128
G1 X70.950 Y119.798 E1.01104
G1 X70.510 Y119.478 E1.02067
G1 X69.890 Y118.928 E1.03532
G1 X69.520 Y118.528 E1.04496
G1 X69.020 Y117.868 E1.05960
G1 X68.600 Y117.158 E1.07419
G1 X68.370 Y116.658 E1.08392
G1 X68.100 Y115.878 E1.09852
G1 X67.970 Y115.348 E1.10817
G1 X67.860 Y114.528 E1.12280
G1 X67.840 Y113.978 E1.13253
G1 X67.840 Y86.008 E1.62715
G1 X67.860 Y85.458 E1.63688
G1 X67.890 Y85.188 E1.64169
G1 X67.970 Y84.638 E1.65151
G1 X68.100 Y84.108 E1.66116
G1 X68.370 Y83.328 E1.67576
G1 X68.600 Y82.828 E1.68549
G1 X68.870 Y82.348 E1.69523
G1 X69.340 Y81.678 E1.70970
G1 X69.520 Y81.458 E1.71473
G1 X69.890 Y81.058 E1.72437
G1 X70.290 Y80.688 E1.73400
G1 X70.510 Y80.508 E1.73903
G1 X71.180 Y80.038 E1.75350
G1 X71.910 Y79.648 E1.76814
G1 X72.680 Y79.348 E1.78275
G1 X73.470 Y79.138 E1.79721
G1 X74.290 Y79.028 E1.81184
G1 X74.840 Y79.008 E1.82157
G1 X125.140 Y79.008 E2.71107
G1 X125.690 Y79.028 E2.72080
G1 X126.510 Y79.138 E2.73543
G1 X127.040 Y79.268 E2.74508
G1 X127.560 Y79.438 E2.75476
G1 X128.070 Y79.648 E2.76451
G1 X128.560 Y79.898 E2.77424
G1 X129.030 Y80.188 E2.78401
G1 X129.470 Y80.508 E2.79363
G1 X130.090 Y81.058 E2.80828
G1 X130.460 Y81.458 E2.81792
G1 X130.960 Y82.118 E2.83256
G1 X131.380 Y82.828 E2.84715
G1 X131.610 Y83.328 E2.85688
G1 X131.880 Y84.108 E2.87148
G1 X132.010 Y84.638 E2.88113
G1 X132.120 Y85.458 E2.89576
G1 X132.140 Y86.008 E2.90549
G1 X132.140 Y113.978 E3.40011
G1 X132.120 Y114.528 E3.40984
G1 X132.010 Y115.348 E3.42447
G1 X131.880 Y115.878 E3.43412
G1 X131.710 Y116.398 E3.44380
G1 X131.380 Y117.158 E3.45845
G1 X130.960 Y117.868 E3.47304
G1 X130.460 Y118.528 E3.48768
G1 X130.090 Y118.928 E3.49732
G1 X129.690 Y119.298 E3.50695
G1 X129.470 Y119.478 E3.51198
G1 X128.800 Y119.948 E3.52645
G1 X128.320 Y120.218 E3.53619
G1 X127.889 Y120.418 E3.54460
G1 X127.820 Y120.448 E3.54592
G1 X127.690 Y119.958 F7800.000
G1 X127.200 Y120.148 F900.000 E3.55522
G1 X126.440 Y120.348 E3.56911
G1 X126.180 Y120.398 E3.57380
G1 X125.660 Y120.458 E3.58305
G1 X125.140 Y120.478 E3.59225
G1 X74.840 Y120.478 E4.48175
G1 X74.320 Y120.458 E4.49096
G1 X73.800 Y120.398 E4.50021
G1 X73.280 Y120.288 E4.50961
G1 X72.780 Y120.148 E4.51879
G1 X72.290 Y119.958 E4.52809
G1 X71.820 Y119.738 E4.53726
G1 X71.590 Y119.608 E4.54194
G1 X70.940 Y119.178 E4.55572
G1 X70.530 Y118.848 E4.56503
G1 X69.970 Y118.288 E4.57903
G1 X69.490 Y117.668 E4.59290
G1 X69.080 Y116.998 E4.60679
G1 X68.860 Y116.528 E4.61596
G1 X68.670 Y116.038 E4.62526
G1 X68.470 Y115.278 E4.63916
G1 X68.420 Y115.018 E4.64384
G1 X68.360 Y114.498 E4.65309
G1 X68.340 Y113.978 E4.66230
G1 X68.340 Y86.008 E5.15691
G1 X68.360 Y85.488 E5.16612
G1 X68.420 Y84.968 E5.17537
G1 X68.530 Y84.448 E5.18477
G1 X68.670 Y83.948 E5.19395
G1 X68.860 Y83.458 E5.20325
G1 X69.080 Y82.988 E5.21243
G1 X69.210 Y82.758 E5.21710
G1 X69.640 Y82.108 E5.23088
G1 X69.970 Y81.698 E5.24019
G1 X70.530 Y81.138 E5.25419
G1 X71.150 Y80.658 E5.26806
G1 X71.590 Y80.378 E5.27728
G1 X72.050 Y80.138 E5.28646
G1 X72.780 Y79.838 E5.30041
G1 X73.540 Y79.638 E5.31431
G1 X73.800 Y79.588 E5.31899
G1 X74.320 Y79.528 E5.32825
G1 X74.840 Y79.508 E5.33745
G1 X125.140 Y79.508 E6.22695
G1 X125.660 Y79.528 E6.23615
G1 X126.180 Y79.588 E6.24541
G1 X126.700 Y79.698 E6.25481
G1 X127.200 Y79.838 E6.26399
G1 X127.690 Y80.028 E6.27328
G1 X128.160 Y80.248 E6.28246
G1 X128.830 Y80.658 E6.29635
G1 X129.450 Y81.138 E6.31022
G1 X130.010 Y81.698 E6.32422
G1 X130.340 Y82.108 E6.33353
G1 X130.770 Y82.758 E6.34731
G1 X130.900 Y82.988 E6.35198
G1 X131.120 Y83.458 E6.36116
G1 X131.310 Y83.948 E6.37045
G1 X131.510 Y84.708 E6.38435
G1 X131.560 Y84.968 E6.38903
G1 X131.620 Y85.488 E6.39829
G1 X131.640 Y86.008 E6.40749
G1 X131.640 Y113.978 E6.90211
G1 X131.620 Y114.498 E6.91131
G1 X131.560 Y115.018 E6.92057
G1 X131.450 Y115.538 E6.92997
G1 X131.310 Y116.038 E6.93915
G1 X131.120 Y116.528 E6.94844
G1 X130.900 Y116.998 E6.95762
G1 X130.490 Y117.668 E6.97151
G1 X130.010 Y118.288 E6.98538
G1 X129.450 Y118.848 E6.99938
G1 X128.830 Y119.328 E7.01325
G1 X128.160 Y119.738 E7.02714
G1 X127.758 Y119.927 E7.03499
G1 X127.690 Y119.958 E7.03632
G1 X89.465 Y107.839 F7800.000
G1 X89.151 Y108.597 F300.000 E7.05081
G1 X88.653 Y109.245 E7.06527
G1 X88.003 Y109.745 E7.07977
G1 X87.245 Y110.059 E7.09427
G1 X86.434 Y110.164 E7.10874
G1 X85.621 Y110.059 E7.12324
G1 X84.863 Y109.744 E7.13776
G1 X84.215 Y109.245 E7.15222
G1 X83.715 Y108.597 E7.16670
G1 X83.403 Y107.839 E7.18118
G1 X83.295 Y107.028 E7.19565
G1 X83.403 Y106.215 E7.21016
G1 X83.715 Y105.457 E7.22464
G1 X84.215 Y104.809 E7.23912
G1 X84.863 Y104.309 E7.25360
G1 X85.621 Y103.997 E7.26809
G1 X86.434 Y103.889 E7.28259
G1 X87.245 Y103.997 E7.29706
G1 X88.002 Y104.308 E7.31153
G1 X88.653 Y104.809 E7.32606
G1 X89.151 Y105.457 E7.34051
G1 X89.465 Y106.215 E7.35501
G1 X89.570 Y107.028 E7.36951
G1 X89.475 Y107.765 E7.38265
G1 X89.465 Y107.839 E7.38398
G1 X88.978 Y107.709 F7800.000
G1 X88.714 Y108.344 F300.000 E7.39614
G1 X88.296 Y108.888 E7.40827
G1 X87.750 Y109.308 E7.42045
G1 X87.115 Y109.572 E7.43261
G1 X86.434 Y109.660 E7.44476
G1 X85.751 Y109.572 E7.45694
G1 X85.116 Y109.308 E7.46910
G1 X84.572 Y108.888 E7.48125
G1 X84.152 Y108.344 E7.49340
G1 X83.890 Y107.709 E7.50555
G1 X83.800 Y107.028 E7.51770
G1 X83.890 Y106.345 E7.52988
G1 X84.152 Y105.710 E7.54203
G1 X84.572 Y105.166 E7.55418
G1 X85.116 Y104.745 E7.56634
G1 X85.751 Y104.484 E7.57848
G1 X86.434 Y104.394 E7.59067
G1 X87.115 Y104.484 E7.60282
G1 X87.750 Y104.745 E7.61496
G1 X88.296 Y105.166 E7.62715
G1 X88.714 Y105.710 E7.63928
G1 X88.978 Y106.345 E7.65144
G1 X89.066 Y107.028 E7.66362
G1 X88.987 Y107.635 E7.67444
G1 X88.978 Y107.709 E7.67577
G1 X89.316 Y108.078 F7800.000
G1 X87.245 Y95.209
G1 X86.434 Y95.314 F300.000 E7.69023
G1 X85.621 Y95.209 E7.70473
G1 X84.863 Y94.895 E7.71923
G1 X84.215 Y94.397 E7.73368
G1 X83.714 Y93.746 E7.74821
G1 X83.403 Y92.989 E7.76268
G1 X83.295 Y92.178 E7.77715
G1 X83.403 Y91.367 E7.79163
G1 X83.714 Y90.610 E7.80609
G1 X84.215 Y89.959 E7.82062
G1 X84.863 Y89.461 E7.83507
G1 X85.620 Y89.147 E7.84955
G1 X86.434 Y89.039 E7.86408
G1 X87.246 Y89.148 E7.87857
G1 X88.002 Y89.461 E7.89303
G1 X88.653 Y89.959 E7.90753
G1 X89.151 Y90.610 E7.92203
G1 X89.465 Y91.367 E7.93651
G1 X89.570 Y92.178 E7.95098
G1 X89.465 Y92.989 E7.96545
G1 X89.151 Y93.746 E7.97993
G1 X88.653 Y94.397 E7.99443
G1 X88.002 Y94.895 E8.00893
G1 X87.315 Y95.180 E8.02209
G1 X87.245 Y95.209 E8.02341
G1 X87.115 Y94.722 F7800.000
G1 X86.434 Y94.810 F300.000 E8.03556
G1 X85.751 Y94.722 E8.04774
G1 X85.116 Y94.458 E8.05990
G1 X84.572 Y94.040 E8.07203
G1 X84.152 Y93.494 E8.08422
G1 X83.890 Y92.859 E8.09636
G1 X83.800 Y92.178 E8.10851
G1 X83.890 Y91.497 E8.12066
G1 X84.152 Y90.862 E8.13280
G1 X84.572 Y90.316 E8.14499
G1 X85.116 Y89.898 E8.15712
G1 X85.751 Y89.634 E8.16927
G1 X86.434 Y89.544 E8.18146
G1 X87.115 Y89.635 E8.19362
G1 X87.750 Y89.897 E8.20577
G1 X88.296 Y90.316 E8.21793
G1 X88.714 Y90.862 E8.23010
G1 X88.978 Y91.497 E8.24225
G1 X89.066 Y92.178 E8.25440
G1 X88.978 Y92.859 E8.26654
G1 X88.714 Y93.494 E8.27870
G1 X88.296 Y94.040 E8.29086
G1 X87.750 Y94.458 E8.30303
G1 X87.184 Y94.693 E8.31386
G1 X87.115 Y94.722 E8.31518
G1 X86.964 Y95.198 F7800.000
G1 X110.432 Y92.178
G1 X110.537 Y91.367 F300.000 E8.32965
G1 X110.851 Y90.610 E8.34413
G1 X111.349 Y89.959 E8.35863
G1 X112.000 Y89.461 E8.37313
G1 X112.756 Y89.148 E8.38759
G1 X113.568 Y89.039 E8.40209
G1 X114.380 Y89.148 E8.41658
G1 X115.136 Y89.461 E8.43104
G1 X115.787 Y89.959 E8.44554
G1 X116.285 Y90.610 E8.46004
G1 X116.598 Y91.366 E8.47450
G1 X116.707 Y92.178 E8.48899
G1 X116.598 Y92.990 E8.50349
G1 X116.285 Y93.746 E8.51795
G1 X115.787 Y94.397 E8.53245
G1 X115.136 Y94.895 E8.54695
G1 X114.379 Y95.209 E8.56143
G1 X113.568 Y95.314 E8.57590
G1 X112.757 Y95.209 E8.59037
G1 X112.000 Y94.895 E8.60485
G1 X111.349 Y94.397 E8.61935
G1 X110.851 Y93.746 E8.63385
G1 X110.537 Y92.989 E8.64833
G1 X110.441 Y92.252 E8.66147
G1 X110.432 Y92.178 E8.66280
G1 X110.936 Y92.178 F7800.000
G1 X111.024 Y91.497 F300.000 E8.67494
G1 X111.288 Y90.862 E8.68710
G1 X111.706 Y90.316 E8.69926
G1 X112.252 Y89.897 E8.71143
G1 X112.887 Y89.635 E8.72358
G1 X113.568 Y89.544 E8.73573
G1 X114.249 Y89.635 E8.74789
G1 X114.884 Y89.897 E8.76004
G1 X115.430 Y90.316 E8.77220
G1 X115.848 Y90.862 E8.78437
G1 X116.111 Y91.496 E8.79652
G1 X116.202 Y92.178 E8.80867
G1 X116.112 Y92.859 E8.82083
G1 X115.848 Y93.494 E8.83298
G1 X115.430 Y94.040 E8.84514
G1 X114.884 Y94.458 E8.85731
G1 X114.249 Y94.722 E8.86946
G1 X113.568 Y94.810 E8.88161
G1 X112.887 Y94.722 E8.89375
G1 X112.252 Y94.458 E8.90591
G1 X111.706 Y94.040 E8.91807
G1 X111.288 Y93.494 E8.93024
G1 X111.024 Y92.859 E8.94239
G1 X110.946 Y92.252 E8.95321
G1 X110.936 Y92.178 E8.95454
G1 X110.514 Y91.910 F7800.000
G1 X112.757 Y103.997
G1 X113.568 Y103.889 F300.000 E8.96901
G1 X114.379 Y103.997 E8.98349
G1 X115.136 Y104.308 E8.99795
G1 X115.787 Y104.809 E9.01248
G1 X116.285 Y105.457 E9.02694
G1 X116.599 Y106.214 E9.04141
G1 X116.707 Y107.028 E9.05594
G1 X116.598 Y107.840 E9.07043
G1 X116.285 Y108.597 E9.08491
G1 X115.787 Y109.245 E9.09936
G1 X115.137 Y109.745 E9.11387
G1 X114.379 Y110.059 E9.12837
G1 X113.568 Y110.164 E9.14283
G1 X112.757 Y110.059 E9.15730
G1 X111.999 Y109.745 E9.17180
G1 X111.349 Y109.245 E9.18631
G1 X110.851 Y108.597 E9.20076
G1 X110.537 Y107.839 E9.21526
G1 X110.432 Y107.028 E9.22973
G1 X110.537 Y106.215 E9.24423
G1 X110.851 Y105.457 E9.25872
G1 X111.349 Y104.809 E9.27318
G1 X112.000 Y104.308 E9.28771
G1 X112.687 Y104.026 E9.30085
G1 X112.757 Y103.997 E9.30217
G1 X112.887 Y104.484 F7800.000
G1 X113.568 Y104.394 F300.000 E9.31432
G1 X114.249 Y104.484 E9.32647
G1 X114.884 Y104.745 E9.33861
G1 X115.430 Y105.166 E9.35080
G1 X115.848 Y105.710 E9.36294
G1 X116.112 Y106.345 E9.37509
G1 X116.202 Y107.028 E9.38728
G1 X116.112 Y107.709 E9.39944
G1 X115.848 Y108.344 E9.41159
G1 X115.430 Y108.888 E9.42372
G1 X114.884 Y109.308 E9.43590
G1 X114.249 Y109.572 E9.44806
G1 X113.568 Y109.660 E9.46021
G1 X112.887 Y109.572 E9.47235
G1 X112.252 Y109.308 E9.48451
G1 X111.706 Y108.888 E9.49669
G1 X111.288 Y108.344 E9.50883
G1 X111.024 Y107.709 E9.52098
G1 X110.936 Y107.028 E9.53313
G1 X111.024 Y106.345 E9.54531
G1 X111.288 Y105.710 E9.55747
G1 X111.706 Y105.166 E9.56960
G1 X112.252 Y104.745 E9.58179
G1 X112.818 Y104.513 E9.59260
G1 X112.887 Y104.484 E9.59393
G1 X113.037 Y104.008 F7800.000
G1 X124.650 Y113.482
G1 X75.350 Y113.482 F900.000 E10.46574
G1 X75.350 Y86.518 E10.94257
G1 X124.650 Y86.518 E11.81439
G1 X124.650 Y113.407 E12.28989
G1 X124.650 Y113.482 E12.29122
G1 X125.150 Y113.982 F7800.000
G1 X74.850 Y113.982 F900.000 E13.18071
G1 X74.850 Y86.018 E13.67523
G1 X125.150 Y86.018 E14.56473
G1 X125.150 Y113.907 E15.05791
G1 X125.150 Y113.982 E15.05924
G1 X124.717 Y113.732 F7800.000
G1 X124.375 Y112.982
G1 X75.625 Y112.982 F1500.000 E15.93701
G1 X75.625 Y112.473 E15.94618
G1 X124.375 Y112.473 E16.82396
G1 X124.375 Y111.964 E16.83312
G1 X75.625 Y111.964 E17.71090
G1 X75.625 Y111.455 E17.72007
G1 X124.375 Y111.455 E18.59784
G1 X124.375 Y110.946 E18.60701
G1 X75.625 Y110.946 E19.48479
G1 X75.625 Y110.436 E19.49395
G1 X85.451 Y110.436 E19.67088
G1 X84.507 Y109.927 E19.69021
G1 X75.625 Y109.927 E19.85013
G1 X75.625 Y109.418 E19.85929
G1 X83.943 Y109.418 E20.00906
G1 X83.550 Y108.909 E20.02065
G1 X75.625 Y108.909 E20.16333
G1 X75.625 Y108.400 E20.17250
G1 X83.319 Y108.400 E20.31103
G1 X83.131 Y107.891 E20.32080
G1 X75.625 Y107.891 E20.45595
G1 X75.625 Y107.382 E20.46511
G1 X83.063 Y107.382 E20.59904
G1 X83.037 Y106.873 F7800.000
G1 X75.625 Y106.873 F1500.000 E20.73250
G1 X75.625 Y106.364 E20.74166
G1 X83.104 Y106.364 E20.87633
G1 X83.236 Y105.855 E20.88580
G1 X75.625 Y105.855 E21.02284
G1 X75.625 Y105.345 E21.03201
G1 X83.445 Y105.345 E21.17282
G1 X83.788 Y104.836 E21.18387
G1 X75.625 Y104.836 E21.33084
G1 X75.625 Y104.327 E21.34001
G1 X84.247 Y104.327 E21.49524
G1 X84.967 Y103.818 E21.51112
G1 X75.625 Y103.818 E21.67933
G1 X75.625 Y103.309 E21.68849
G1 X124.375 Y103.309 E22.56627
G1 X124.375 Y103.818 E22.57544
G1 X115.033 Y103.818 E22.74364
G1 X115.755 Y104.327 E22.75955
G1 X124.375 Y104.327 E22.91475
G1 X124.375 Y104.836 E22.92391
G1 X116.213 Y104.836 E23.07087
G1 X116.555 Y105.345 E23.08191
G1 X124.375 Y105.345 E23.22272
G1 X124.375 Y105.855 E23.23189
G1 X116.766 Y105.855 E23.36889
G1 X116.898 Y106.364 F7800.000
G1 X124.375 Y106.364 F1500.000 E23.50353
G1 X124.375 Y106.873 E23.51269
G1 X116.965 Y106.873 E23.64611
G1 X116.939 Y107.382 F7800.000
G1 X124.375 Y107.382 F1500.000 E23.78001
G1 X124.375 Y107.891 E23.78917
G1 X116.871 Y107.891 E23.92429
G1 X116.683 Y108.400 E23.93406
G1 X124.375 Y108.400 E24.07257
G1 X124.375 Y108.909 E24.08174
G1 X116.450 Y108.909 E24.22443
G1 X116.059 Y109.418 E24.23599
G1 X124.375 Y109.418 E24.38573
G1 X124.375 Y109.927 E24.39489
G1 X115.494 Y109.927 E24.55480
G1 X114.549 Y110.436 E24.57413
G1 X124.375 Y110.436 E24.75107
G1 X124.375 Y102.800 F7800.000
G1 X75.625 Y102.800 F1500.000 E25.62884
G1 X75.625 Y102.291 E25.63801
G1 X124.375 Y102.291 E26.51579
G1 X124.375 Y101.782 E26.52495
G1 X75.625 Y101.782 E27.40273
G1 X75.625 Y101.273 E27.41190
G1 X124.375 Y101.273 E28.28967
G1 X124.375 Y100.764 E28.29884
G1 X75.625 Y100.764 E29.17662
G1 X75.625 Y100.255 E29.18578
G1 X124.375 Y100.255 E30.06356
G1 X124.375 Y99.745 E30.07273
G1 X75.625 Y99.745 E30.95050
G1 X75.625 Y99.236 E30.95967
G1 X124.375 Y99.236 E31.83745
G1 X124.375 Y98.727 E31.84661
G1 X75.625 Y98.727 E32.72439
G1 X75.625 Y98.218 E32.73356
G1 X124.375 Y98.218 E33.61133
G1 X124.375 Y97.709 E33.62050
G1 X75.625 Y97.709 E34.49828
G1 X75.625 Y97.200 E34.50744
G1 X124.375 Y97.200 E35.38522
G1 X124.375 Y96.691 E35.39439
G1 X75.625 Y96.691 E36.27216
G1 X75.625 Y96.182 E36.28133
G1 X124.375 Y96.182 E37.15911
G1 X124.375 Y95.673 E37.16827
G1 X114.341 Y95.673 E37.34894
G1 X115.383 Y95.164 E37.36982
G1 X124.375 Y95.164 E37.53173
G1 X124.375 Y94.654 E37.54090
G1 X115.994 Y94.654 E37.69180
G1 X116.384 Y94.145 E37.70334
G1 X124.375 Y94.145 E37.84723
G1 X124.375 Y93.636 E37.85639
G1 X116.647 Y93.636 E37.99554
G1 X116.858 Y93.127 E38.00547
G1 X124.375 Y93.127 E38.14082
G1 X124.375 Y92.618 E38.14998
G1 X116.927 Y92.618 E38.28408
G1 X116.977 Y92.109 E38.29329
G1 X124.375 Y92.109 E38.42651
G1 X124.375 Y91.600 E38.43567
G1 X116.909 Y91.600 E38.57010
G1 X116.801 Y91.091 E38.57947
G1 X124.375 Y91.091 E38.71586
G1 X124.375 Y90.582 E38.72502
G1 X116.590 Y90.582 E38.86520
G1 X116.278 Y90.073 E38.87595
G1 X124.375 Y90.073 E39.02173
G1 X124.375 Y89.563 E39.03090
G1 X115.868 Y89.563 E39.18408
G1 X115.203 Y89.054 E39.19916
