; generated by Slic3r 0.9.8 on 2013-06-12 at 15:20:59

; layer_height = .25
; perimeters = 1
; top_solid_layers = 4
; bottom_solid_layers = 4
; fill_density = .9
; perimeter_speed = 30
; infill_speed = 40
; travel_speed = 130
; scale = 1
; nozzle_diameter = 0.5
; filament_diameter = 3
; extrusion_multiplier = 1
; perimeters extrusion width = 0.80mm
; infill extrusion width = 0.80mm
; first layer extrusion width = 0.50mm

M107
M104 S220 ; set temperature
G28 ; home all axes
M109 S220 ; wait for temperature to be reached
G90 ; use absolute coordinates
G21 ; set units to millimeters
G92 E0
M82 ; use absolute distances for extrusion
G1 Z0.250 F7800.000
G1 X108.710 Y108.710
G1 X108.240 Y109.140 F900.000 E0.01127
G1 X106.580 Y110.390 E0.04801
G1 X105.970 Y110.760 E0.06063
G1 X105.330 Y111.070 E0.07320
G1 X104.050 Y111.600 E0.09770
G1 X103.700 Y111.730 E0.10431
G1 X103.000 Y111.940 E0.11723
G1 X102.280 Y112.070 E0.13017
G1 X100.900 Y112.250 E0.15478
G1 X100.170 Y112.310 E0.16773
G1 X99.440 Y112.290 E0.18065
G1 X97.350 Y112.010 E0.21793
G1 X96.990 Y111.940 E0.22442
G1 X96.630 Y111.840 E0.23103
G1 X95.940 Y111.600 E0.24395
G1 X94.660 Y111.070 E0.26845
G1 X94.020 Y110.760 E0.28102
G1 X93.710 Y110.580 E0.28736
G1 X93.120 Y110.180 E0.29997
G1 X91.750 Y109.140 E0.33038
G1 X91.280 Y108.710 E0.34165
G1 X90.850 Y108.240 E0.35291
G1 X89.600 Y106.580 E0.38966
G1 X89.230 Y105.970 E0.40228
G1 X88.920 Y105.330 E0.41485
G1 X88.390 Y104.050 E0.43935
G1 X88.260 Y103.700 E0.44595
G1 X88.050 Y103.000 E0.45888
G1 X87.920 Y102.280 E0.47181
G1 X87.740 Y100.900 E0.49643
G1 X87.680 Y100.170 E0.50938
G1 X87.700 Y99.440 E0.52229
G1 X87.980 Y97.350 E0.55958
G1 X88.050 Y96.990 E0.56607
G1 X88.150 Y96.630 E0.57267
G1 X88.390 Y95.940 E0.58559
G1 X88.920 Y94.660 E0.61009
G1 X89.230 Y94.020 E0.62267
G1 X89.410 Y93.710 E0.62901
G1 X89.810 Y93.120 E0.64161
G1 X90.850 Y91.750 E0.67203
G1 X91.060 Y91.510 E0.67767
G1 X91.280 Y91.280 E0.68330
G1 X91.750 Y90.850 E0.69456
G1 X93.410 Y89.600 E0.73131
G1 X94.020 Y89.230 E0.74393
G1 X94.660 Y88.920 E0.75650
G1 X96.280 Y88.260 E0.78743
G1 X96.990 Y88.050 E0.80053
G1 X97.710 Y87.920 E0.81347
G1 X99.040 Y87.740 E0.83720
G1 X99.830 Y87.680 E0.85121
G1 X100.540 Y87.700 E0.86377
G1 X102.640 Y87.980 E0.90124
G1 X103.000 Y88.050 E0.90772
G1 X103.350 Y88.150 E0.91416
G1 X104.050 Y88.390 E0.92724
G1 X105.330 Y88.920 E0.95174
G1 X105.970 Y89.230 E0.96432
G1 X106.280 Y89.410 E0.97066
G1 X106.870 Y89.810 E0.98326
G1 X108.240 Y90.850 E1.01368
G1 X108.710 Y91.280 E1.02495
G1 X109.140 Y91.750 E1.03621
G1 X110.390 Y93.410 E1.07296
G1 X110.760 Y94.020 E1.08557
G1 X111.070 Y94.660 E1.09815
G1 X111.730 Y96.280 E1.12908
G1 X111.940 Y96.990 E1.14218
G1 X112.070 Y97.710 E1.15512
G1 X112.250 Y99.080 E1.17955
G1 X112.310 Y99.800 E1.19233
G1 X112.290 Y100.530 E1.20524
G1 X112.010 Y102.640 E1.24288
G1 X111.940 Y103.000 E1.24937
G1 X111.840 Y103.350 E1.25580
G1 X111.600 Y104.050 E1.26889
G1 X111.070 Y105.330 E1.29339
G1 X110.760 Y105.970 E1.30596
G1 X110.580 Y106.280 E1.31230
G1 X110.180 Y106.870 E1.32491
G1 X109.340 Y107.980 E1.34952
G1 X109.140 Y108.240 E1.35533
G1 X108.762 Y108.656 E1.36526
G1 X108.710 Y108.710 E1.36659
G1 X108.360 Y108.360 F7800.000
G1 X107.920 Y108.760 F900.000 E1.37711
G1 X106.300 Y109.980 E1.41297
G1 X105.740 Y110.320 E1.42455
G1 X105.140 Y110.610 E1.43634
G1 X103.540 Y111.260 E1.46688
G1 X102.880 Y111.450 E1.47902
G1 X102.210 Y111.580 E1.49109
G1 X100.830 Y111.760 E1.51570
G1 X100.160 Y111.810 E1.52759
G1 X99.480 Y111.790 E1.53962
G1 X97.440 Y111.520 E1.57601
G1 X96.780 Y111.360 E1.58801
G1 X96.130 Y111.140 E1.60015
G1 X94.850 Y110.610 E1.62465
G1 X94.250 Y110.320 E1.63643
G1 X93.970 Y110.160 E1.64214
G1 X93.690 Y109.980 E1.64802
G1 X92.070 Y108.760 E1.68389
G1 X91.630 Y108.360 E1.69440
G1 X91.230 Y107.920 E1.70492
G1 X90.010 Y106.300 E1.74078
G1 X89.670 Y105.740 E1.75237
G1 X89.380 Y105.140 E1.76415
G1 X88.730 Y103.540 E1.79469
G1 X88.540 Y102.880 E1.80684
G1 X88.410 Y102.210 E1.81890
G1 X88.230 Y100.830 E1.84352
G1 X88.180 Y100.160 E1.85540
G1 X88.200 Y99.480 E1.86743
G1 X88.470 Y97.440 E1.90382
G1 X88.630 Y96.780 E1.91583
G1 X88.850 Y96.130 E1.92796
G1 X89.380 Y94.850 E1.95246
G1 X89.670 Y94.250 E1.96424
G1 X89.830 Y93.970 E1.96995
G1 X90.010 Y93.690 E1.97583
G1 X91.230 Y92.070 E2.01170
G1 X91.630 Y91.630 E2.02221
G1 X92.070 Y91.230 E2.03273
G1 X93.420 Y90.210 E2.06265
G1 X93.970 Y89.830 E2.07447
G1 X94.250 Y89.670 E2.08017
G1 X94.850 Y89.380 E2.09196
G1 X96.450 Y88.730 E2.12250
G1 X97.100 Y88.540 E2.13447
G1 X97.430 Y88.470 E2.14044
G1 X99.100 Y88.240 E2.17025
G1 X99.840 Y88.180 E2.18338
G1 X100.170 Y88.180 E2.18921
G1 X100.830 Y88.230 E2.20092
G1 X102.210 Y88.410 E2.22553
G1 X102.880 Y88.540 E2.23760
G1 X103.540 Y88.730 E2.24974
G1 X103.860 Y88.850 E2.25579
G1 X105.140 Y89.380 E2.28029
G1 X105.740 Y89.670 E2.29207
G1 X106.020 Y89.830 E2.29778
G1 X106.300 Y90.010 E2.30366
G1 X107.920 Y91.230 E2.33952
G1 X108.360 Y91.630 E2.35004
G1 X108.760 Y92.070 E2.36056
G1 X109.980 Y93.690 E2.39642
G1 X110.320 Y94.250 E2.40800
G1 X110.610 Y94.850 E2.41979
G1 X111.260 Y96.450 E2.45033
G1 X111.450 Y97.100 E2.46230
G1 X111.570 Y97.770 E2.47434
G1 X111.790 Y99.480 E2.50483
G1 X111.810 Y99.820 E2.51085
G1 X111.810 Y100.160 E2.51686
G1 X111.760 Y100.830 E2.52875
G1 X111.580 Y102.210 E2.55336
G1 X111.450 Y102.880 E2.56543
G1 X111.260 Y103.540 E2.57757
G1 X111.140 Y103.860 E2.58361
G1 X110.610 Y105.140 E2.60811
G1 X110.320 Y105.740 E2.61990
G1 X110.160 Y106.020 E2.62560
G1 X109.980 Y106.300 E2.63149
G1 X108.760 Y107.920 E2.66735
G1 X108.411 Y108.305 E2.67654
G1 X108.360 Y108.360 E2.67787
G1 X101.936 Y101.936 F7800.000
G1 X101.369 Y102.371 F300.000 E2.69050
G1 X100.708 Y102.644 E2.70314
G1 X100.000 Y102.737 E2.71578
G1 X99.291 Y102.644 E2.72841
G1 X98.631 Y102.371 E2.74105
G1 X98.064 Y101.936 E2.75369
G1 X97.629 Y101.369 E2.76633
G1 X97.356 Y100.708 E2.77896
G1 X97.263 Y100.000 E2.79160
G1 X97.356 Y99.292 E2.80424
G1 X97.629 Y98.631 E2.81687
G1 X98.064 Y98.064 E2.82951
G1 X98.631 Y97.629 E2.84215
G1 X99.292 Y97.356 E2.85479
G1 X100.000 Y97.263 E2.86742
G1 X100.708 Y97.356 E2.88006
G1 X101.369 Y97.629 E2.89270
G1 X101.936 Y98.064 E2.90533
G1 X102.371 Y98.631 E2.91797
G1 X102.644 Y99.292 E2.93061
G1 X102.737 Y100.000 E2.94325
G1 X102.644 Y100.708 E2.95588
G1 X102.371 Y101.369 E2.96852
G1 X101.981 Y101.876 E2.97983
G1 X101.936 Y101.936 E2.98116
G1 X101.579 Y101.579 F7800.000
G1 X101.117 Y101.934 F300.000 E2.99147
G1 X100.578 Y102.157 E3.00177
G1 X100.000 Y102.233 E3.01208
G1 X99.422 Y102.157 E3.02239
G1 X98.883 Y101.934 E3.03270
G1 X98.421 Y101.579 E3.04301
G1 X98.066 Y101.117 E3.05332
G1 X97.843 Y100.578 E3.06363
G1 X97.767 Y100.000 E3.07394
G1 X97.843 Y99.422 E3.08425
G1 X98.066 Y98.883 E3.09455
G1 X98.421 Y98.421 E3.10486
G1 X98.883 Y98.066 E3.11517
G1 X99.422 Y97.843 E3.12548
G1 X100.000 Y97.767 E3.13579
G1 X100.578 Y97.843 E3.14610
G1 X101.117 Y98.066 E3.15641
G1 X101.579 Y98.421 E3.16672
G1 X101.934 Y98.883 E3.17703
G1 X102.157 Y99.422 E3.18734
G1 X102.233 Y100.000 E3.19764
G1 X102.157 Y100.578 E3.20795
G1 X101.934 Y101.117 E3.21826
G1 X101.625 Y101.520 E3.22725
G1 X101.579 Y101.579 E3.22857
G1 X101.687 Y102.067 F7800.000
G1 X103.404 Y103.404
G1 X102.407 Y104.169 F300.000 E3.25079
G1 X101.246 Y104.649 E3.27301
G1 X100.000 Y104.813 E3.29523
G1 X98.754 Y104.649 E3.31746
G1 X97.593 Y104.169 E3.33968
G1 X96.596 Y103.404 E3.36190
G1 X95.831 Y102.407 E3.38412
G1 X95.351 Y101.246 E3.40634
G1 X95.187 Y100.000 E3.42856
G1 X95.351 Y98.754 E3.45078
G1 X95.831 Y97.593 E3.47300
G1 X96.596 Y96.596 E3.49522
G1 X97.593 Y95.831 E3.51744
G1 X98.754 Y95.351 E3.53967
G1 X100.000 Y95.187 E3.56189
G1 X101.246 Y95.351 E3.58411
G1 X102.407 Y95.831 E3.60633
G1 X103.404 Y96.596 E3.62855
G1 X104.169 Y97.593 E3.65077
G1 X104.649 Y98.754 E3.67299
G1 X104.813 Y100.000 E3.69521
G1 X104.649 Y101.246 E3.71743
G1 X104.169 Y102.407 E3.73966
G1 X103.449 Y103.344 E3.76055
G1 X103.404 Y103.404 E3.76188
G1 X103.810 Y103.696 F7800.000
G1 X103.760 Y103.760 F300.000 E3.76332
G1 X102.659 Y104.605 E3.78787
G1 X101.376 Y105.137 E3.81242
G1 X100.000 Y105.318 E3.83697
G1 X98.624 Y105.137 E3.86152
G1 X97.341 Y104.605 E3.88606
G1 X96.240 Y103.760 E3.91061
G1 X95.395 Y102.659 E3.93516
G1 X94.863 Y101.376 E3.95971
G1 X94.682 Y100.000 E3.98426
G1 X94.853 Y98.705 E4.00737
G1 X94.863 Y98.624 E4.00881
G1 X95.395 Y97.341 E4.03336
G1 X96.240 Y96.240 E4.05791
G1 X97.341 Y95.395 E4.08246
G1 X98.624 Y94.863 E4.10701
G1 X100.000 Y94.682 E4.13156
G1 X101.295 Y94.853 E4.15466
G1 X101.376 Y94.863 E4.15611
G1 X102.659 Y95.395 E4.18065
G1 X103.760 Y96.240 E4.20520
G1 X104.605 Y97.341 E4.22975
G1 X105.137 Y98.624 E4.25430
G1 X105.318 Y100.000 E4.27885
G1 X105.137 Y101.376 E4.30340
G1 X104.605 Y102.659 E4.32795
G1 X103.856 Y103.636 E4.34973
G1 X103.810 Y103.696 E4.35106
G1 X103.314 Y103.630 F7800.000
G1 X102.949 Y103.295
G1 X97.051 Y103.295 F1500.000 E4.45680
G1 X97.790 Y103.802 E4.47286
G1 X102.210 Y103.802 E4.55211
G1 X101.421 Y102.788 F7800.000
G1 X103.471 Y102.788 F1500.000 E4.58887
G1 X103.860 Y102.281 E4.60033
G1 X102.076 Y102.281 E4.63232
G1 X102.465 Y101.774 E4.64378
G1 X104.114 Y101.774 E4.67336
G1 X104.324 Y101.267 E4.68320
G1 X102.729 Y101.267 E4.71181
G1 X102.917 Y100.760 E4.72150
G1 X104.434 Y100.760 E4.74871
G1 X104.501 Y100.253 E4.75788
G1 X102.983 Y100.253 E4.78510
G1 X102.983 Y99.746 F7800.000
G1 X104.501 Y99.746 F1500.000 E4.81231
G1 X104.434 Y99.240 E4.82148
G1 X102.917 Y99.240 E4.84869
G1 X102.729 Y98.733 E4.85838
G1 X104.324 Y98.733 E4.88699
G1 X104.114 Y98.226 E4.89683
G1 X102.465 Y98.226 E4.92641
G1 X102.076 Y97.719 E4.93787
G1 X103.860 Y97.719 E4.96986
G1 X103.471 Y97.212 E4.98132
G1 X101.421 Y97.212 E5.01808
G1 X100.226 Y95.691 F7800.000
G1 X99.774 Y95.691 F1500.000 E5.02617
G1 X98.579 Y97.212 F7800.000
G1 X96.529 Y97.212 F1500.000 E5.06293
G1 X96.140 Y97.719 E5.07439
G1 X97.924 Y97.719 E5.10638
G1 X97.535 Y98.226 E5.11784
G1 X95.886 Y98.226 E5.14742
G1 X95.676 Y98.733 E5.15726
G1 X97.271 Y98.733 E5.18587
G1 X97.083 Y99.240 E5.19557
G1 X95.566 Y99.240 E5.22278
G1 X95.499 Y99.746 E5.23195
G1 X97.017 Y99.746 E5.25916
G1 X97.017 Y100.253 F7800.000
G1 X95.499 Y100.253 F1500.000 E5.28637
G1 X95.566 Y100.760 E5.29554
G1 X97.083 Y100.760 E5.32275
G1 X97.271 Y101.267 E5.33244
G1 X95.676 Y101.267 E5.36105
G1 X95.886 Y101.774 E5.37089
G1 X97.535 Y101.774 E5.40048
G1 X97.924 Y102.281 E5.41193
G1 X96.140 Y102.281 E5.44392
G1 X96.529 Y102.788 E5.45538
G1 X98.579 Y102.788 E5.49214
G1 X99.774 Y104.309 F7800.000
G1 X100.226 Y104.309 F1500.000 E5.50024
G1 X97.051 Y96.705 F7800.000
G1 X102.949 Y96.705 F1500.000 E5.60598
G1 X102.210 Y96.198 E5.62204
G1 X97.790 Y96.198 E5.70129
M106 S255
G1 Z0.500 F7800.000
G1 X98.808 Y97.935
G1 X99.383 Y97.697 F600.000 E5.71773
G1 X100.000 Y97.616 E5.73416
G1 X100.617 Y97.697 E5.75059
G1 X101.192 Y97.935 E5.76702
G1 X101.686 Y98.314 E5.78345
G1 X102.065 Y98.808 E5.79988
G1 X102.303 Y99.383 E5.81631
G1 X102.384 Y100.000 E5.83274
G1 X102.303 Y100.617 E5.84917
G1 X102.275 Y100.685 E5.85110
G1 X102.065 Y101.192 E5.86560
G1 X101.686 Y101.686 E5.88203
G1 X101.192 Y102.065 E5.89846
G1 X100.617 Y102.303 E5.91490
G1 X100.000 Y102.384 E5.93133
G1 X99.383 Y102.303 E5.94776
G1 X99.315 Y102.275 E5.94968
G1 X98.808 Y102.065 E5.96419
G1 X98.314 Y101.686 E5.98062
G1 X97.935 Y101.192 E5.99705
G1 X97.697 Y100.617 E6.01348
G1 X97.616 Y100.000 E6.02991
G1 X97.697 Y99.383 E6.04634
G1 X97.935 Y98.808 E6.06277
G1 X98.314 Y98.314 E6.07920
G1 X98.719 Y98.003 E6.09268
G1 X98.808 Y97.935 E6.09563
G1 X98.840 Y97.189 F7800.000
G1 X97.417 Y95.526
G1 X98.947 Y94.892 F600.000 E6.13936
G1 X98.947 Y94.972 E6.14148
G1 X100.000 Y94.834 E6.16951
G1 X101.049 Y94.972 E6.19744
G1 X101.337 Y95.010 E6.20511
G1 X102.583 Y95.526 E6.24072
G1 X103.653 Y96.347 E6.27632
G1 X104.474 Y97.417 E6.31192
G1 X104.879 Y98.394 E6.33984
G1 X104.990 Y98.663 E6.34752
G1 X105.166 Y100.000 E6.38312
G1 X104.990 Y101.337 E6.41872
G1 X104.474 Y102.583 E6.45433
G1 X103.653 Y103.653 E6.48993
G1 X102.583 Y104.474 E6.52553
G1 X102.315 Y104.586 E6.53321
G1 X101.337 Y104.990 E6.56113
G1 X100.000 Y105.166 E6.59673
G1 X98.663 Y104.990 E6.63234
G1 X98.394 Y104.879 E6.64001
G1 X97.417 Y104.474 E6.66794
G1 X96.347 Y103.653 E6.70354
G1 X95.526 Y102.583 E6.73914
G1 X94.892 Y101.053 E6.78287
G1 X94.972 Y101.053 E6.78499
G1 X94.834 Y100.000 E6.81302
G1 X95.010 Y98.663 E6.84862
G1 X95.526 Y97.417 E6.88423
G1 X96.347 Y96.347 E6.91983
G1 X97.328 Y95.594 E6.95247
G1 X97.417 Y95.526 E6.95543
G1 X96.389 Y97.182 F7800.000
G1 X96.389 Y102.818 F1194.096 E7.11540
G1 X97.191 Y101.011 F7800.000
G1 X97.191 Y103.697 F1194.096 E7.19163
G1 X97.994 Y104.241 E7.21916
G1 X97.994 Y102.045 E7.28150
G1 X98.796 Y102.532 E7.30814
G1 X98.796 Y104.574 E7.36610
G1 X99.599 Y104.697 E7.38914
G1 X99.599 Y102.748 E7.44444
G1 X100.401 Y102.748 F7800.000
G1 X100.401 Y104.697 F1194.096 E7.49974
G1 X101.204 Y104.574 E7.52279
G1 X101.204 Y102.532 E7.58074
G1 X102.006 Y102.045 E7.60738
G1 X102.006 Y104.241 E7.66972
G1 X102.809 Y103.697 E7.69725
G1 X102.809 Y101.011 E7.77348
G1 X104.414 Y100.337 F7800.000
G1 X104.414 Y99.663 F1194.096 E7.79259
G1 X103.611 Y102.818 F7800.000
G1 X103.611 Y97.182 F1194.096 E7.95256
G1 X102.809 Y98.989 E8.00869
G1 X102.809 Y96.303 E8.08492
G1 X102.006 Y95.759 E8.11245
G1 X102.006 Y97.955 E8.17479
G1 X101.204 Y97.468 E8.20144
G1 X101.204 Y95.426 E8.25939
G1 X100.401 Y95.303 E8.28243
G1 X100.401 Y97.252 E8.33773
G1 X99.599 Y97.252 F7800.000
G1 X99.599 Y95.303 F1194.096 E8.39304
G1 X98.796 Y95.426 E8.41608
G1 X98.796 Y97.468 E8.47403
G1 X97.994 Y97.955 E8.50067
G1 X97.994 Y95.759 E8.56301
G1 X97.191 Y96.303 E8.59055
G1 X97.191 Y98.989 E8.66678
G1 X95.586 Y99.663 F7800.000
G1 X95.586 Y100.337 F1194.096 E8.68588
G1 Z0.750 F7800.000
G1 X97.616 Y100.000
G1 X97.697 Y99.383 F600.000 E8.70231
G1 X97.935 Y98.808 E8.71875
G1 X98.314 Y98.314 E8.73518
G1 X98.808 Y97.935 E8.75161
G1 X99.383 Y97.697 E8.76804
G1 X100.000 Y97.616 E8.78447
G1 X100.617 Y97.697 E8.80090
G1 X101.192 Y97.935 E8.81733
G1 X101.686 Y98.314 E8.83376
G1 X102.065 Y98.808 E8.85019
G1 X102.303 Y99.383 E8.86662
G1 X102.384 Y100.000 E8.88305
G1 X102.303 Y100.617 E8.89948
G1 X102.065 Y101.192 E8.91591
G1 X101.686 Y101.686 E8.93234
G1 X101.192 Y102.065 E8.94878
G1 X100.697 Y102.270 E8.96292
G1 X100.617 Y102.303 E8.96521
G1 X100.000 Y102.384 E8.98164
G1 X99.383 Y102.303 E8.99807
G1 X98.808 Y102.065 E9.01450
G1 X98.314 Y101.686 E9.03093
G1 X97.935 Y101.192 E9.04736
G1 X97.697 Y100.617 E9.06379
G1 X97.630 Y100.111 E9.07727
G1 X97.616 Y100.000 E9.08022
G1 X96.986 Y99.599 F7800.000
G1 X94.942 Y99.178
G1 X95.010 Y98.663 F600.000 E9.09394
G1 X95.526 Y97.417 E9.12954
G1 X96.347 Y96.347 E9.16515
G1 X97.417 Y95.526 E9.20075
G1 X98.663 Y95.010 E9.23635
G1 X100.000 Y94.834 E9.27195
G1 X101.337 Y95.010 E9.30755
G1 X102.103 Y95.327 E9.32943
G1 X102.583 Y95.526 E9.34316
G1 X103.653 Y96.347 E9.37876
G1 X104.474 Y97.417 E9.41436
G1 X104.792 Y98.183 E9.43624
G1 X104.990 Y98.663 E9.44996
G1 X105.166 Y100.000 E9.48556
G1 X104.990 Y101.337 E9.52117
G1 X104.474 Y102.583 E9.55677
G1 X103.653 Y103.653 E9.59237
G1 X102.583 Y104.474 E9.62797
G1 X101.337 Y104.990 E9.66357
G1 X100.000 Y105.166 E9.69918
G1 X98.663 Y104.990 E9.73478
G1 X98.183 Y104.792 E9.74850
G1 X97.417 Y104.474 E9.77038
G1 X96.347 Y103.653 E9.80598
G1 X95.526 Y102.583 E9.84158
G1 X95.010 Y101.337 E9.87718
G1 X94.834 Y100.000 E9.91279
G1 X94.927 Y99.289 E9.93171
G1 X94.942 Y99.178 E9.93467
G1 X97.252 Y99.599 F7800.000
G1 X95.303 Y99.599 F1190.043 E9.98997
G1 X95.426 Y98.796 E10.01301
G1 X97.468 Y98.796 E10.07097
