; generated by Slic3r 0.9.8 on 2013-06-13 at 13:06:48

; layer_height = .25
; perimeters = 1
; top_solid_layers = 4
; bottom_solid_layers = 4
; fill_density = .9
; perimeter_speed = 30
; infill_speed = 40
; travel_speed = 130
; scale = 1
; nozzle_diameter = 0.5
; filament_diameter = 3
; extrusion_multiplier = 1
; perimeters extrusion width = 0.80mm
; infill extrusion width = 0.80mm
; first layer extrusion width = 0.50mm

M107
M104 S220 ; set temperature
G28 ; home all axes
M109 S220 ; wait for temperature to be reached
G90 ; use absolute coordinates
G21 ; set units to millimeters
G92 E0
M82 ; use absolute distances for extrusion
G1 Z0.250 F7800.000
G1 X124.280 Y124.280
G1 X123.810 Y124.710 F900.000 E0.01127
G1 X122.440 Y125.750 E0.04168
G1 X121.850 Y126.150 E0.05429
G1 X121.540 Y126.330 E0.06063
G1 X120.900 Y126.640 E0.07320
G1 X119.620 Y127.170 E0.09770
G1 X118.920 Y127.410 E0.11079
G1 X118.570 Y127.510 E0.11722
G1 X118.210 Y127.580 E0.12371
G1 X116.470 Y127.820 E0.15477
G1 X115.560 Y127.880 E0.17090
G1 X84.420 Y127.880 E0.72157
G1 X83.510 Y127.820 E0.73770
G1 X82.140 Y127.640 E0.76214
G1 X81.420 Y127.510 E0.77507
G1 X80.710 Y127.300 E0.78817
G1 X79.090 Y126.640 E0.81910
G1 X78.450 Y126.330 E0.83168
G1 X77.840 Y125.960 E0.84429
G1 X76.180 Y124.710 E0.88104
G1 X75.710 Y124.280 E0.89231
G1 X75.280 Y123.810 E0.90357
G1 X74.240 Y122.440 E0.93399
G1 X73.840 Y121.850 E0.94659
G1 X73.660 Y121.540 E0.95293
G1 X73.350 Y120.900 E0.96551
G1 X72.820 Y119.620 E0.99001
G1 X72.580 Y118.920 E1.00309
G1 X72.480 Y118.570 E1.00953
G1 X72.410 Y118.210 E1.01602
G1 X72.170 Y116.470 E1.04708
G1 X72.110 Y115.560 E1.06320
G1 X72.110 Y84.420 E1.61388
G1 X72.170 Y83.510 E1.63001
G1 X72.350 Y82.140 E1.65444
G1 X72.480 Y81.420 E1.66738
G1 X72.690 Y80.710 E1.68047
G1 X73.350 Y79.090 E1.71141
G1 X73.660 Y78.450 E1.72398
G1 X74.030 Y77.840 E1.73660
G1 X75.080 Y76.440 E1.76755
G1 X75.490 Y75.940 E1.77898
G1 X75.710 Y75.710 E1.78461
G1 X76.180 Y75.280 E1.79587
G1 X77.840 Y74.030 E1.83262
G1 X78.450 Y73.660 E1.84524
G1 X79.090 Y73.350 E1.85781
G1 X80.710 Y72.690 E1.88875
G1 X81.420 Y72.480 E1.90184
G1 X82.140 Y72.350 E1.91478
G1 X83.470 Y72.170 E1.93851
G1 X84.260 Y72.110 E1.95252
G1 X84.970 Y72.130 E1.96508
G1 X87.070 Y72.410 E2.00255
G1 X87.430 Y72.480 E2.00903
G1 X87.780 Y72.580 E2.01547
G1 X88.480 Y72.820 E2.02856
G1 X89.760 Y73.350 E2.05306
G1 X90.400 Y73.660 E2.06563
G1 X90.710 Y73.840 E2.07197
G1 X91.300 Y74.240 E2.08458
G1 X92.410 Y75.080 E2.10919
G1 X93.140 Y75.710 E2.12624
G1 X124.280 Y106.850 E2.90502
G1 X124.910 Y107.580 E2.92207
G1 X125.960 Y108.980 E2.95302
G1 X126.330 Y109.590 E2.96563
G1 X126.640 Y110.230 E2.97821
G1 X127.300 Y111.850 E3.00914
G1 X127.510 Y112.560 E3.02224
G1 X127.640 Y113.280 E3.03517
G1 X127.860 Y115.010 E3.06601
G1 X127.880 Y115.370 E3.07239
G1 X127.860 Y116.100 E3.08530
G1 X127.640 Y117.850 E3.11649
G1 X127.510 Y118.570 E3.12943
G1 X127.300 Y119.270 E3.14236
G1 X127.170 Y119.620 E3.14896
G1 X126.640 Y120.900 E3.17346
G1 X126.330 Y121.540 E3.18603
G1 X125.960 Y122.150 E3.19865
G1 X124.710 Y123.810 E3.23540
G1 X124.332 Y124.226 E3.24534
G1 X124.280 Y124.280 E3.24666
G1 X123.930 Y123.930 F7800.000
G1 X123.490 Y124.330 F900.000 E3.25718
G1 X121.870 Y125.550 E3.29304
G1 X121.590 Y125.730 E3.29893
G1 X121.310 Y125.890 E3.30463
G1 X120.710 Y126.180 E3.31642
G1 X119.430 Y126.710 E3.34091
G1 X119.110 Y126.830 E3.34696
G1 X118.450 Y127.020 E3.35910
G1 X117.780 Y127.150 E3.37117
G1 X116.400 Y127.330 E3.39578
G1 X115.560 Y127.380 E3.41066
G1 X84.420 Y127.380 E3.96134
G1 X83.570 Y127.320 E3.97641
G1 X82.200 Y127.140 E4.00084
G1 X81.530 Y127.020 E4.01288
G1 X80.880 Y126.830 E4.02486
G1 X79.280 Y126.180 E4.05540
G1 X78.680 Y125.890 E4.06718
G1 X78.120 Y125.550 E4.07877
G1 X76.500 Y124.330 E4.11463
G1 X76.060 Y123.930 E4.12514
G1 X75.660 Y123.490 E4.13566
G1 X74.440 Y121.870 E4.17152
G1 X74.260 Y121.590 E4.17741
G1 X74.100 Y121.310 E4.18311
G1 X73.810 Y120.710 E4.19490
G1 X73.280 Y119.430 E4.21940
G1 X73.160 Y119.110 E4.22544
G1 X72.970 Y118.450 E4.23759
G1 X72.840 Y117.780 E4.24965
G1 X72.660 Y116.400 E4.27426
G1 X72.610 Y115.560 E4.28915
G1 X72.610 Y84.420 E4.83982
G1 X72.670 Y83.570 E4.85489
G1 X72.850 Y82.200 E4.87933
G1 X72.970 Y81.530 E4.89136
G1 X73.160 Y80.880 E4.90334
G1 X73.810 Y79.280 E4.93388
G1 X74.100 Y78.680 E4.94566
G1 X74.440 Y78.120 E4.95725
G1 X75.660 Y76.500 E4.99311
G1 X76.060 Y76.060 E5.00363
G1 X76.500 Y75.660 E5.01414
G1 X77.850 Y74.640 E5.04406
G1 X78.400 Y74.260 E5.05588
G1 X78.680 Y74.100 E5.06159
G1 X79.280 Y73.810 E5.07337
G1 X80.880 Y73.160 E5.10391
G1 X81.530 Y72.970 E5.11589
G1 X81.860 Y72.900 E5.12185
G1 X83.530 Y72.670 E5.15166
G1 X84.270 Y72.610 E5.16479
G1 X84.600 Y72.610 E5.17063
G1 X85.260 Y72.660 E5.18233
G1 X86.640 Y72.840 E5.20694
G1 X87.310 Y72.970 E5.21901
G1 X87.970 Y73.160 E5.23116
G1 X88.290 Y73.280 E5.23720
G1 X89.570 Y73.810 E5.26170
G1 X90.170 Y74.100 E5.27349
G1 X90.450 Y74.260 E5.27919
G1 X90.730 Y74.440 E5.28508
G1 X92.110 Y75.480 E5.31563
G1 X92.790 Y76.060 E5.33144
G1 X123.930 Y107.200 E6.11021
G1 X124.510 Y107.880 E6.12602
G1 X125.550 Y109.260 E6.15657
G1 X125.890 Y109.820 E6.16816
G1 X126.180 Y110.420 E6.17994
G1 X126.830 Y112.020 E6.21048
G1 X127.020 Y112.670 E6.22246
G1 X127.140 Y113.340 E6.23450
G1 X127.360 Y115.050 E6.26499
G1 X127.380 Y115.730 E6.27702
G1 X127.330 Y116.400 E6.28890
G1 X127.150 Y117.780 E6.31351
G1 X127.020 Y118.450 E6.32558
G1 X126.830 Y119.110 E6.33772
G1 X126.180 Y120.710 E6.36826
G1 X125.890 Y121.310 E6.38005
G1 X125.550 Y121.870 E6.39163
G1 X124.330 Y123.490 E6.42749
G1 X123.981 Y123.875 E6.43668
G1 X123.930 Y123.930 E6.43801
G1 X85.899 Y118.114 F7800.000
G1 X85.190 Y118.407 F300.000 E6.45157
G1 X84.430 Y118.508 E6.46513
G1 X83.670 Y118.407 E6.47869
G1 X82.961 Y118.114 E6.49225
G1 X82.353 Y117.647 E6.50582
G1 X81.886 Y117.039 E6.51938
G1 X81.593 Y116.330 E6.53294
G1 X81.492 Y115.570 E6.54650
G1 X81.593 Y114.810 E6.56006
G1 X81.886 Y114.101 E6.57362
G1 X82.353 Y113.493 E6.58718
G1 X82.961 Y113.026 E6.60074
G1 X83.670 Y112.732 E6.61430
G1 X84.430 Y112.632 E6.62787
G1 X85.190 Y112.732 E6.64143
G1 X85.899 Y113.026 E6.65499
G1 X86.507 Y113.493 E6.66855
G1 X86.974 Y114.101 E6.68211
G1 X87.268 Y114.810 E6.69567
G1 X87.368 Y115.570 E6.70923
G1 X87.268 Y116.330 E6.72279
G1 X86.974 Y117.039 E6.73635
G1 X86.507 Y117.647 E6.74991
G1 X85.958 Y118.068 E6.76215
G1 X85.899 Y118.114 E6.76348
G1 X85.647 Y117.677 F7800.000
G1 X85.060 Y117.920 F300.000 E6.77471
G1 X84.430 Y118.003 E6.78594
G1 X83.800 Y117.920 E6.79717
G1 X83.213 Y117.677 E6.80841
G1 X82.709 Y117.291 E6.81964
G1 X82.323 Y116.787 E6.83087
G1 X82.080 Y116.200 E6.84211
G1 X81.997 Y115.570 E6.85334
G1 X82.080 Y114.940 E6.86457
G1 X82.323 Y114.353 E6.87581
G1 X82.709 Y113.849 E6.88704
G1 X83.213 Y113.463 E6.89827
G1 X83.800 Y113.220 E6.90950
G1 X84.430 Y113.137 E6.92074
G1 X85.060 Y113.220 E6.93197
G1 X85.647 Y113.463 E6.94320
G1 X86.151 Y113.849 E6.95444
G1 X86.537 Y114.353 E6.96567
G1 X86.780 Y114.940 E6.97690
G1 X86.863 Y115.570 E6.98813
G1 X86.780 Y116.200 E6.99937
G1 X86.537 Y116.787 E7.01060
G1 X86.151 Y117.291 E7.02183
G1 X85.706 Y117.632 E7.03174
G1 X85.647 Y117.677 E7.03307
G1 X85.625 Y118.177 F7800.000
G1 X86.837 Y119.739
G1 X85.676 Y120.219 F300.000 E7.05529
G1 X84.430 Y120.383 E7.07751
G1 X83.184 Y120.219 E7.09973
G1 X82.023 Y119.739 E7.12195
G1 X81.026 Y118.974 E7.14417
G1 X80.261 Y117.977 E7.16639
G1 X79.781 Y116.816 E7.18861
G1 X79.617 Y115.570 E7.21083
G1 X79.781 Y114.324 E7.23306
G1 X80.261 Y113.163 E7.25528
G1 X81.026 Y112.166 E7.27750
G1 X82.023 Y111.401 E7.29972
G1 X83.184 Y110.920 E7.32194
G1 X84.430 Y110.756 E7.34416
G1 X85.676 Y110.920 E7.36638
G1 X86.837 Y111.401 E7.38860
G1 X87.834 Y112.166 E7.41082
G1 X88.599 Y113.163 E7.43305
G1 X89.080 Y114.324 E7.45527
G1 X89.244 Y115.570 E7.47749
G1 X89.080 Y116.816 E7.49971
G1 X88.599 Y117.977 E7.52193
G1 X87.834 Y118.974 E7.54415
G1 X86.896 Y119.693 E7.56504
G1 X86.837 Y119.739 E7.56637
G1 X87.014 Y120.207 F7800.000
G1 X85.806 Y120.707 F300.000 E7.58948
G1 X84.430 Y120.888 E7.61403
G1 X83.054 Y120.707 E7.63858
G1 X81.771 Y120.175 E7.66313
G1 X81.706 Y120.126 E7.66457
G1 X80.670 Y119.330 E7.68767
G1 X79.825 Y118.229 E7.71222
G1 X79.293 Y116.946 E7.73677
G1 X79.112 Y115.570 E7.76132
G1 X79.293 Y114.194 E7.78587
G1 X79.825 Y112.911 E7.81042
G1 X80.670 Y111.810 E7.83497
G1 X81.771 Y110.965 E7.85952
G1 X83.054 Y110.433 E7.88407
G1 X84.430 Y110.252 E7.90862
G1 X85.806 Y110.433 E7.93317
G1 X87.089 Y110.965 E7.95772
G1 X88.190 Y111.810 E7.98226
G1 X89.035 Y112.911 E8.00681
G1 X89.567 Y114.194 E8.03136
G1 X89.748 Y115.570 E8.05591
G1 X89.567 Y116.946 E8.08046
G1 X89.035 Y118.229 E8.10501
G1 X88.190 Y119.330 E8.12956
G1 X87.083 Y120.178 E8.15422
G1 X87.014 Y120.207 E8.15555
G1 X86.593 Y119.936 F7800.000
G1 X84.656 Y119.879
G1 X84.204 Y119.879 F1500.000 E8.16364
G1 X83.694 Y118.865 F7800.000
G1 X81.481 Y118.865 F1500.000 E8.20331
G1 X80.959 Y118.358 E8.21636
G1 X82.683 Y118.358 E8.24727
G1 X82.104 Y117.851 E8.26107
G1 X80.570 Y117.851 E8.28858
G1 X80.316 Y117.344 E8.29875
G1 X81.715 Y117.344 E8.32385
G1 X81.487 Y116.837 E8.33382
G1 X80.106 Y116.837 E8.35858
G1 X79.996 Y116.330 E8.36788
G1 X81.313 Y116.330 E8.39151
G1 X81.247 Y115.823 E8.40067
G1 X79.929 Y115.823 E8.42430
G1 X79.929 Y115.316 E8.43339
G1 X81.247 Y115.316 E8.45701
G1 X81.313 Y114.810 E8.46618
G1 X79.996 Y114.810 E8.48980
G1 X80.106 Y114.303 E8.49910
G1 X81.487 Y114.303 E8.52386
G1 X81.715 Y113.796 E8.53384
G1 X80.316 Y113.796 E8.55894
G1 X80.570 Y113.289 E8.56911
G1 X82.104 Y113.289 E8.59661
G1 X82.683 Y112.782 E8.61041
G1 X80.959 Y112.782 E8.64133
G1 X81.481 Y112.275 E8.65437
G1 X83.694 Y112.275 E8.69404
G1 X84.204 Y111.261 F7800.000
G1 X84.656 Y111.261 F1500.000 E8.70214
G1 X85.166 Y112.275 F7800.000
G1 X87.379 Y112.275 F1500.000 E8.74180
G1 X87.901 Y112.782 E8.75485
G1 X86.177 Y112.782 E8.78576
G1 X86.756 Y113.289 E8.79956
G1 X88.290 Y113.289 E8.82707
G1 X88.544 Y113.796 E8.83724
G1 X87.145 Y113.796 E8.86234
G1 X87.374 Y114.303 E8.87231
G1 X88.754 Y114.303 E8.89707
G1 X88.864 Y114.810 E8.90637
G1 X87.547 Y114.810 E8.92999
G1 X87.613 Y115.316 E8.93916
G1 X88.931 Y115.316 E8.96278
G1 X88.931 Y115.823 E8.97187
G1 X87.613 Y115.823 E8.99550
G1 X87.547 Y116.330 E9.00467
G1 X88.864 Y116.330 E9.02829
G1 X88.754 Y116.837 E9.03759
G1 X87.374 Y116.837 E9.06235
G1 X87.145 Y117.344 E9.07232
G1 X88.544 Y117.344 E9.09742
G1 X88.290 Y117.851 E9.10759
G1 X86.756 Y117.851 E9.13510
G1 X86.177 Y118.358 E9.14890
G1 X87.901 Y118.358 E9.17981
G1 X87.379 Y118.865 E9.19286
G1 X85.166 Y118.865 E9.23252
G1 X86.640 Y119.372 E9.26046
G1 X82.220 Y119.372 E9.33972
G1 X82.220 Y111.768 F7800.000
G1 X86.640 Y111.768 F1500.000 E9.41897
G1 X84.430 Y81.492 F7800.000
G1 X85.190 Y81.593 F300.000 E9.43253
G1 X85.899 Y81.886 E9.44609
G1 X86.507 Y82.353 E9.45965
G1 X86.974 Y82.961 E9.47321
G1 X87.268 Y83.670 E9.48677
G1 X87.368 Y84.430 E9.50033
G1 X87.268 Y85.190 E9.51389
G1 X86.974 Y85.899 E9.52746
G1 X86.507 Y86.507 E9.54102
G1 X85.899 Y86.974 E9.55458
G1 X85.190 Y87.268 E9.56814
G1 X84.430 Y87.368 E9.58170
G1 X83.670 Y87.268 E9.59526
G1 X82.961 Y86.974 E9.60882
G1 X82.353 Y86.507 E9.62238
G1 X81.886 Y85.899 E9.63594
G1 X81.593 Y85.190 E9.64950
G1 X81.492 Y84.430 E9.66307
G1 X81.593 Y83.670 E9.67663
G1 X81.886 Y82.961 E9.69019
G1 X82.353 Y82.353 E9.70375
G1 X82.961 Y81.886 E9.71731
G1 X83.670 Y81.593 E9.73087
G1 X84.356 Y81.502 E9.74311
G1 X84.430 Y81.492 E9.74443
G1 X84.430 Y81.997 F7800.000
G1 X85.060 Y82.080 F300.000 E9.75567
G1 X85.647 Y82.323 E9.76690
G1 X86.151 Y82.709 E9.77813
G1 X86.537 Y83.213 E9.78936
G1 X86.780 Y83.800 E9.80060
G1 X86.863 Y84.430 E9.81183
G1 X86.780 Y85.060 E9.82306
G1 X86.537 Y85.647 E9.83430
G1 X86.151 Y86.151 E9.84553
G1 X85.647 Y86.537 E9.85676
G1 X85.060 Y86.780 E9.86799
G1 X84.430 Y86.863 E9.87923
G1 X83.800 Y86.780 E9.89046
G1 X83.213 Y86.537 E9.90169
G1 X82.709 Y86.151 E9.91293
G1 X82.323 Y85.647 E9.92416
G1 X82.080 Y85.060 E9.93539
G1 X81.997 Y84.430 E9.94662
G1 X82.080 Y83.800 E9.95786
G1 X82.323 Y83.213 E9.96909
G1 X82.709 Y82.709 E9.98032
G1 X83.213 Y82.323 E9.99156
G1 X83.800 Y82.080 E10.00279
G1 X84.356 Y82.007 E10.01270
G1 X84.430 Y81.997 E10.01402
G1 X84.699 Y81.575 F7800.000
G1 X84.430 Y79.617
G1 X85.676 Y79.781 F300.000 E10.03624
G1 X86.837 Y80.261 E10.05846
G1 X87.834 Y81.026 E10.08069
G1 X88.599 Y82.023 E10.10291
G1 X89.080 Y83.184 E10.12513
G1 X89.244 Y84.430 E10.14735
G1 X89.080 Y85.676 E10.16957
G1 X88.599 Y86.837 E10.19179
G1 X87.834 Y87.834 E10.21401
G1 X86.837 Y88.599 E10.23623
G1 X85.676 Y89.080 E10.25845
G1 X84.430 Y89.244 E10.28067
G1 X83.184 Y89.080 E10.30290
G1 X82.023 Y88.599 E10.32512
G1 X81.026 Y87.834 E10.34734
G1 X80.261 Y86.837 E10.36956
G1 X79.781 Y85.676 E10.39178
G1 X79.617 Y84.430 E10.41400
G1 X79.781 Y83.184 E10.43622
G1 X80.261 Y82.023 E10.45844
G1 X81.026 Y81.026 E10.48066
G1 X82.023 Y80.261 E10.50289
G1 X83.184 Y79.781 E10.52511
G1 X84.356 Y79.626 E10.54600
G1 X84.430 Y79.617 E10.54733
G1 X84.349 Y79.123 F7800.000
G1 X84.430 Y79.112 F300.000 E10.54877
G1 X85.806 Y79.293 E10.57332
G1 X87.089 Y79.825 E10.59787
G1 X88.190 Y80.670 E10.62242
G1 X89.035 Y81.771 E10.64697
G1 X89.567 Y83.054 E10.67152
G1 X89.748 Y84.430 E10.69606
G1 X89.567 Y85.806 E10.72061
G1 X89.035 Y87.089 E10.74516
G1 X88.190 Y88.190 E10.76971
G1 X87.089 Y89.035 E10.79426
G1 X85.806 Y89.567 E10.81881
G1 X84.430 Y89.748 E10.84336
G1 X83.054 Y89.567 E10.86791
G1 X81.771 Y89.035 E10.89246
G1 X80.670 Y88.190 E10.91701
G1 X79.825 Y87.089 E10.94156
G1 X79.293 Y85.806 E10.96611
G1 X79.112 Y84.430 E10.99065
G1 X79.283 Y83.135 E11.01376
G1 X79.293 Y83.054 E11.01520
G1 X79.825 Y81.771 E11.03975
G1 X80.670 Y80.670 E11.06430
G1 X81.771 Y79.825 E11.08885
G1 X83.054 Y79.293 E11.11340
G1 X84.275 Y79.133 E11.13518
G1 X84.349 Y79.123 E11.13651
G1 X84.654 Y79.520 F7800.000
G1 X84.656 Y80.121
G1 X84.204 Y80.121 F1500.000 E11.14460
G1 X83.694 Y81.135 F7800.000
G1 X81.481 Y81.135 F1500.000 E11.18427
G1 X80.959 Y81.642 E11.19732
G1 X82.683 Y81.642 E11.22823
G1 X82.104 Y82.149 E11.24203
G1 X80.570 Y82.149 E11.26954
G1 X80.316 Y82.656 E11.27971
G1 X81.715 Y82.656 E11.30481
G1 X81.487 Y83.163 E11.31478
G1 X80.106 Y83.163 E11.33954
G1 X79.996 Y83.670 E11.34884
G1 X81.313 Y83.670 E11.37246
G1 X81.247 Y84.177 E11.38163
G1 X79.929 Y84.177 E11.40525
G1 X79.929 Y84.684 E11.41435
G1 X81.247 Y84.684 E11.43797
G1 X81.313 Y85.191 E11.44714
G1 X79.996 Y85.191 E11.47076
G1 X80.106 Y85.697 E11.48006
G1 X81.487 Y85.697 E11.50482
G1 X81.715 Y86.204 E11.51479
G1 X80.316 Y86.204 E11.53989
G1 X80.570 Y86.711 E11.55006
G1 X82.104 Y86.711 E11.57757
G1 X82.683 Y87.218 E11.59137
G1 X80.959 Y87.218 E11.62228
G1 X81.481 Y87.725 E11.63533
G1 X83.694 Y87.725 E11.67500
G1 X84.204 Y88.739 F7800.000
G1 X84.656 Y88.739 F1500.000 E11.68310
G1 X82.220 Y88.232 F7800.000
G1 X86.640 Y88.232 F1500.000 E11.76235
G1 X85.166 Y87.725 E11.79029
G1 X87.379 Y87.725 E11.82996
G1 X87.901 Y87.218 E11.84300
G1 X86.177 Y87.218 E11.87392
G1 X86.756 Y86.711 E11.88771
G1 X88.290 Y86.711 E11.91522
G1 X88.544 Y86.204 E11.92539
G1 X87.145 Y86.204 E11.95049
G1 X87.374 Y85.697 E11.96047
G1 X88.754 Y85.697 E11.98522
G1 X88.864 Y85.191 E11.99452
G1 X87.547 Y85.191 E12.01815
G1 X87.613 Y84.684 E12.02731
G1 X88.931 Y84.684 E12.05094
G1 X88.931 Y84.177 E12.06003
G1 X87.613 Y84.177 E12.08365
G1 X87.547 Y83.670 E12.09282
G1 X88.864 Y83.670 E12.11644
G1 X88.754 Y83.163 E12.12574
G1 X87.374 Y83.163 E12.15050
G1 X87.145 Y82.656 E12.16047
G1 X88.544 Y82.656 E12.18557
G1 X88.290 Y82.149 E12.19574
G1 X86.756 Y82.149 E12.22325
