; generated by Slic3r 0.9.8 on 2013-06-12 at 14:24:04

; layer_height = .25
; perimeters = 1
; top_solid_layers = 4
; bottom_solid_layers = 4
; fill_density = .9
; perimeter_speed = 30
; infill_speed = 40
; travel_speed = 130
; scale = 1
; nozzle_diameter = 0.5
; filament_diameter = 3
; extrusion_multiplier = 1
; perimeters extrusion width = 0.80mm
; infill extrusion width = 0.80mm
; first layer extrusion width = 0.50mm

M107
M104 S220 ; set temperature
G28 ; home all axes
M109 S220 ; wait for temperature to be reached
G90 ; use absolute coordinates
G21 ; set units to millimeters
G92 E0
M82 ; use absolute distances for extrusion
G1 Z0.250 F7800.000
G1 X108.710 Y108.710
G1 X108.240 Y109.140 F900.000 E0.01127
G1 X106.580 Y110.390 E0.04801
G1 X105.970 Y110.760 E0.06063
G1 X105.330 Y111.070 E0.07320
G1 X103.710 Y111.730 E0.10414
G1 X103.000 Y111.940 E0.11723
G1 X102.280 Y112.070 E0.13017
G1 X100.850 Y112.260 E0.15568
G1 X100.090 Y112.310 E0.16915
G1 X99.410 Y112.290 E0.18118
G1 X97.350 Y112.010 E0.21794
G1 X96.990 Y111.940 E0.22443
G1 X96.630 Y111.840 E0.23104
G1 X95.940 Y111.600 E0.24395
G1 X94.660 Y111.070 E0.26845
G1 X94.020 Y110.760 E0.28103
G1 X93.710 Y110.580 E0.28737
G1 X93.120 Y110.180 E0.29997
G1 X91.750 Y109.140 E0.33039
G1 X91.280 Y108.710 E0.34166
G1 X90.850 Y108.240 E0.35292
G1 X89.600 Y106.580 E0.38967
G1 X89.230 Y105.970 E0.40228
G1 X88.920 Y105.330 E0.41486
G1 X88.390 Y104.050 E0.43936
G1 X88.260 Y103.700 E0.44596
G1 X88.050 Y103.000 E0.45888
G1 X87.920 Y102.280 E0.47182
G1 X87.740 Y100.900 E0.49643
G1 X87.680 Y100.170 E0.50939
G1 X87.700 Y99.440 E0.52230
G1 X87.980 Y97.350 E0.55959
G1 X88.050 Y96.990 E0.56608
G1 X88.150 Y96.630 E0.57268
G1 X88.390 Y95.940 E0.58560
G1 X88.920 Y94.660 E0.61010
G1 X89.230 Y94.020 E0.62268
G1 X89.410 Y93.710 E0.62901
G1 X89.810 Y93.120 E0.64162
G1 X90.850 Y91.750 E0.67204
G1 X91.060 Y91.510 E0.67768
G1 X91.280 Y91.280 E0.68330
G1 X91.750 Y90.850 E0.69457
G1 X93.410 Y89.600 E0.73132
G1 X94.020 Y89.230 E0.74393
G1 X94.660 Y88.920 E0.75651
G1 X95.940 Y88.390 E0.78101
G1 X96.830 Y88.090 E0.79762
G1 X97.750 Y87.910 E0.81419
G1 X99.080 Y87.740 E0.83791
G1 X99.800 Y87.680 E0.85068
G1 X100.530 Y87.700 E0.86360
G1 X102.640 Y87.980 E0.90124
G1 X103.000 Y88.050 E0.90772
G1 X103.350 Y88.150 E0.91416
G1 X104.050 Y88.390 E0.92724
G1 X105.330 Y88.920 E0.95174
G1 X105.970 Y89.230 E0.96432
G1 X106.280 Y89.410 E0.97066
G1 X106.870 Y89.810 E0.98326
G1 X108.240 Y90.850 E1.01368
G1 X108.710 Y91.280 E1.02495
G1 X109.140 Y91.750 E1.03621
G1 X110.390 Y93.410 E1.07296
G1 X110.760 Y94.020 E1.08557
G1 X111.070 Y94.660 E1.09815
G1 X111.730 Y96.280 E1.12908
G1 X111.940 Y96.990 E1.14218
G1 X112.070 Y97.710 E1.15512
G1 X112.250 Y99.040 E1.17885
G1 X112.310 Y99.830 E1.19286
G1 X112.290 Y100.540 E1.20542
G1 X112.010 Y102.640 E1.24288
G1 X111.940 Y103.000 E1.24937
G1 X111.840 Y103.350 E1.25581
G1 X111.600 Y104.050 E1.26889
G1 X111.070 Y105.330 E1.29339
G1 X110.760 Y105.970 E1.30597
G1 X110.580 Y106.280 E1.31231
G1 X110.180 Y106.870 E1.32491
G1 X109.340 Y107.980 E1.34953
G1 X109.140 Y108.240 E1.35533
G1 X108.762 Y108.656 E1.36527
G1 X108.710 Y108.710 E1.36659
G1 X108.360 Y108.360 F7800.000
G1 X107.920 Y108.760 F900.000 E1.37711
G1 X106.300 Y109.980 E1.41297
G1 X105.740 Y110.320 E1.42456
G1 X105.140 Y110.610 E1.43634
G1 X103.540 Y111.260 E1.46688
G1 X102.890 Y111.450 E1.47886
G1 X102.560 Y111.520 E1.48482
G1 X100.800 Y111.760 E1.51624
G1 X100.080 Y111.810 E1.52900
G1 X99.460 Y111.790 E1.53997
G1 X97.440 Y111.520 E1.57601
G1 X96.780 Y111.360 E1.58802
G1 X96.130 Y111.140 E1.60015
G1 X94.850 Y110.610 E1.62465
G1 X94.250 Y110.320 E1.63644
G1 X93.970 Y110.160 E1.64214
G1 X93.690 Y109.980 E1.64803
G1 X92.070 Y108.760 E1.68389
G1 X91.630 Y108.360 E1.69440
G1 X91.230 Y107.920 E1.70492
G1 X90.010 Y106.300 E1.74078
G1 X89.670 Y105.740 E1.75237
G1 X89.380 Y105.140 E1.76415
G1 X88.730 Y103.540 E1.79469
G1 X88.540 Y102.880 E1.80684
G1 X88.410 Y102.210 E1.81891
G1 X88.230 Y100.830 E1.84352
G1 X88.180 Y100.160 E1.85540
G1 X88.200 Y99.480 E1.86743
G1 X88.470 Y97.440 E1.90382
G1 X88.630 Y96.780 E1.91583
G1 X88.850 Y96.130 E1.92796
G1 X89.380 Y94.850 E1.95246
G1 X89.670 Y94.250 E1.96425
G1 X89.830 Y93.970 E1.96995
G1 X90.010 Y93.690 E1.97584
G1 X91.230 Y92.070 E2.01170
G1 X91.630 Y91.630 E2.02221
G1 X92.070 Y91.230 E2.03273
G1 X93.420 Y90.210 E2.06265
G1 X93.970 Y89.830 E2.07447
G1 X94.250 Y89.670 E2.08018
G1 X94.850 Y89.380 E2.09196
G1 X96.130 Y88.850 E2.11646
G1 X96.790 Y88.620 E2.12882
G1 X97.130 Y88.530 E2.13504
G1 X97.810 Y88.410 E2.14725
G1 X99.480 Y88.200 E2.17701
G1 X99.820 Y88.180 E2.18304
G1 X100.160 Y88.180 E2.18905
G1 X100.830 Y88.230 E2.20093
G1 X102.210 Y88.410 E2.22554
G1 X102.880 Y88.540 E2.23761
G1 X103.540 Y88.730 E2.24976
G1 X103.860 Y88.850 E2.25580
G1 X105.140 Y89.380 E2.28030
G1 X105.740 Y89.670 E2.29208
G1 X106.020 Y89.830 E2.29779
G1 X106.300 Y90.010 E2.30367
G1 X107.920 Y91.230 E2.33954
G1 X108.360 Y91.630 E2.35005
G1 X108.760 Y92.070 E2.36057
G1 X109.980 Y93.690 E2.39643
G1 X110.320 Y94.250 E2.40802
G1 X110.610 Y94.850 E2.41980
G1 X111.260 Y96.450 E2.45034
G1 X111.450 Y97.100 E2.46232
G1 X111.520 Y97.430 E2.46828
G1 X111.750 Y99.100 E2.49809
G1 X111.810 Y99.840 E2.51122
G1 X111.810 Y100.170 E2.51706
G1 X111.760 Y100.830 E2.52876
G1 X111.580 Y102.210 E2.55337
G1 X111.450 Y102.880 E2.56544
G1 X111.260 Y103.540 E2.57759
G1 X111.140 Y103.860 E2.58363
G1 X110.610 Y105.140 E2.60813
G1 X110.320 Y105.740 E2.61991
G1 X110.160 Y106.020 E2.62562
G1 X109.980 Y106.300 E2.63150
G1 X108.760 Y107.920 E2.66737
G1 X108.411 Y108.305 E2.67656
G1 X108.360 Y108.360 E2.67788
G1 X102.219 Y102.219 F7800.000
G1 X101.569 Y102.717 F300.000 E2.69237
G1 X100.812 Y103.031 E2.70685
G1 X100.000 Y103.138 E2.72134
G1 X99.188 Y103.031 E2.73582
G1 X98.431 Y102.717 E2.75031
G1 X97.781 Y102.219 E2.76479
G1 X97.283 Y101.569 E2.77928
G1 X96.969 Y100.812 E2.79376
G1 X96.862 Y100.000 E2.80825
G1 X96.969 Y99.188 E2.82273
G1 X97.283 Y98.431 E2.83722
G1 X97.781 Y97.781 E2.85170
G1 X98.431 Y97.283 E2.86619
G1 X99.188 Y96.969 E2.88067
G1 X100.000 Y96.862 E2.89516
G1 X100.812 Y96.969 E2.90964
G1 X101.569 Y97.283 E2.92413
G1 X102.219 Y97.781 E2.93861
G1 X102.717 Y98.431 E2.95310
G1 X103.031 Y99.188 E2.96758
G1 X103.138 Y100.000 E2.98207
G1 X103.031 Y100.812 E2.99655
G1 X102.717 Y101.569 E3.01104
G1 X102.264 Y102.159 E3.02420
G1 X102.219 Y102.219 E3.02552
G1 X101.862 Y101.862 F7800.000
G1 X101.317 Y102.281 F300.000 E3.03768
G1 X100.682 Y102.544 E3.04984
G1 X100.000 Y102.633 E3.06199
G1 X99.318 Y102.544 E3.07415
G1 X98.683 Y102.281 E3.08631
G1 X98.138 Y101.862 E3.09846
G1 X97.719 Y101.317 E3.11062
G1 X97.456 Y100.682 E3.12278
G1 X97.367 Y100.000 E3.13493
G1 X97.456 Y99.318 E3.14709
G1 X97.719 Y98.683 E3.15925
G1 X98.138 Y98.138 E3.17141
G1 X98.683 Y97.719 E3.18356
G1 X99.318 Y97.456 E3.19572
G1 X100.000 Y97.367 E3.20788
G1 X100.682 Y97.456 E3.22003
G1 X101.317 Y97.719 E3.23219
G1 X101.862 Y98.138 E3.24435
G1 X102.281 Y98.683 E3.25650
G1 X102.544 Y99.318 E3.26866
G1 X102.633 Y100.000 E3.28082
G1 X102.544 Y100.682 E3.29297
G1 X102.281 Y101.317 E3.30513
G1 X101.908 Y101.803 E3.31596
G1 X101.862 Y101.862 E3.31729
G1 X101.970 Y102.350 F7800.000
G1 X103.404 Y103.404
G1 X102.407 Y104.169 F300.000 E3.33951
G1 X101.246 Y104.649 E3.36173
G1 X100.000 Y104.813 E3.38395
G1 X98.754 Y104.649 E3.40617
G1 X97.593 Y104.169 E3.42839
G1 X96.596 Y103.404 E3.45061
G1 X95.831 Y102.407 E3.47284
G1 X95.351 Y101.246 E3.49506
G1 X95.187 Y100.000 E3.51728
G1 X95.351 Y98.754 E3.53950
G1 X95.831 Y97.593 E3.56172
G1 X96.596 Y96.596 E3.58394
G1 X97.593 Y95.831 E3.60616
G1 X98.754 Y95.351 E3.62838
G1 X100.000 Y95.187 E3.65060
G1 X101.246 Y95.351 E3.67282
G1 X102.407 Y95.831 E3.69505
G1 X103.404 Y96.596 E3.71727
G1 X104.169 Y97.593 E3.73949
G1 X104.649 Y98.754 E3.76171
G1 X104.813 Y100.000 E3.78393
G1 X104.649 Y101.246 E3.80615
G1 X104.169 Y102.407 E3.82837
G1 X103.449 Y103.344 E3.84927
G1 X103.404 Y103.404 E3.85059
G1 X103.810 Y103.696 F7800.000
G1 X103.760 Y103.760 F300.000 E3.85204
G1 X102.659 Y104.605 E3.87658
G1 X101.376 Y105.137 E3.90113
G1 X100.000 Y105.318 E3.92568
G1 X98.624 Y105.137 E3.95023
G1 X97.341 Y104.605 E3.97478
G1 X96.240 Y103.760 E3.99933
G1 X96.190 Y103.696 E4.00077
G1 X95.395 Y102.659 E4.02388
G1 X94.863 Y101.376 E4.04843
G1 X94.682 Y100.000 E4.07298
G1 X94.853 Y98.705 E4.09608
G1 X94.863 Y98.624 E4.09753
G1 X95.395 Y97.341 E4.12208
G1 X96.240 Y96.240 E4.14663
G1 X97.341 Y95.395 E4.17117
G1 X98.624 Y94.863 E4.19572
G1 X100.000 Y94.682 E4.22027
G1 X101.376 Y94.863 E4.24482
G1 X102.659 Y95.395 E4.26937
G1 X103.760 Y96.240 E4.29392
G1 X104.605 Y97.341 E4.31847
G1 X105.137 Y98.624 E4.34302
G1 X105.318 Y100.000 E4.36757
G1 X105.137 Y101.376 E4.39212
G1 X104.605 Y102.659 E4.41667
G1 X103.856 Y103.636 E4.43845
G1 X103.810 Y103.696 E4.43977
G1 X103.314 Y103.630 F7800.000
G1 X100.226 Y104.309
G1 X99.774 Y104.309 F1500.000 E4.44787
G1 X98.745 Y103.295 F7800.000
G1 X97.051 Y103.295 F1500.000 E4.47824
G1 X96.529 Y102.788 E4.49129
G1 X97.927 Y102.788 E4.51636
G1 X97.424 Y102.281 E4.52916
G1 X96.140 Y102.281 E4.55218
G1 X95.886 Y101.774 E4.56236
G1 X97.052 Y101.774 E4.58327
G1 X96.842 Y101.267 E4.59311
G1 X95.676 Y101.267 E4.61401
G1 X95.566 Y100.760 E4.62331
G1 X96.683 Y100.760 E4.64335
G1 X96.616 Y100.253 E4.65252
G1 X95.499 Y100.253 E4.67255
G1 X95.499 Y99.746 E4.68164
G1 X96.616 Y99.746 E4.70168
G1 X96.683 Y99.240 E4.71084
G1 X95.566 Y99.240 E4.73088
G1 X95.676 Y98.733 E4.74018
G1 X96.842 Y98.733 E4.76109
G1 X97.052 Y98.226 E4.77093
G1 X95.886 Y98.226 E4.79184
G1 X96.140 Y97.719 E4.80201
G1 X97.424 Y97.719 E4.82503
G1 X97.927 Y97.212 E4.83784
G1 X96.529 Y97.212 E4.86291
G1 X97.051 Y96.705 E4.87595
G1 X98.745 Y96.705 E4.90632
G1 X97.790 Y96.198 E4.92571
G1 X102.210 Y96.198 E5.00496
G1 X102.949 Y96.705 E5.02103
G1 X101.255 Y96.705 E5.05140
G1 X102.073 Y97.212 E5.06865
G1 X103.471 Y97.212 E5.09371
G1 X103.860 Y97.719 E5.10517
G1 X102.576 Y97.719 E5.12819
G1 X102.948 Y98.226 E5.13947
G1 X104.114 Y98.226 E5.16038
G1 X104.324 Y98.733 E5.17022
G1 X103.158 Y98.733 E5.19113
G1 X103.317 Y99.240 E5.20065
G1 X104.434 Y99.240 E5.22069
G1 X104.501 Y99.746 E5.22985
G1 X103.384 Y99.746 E5.24989
G1 X103.384 Y100.253 F7800.000
G1 X104.501 Y100.253 F1500.000 E5.26993
G1 X104.434 Y100.760 E5.27909
G1 X103.317 Y100.760 E5.29913
G1 X103.158 Y101.267 E5.30865
G1 X104.324 Y101.267 E5.32956
G1 X104.114 Y101.774 E5.33940
G1 X102.948 Y101.774 E5.36031
G1 X102.576 Y102.281 E5.37159
G1 X103.860 Y102.281 E5.39461
G1 X103.471 Y102.788 E5.40607
G1 X102.073 Y102.788 E5.43113
G1 X101.255 Y103.295 E5.44839
G1 X102.949 Y103.295 E5.47876
G1 X102.210 Y103.802 E5.49482
G1 X97.790 Y103.802 E5.57407
G1 X99.774 Y95.691 F7800.000
G1 X100.226 Y95.691 F1500.000 E5.58217
M106 S255
G1 Z0.500 F7800.000
G1 X100.000 Y97.215
G1 X100.721 Y97.310 F600.000 E5.60136
G1 X101.392 Y97.588 E5.62055
G1 X101.969 Y98.031 E5.63974
G1 X102.412 Y98.608 E5.65892
G1 X102.690 Y99.279 E5.67811
G1 X102.785 Y100.000 E5.69730
G1 X102.690 Y100.721 E5.71649
G1 X102.412 Y101.392 E5.73568
G1 X101.969 Y101.969 E5.75487
G1 X101.392 Y102.412 E5.77406
G1 X100.721 Y102.690 E5.79325
G1 X100.076 Y102.775 E5.81040
G1 X100.000 Y102.785 E5.81244
G1 X99.279 Y102.690 E5.83163
G1 X98.608 Y102.412 E5.85082
G1 X98.031 Y101.969 E5.87001
G1 X97.588 Y101.392 E5.88919
G1 X97.310 Y100.721 E5.90838
G1 X97.215 Y100.000 E5.92757
G1 X97.310 Y99.279 E5.94676
G1 X97.588 Y98.608 E5.96595
G1 X98.031 Y98.031 E5.98514
G1 X98.608 Y97.588 E6.00433
G1 X99.279 Y97.310 E6.02352
G1 X99.889 Y97.230 E6.03975
G1 X100.000 Y97.215 E6.04271
G1 X100.401 Y96.586 F7800.000
G1 X100.288 Y94.871
G1 X101.053 Y94.972 F600.000 E6.06306
G1 X101.053 Y94.892 E6.06518
G1 X102.583 Y95.526 E6.10891
G1 X103.653 Y96.347 E6.14451
G1 X104.474 Y97.417 E6.18011
G1 X104.879 Y98.394 E6.20804
G1 X104.990 Y98.663 E6.21572
G1 X105.166 Y100.000 E6.25132
G1 X104.990 Y101.337 E6.28692
G1 X104.879 Y101.606 E6.29460
G1 X104.474 Y102.583 E6.32252
G1 X103.653 Y103.653 E6.35812
G1 X102.583 Y104.474 E6.39373
G1 X101.606 Y104.879 E6.42165
G1 X101.337 Y104.990 E6.42933
G1 X100.000 Y105.166 E6.46493
G1 X98.663 Y104.990 E6.50053
G1 X97.685 Y104.586 E6.52846
G1 X97.417 Y104.474 E6.53613
G1 X96.347 Y103.653 E6.57174
G1 X95.526 Y102.583 E6.60734
G1 X94.892 Y101.053 E6.65106
G1 X94.972 Y101.053 E6.65319
G1 X94.834 Y100.000 E6.68122
G1 X95.010 Y98.663 E6.71682
G1 X95.526 Y97.417 E6.75242
G1 X96.347 Y96.347 E6.78802
G1 X97.417 Y95.526 E6.82362
G1 X98.663 Y95.010 E6.85923
G1 X100.000 Y94.834 E6.89483
G1 X100.177 Y94.857 E6.89955
G1 X100.288 Y94.871 E6.90250
G1 X100.401 Y96.851 F7800.000
G1 X100.401 Y95.303 F1214.887 E6.94645
G1 X99.599 Y95.303 E6.96922
G1 X99.599 Y96.851 E7.01317
G1 X98.796 Y97.038 F7800.000
G1 X98.796 Y95.426 F1214.887 E7.05893
G1 X97.994 Y95.759 E7.08358
G1 X97.994 Y97.455 E7.13172
G1 X97.191 Y98.235 E7.16350
G1 X97.191 Y96.303 E7.21833
G1 X96.389 Y97.182 E7.25210
G1 X96.389 Y102.818 E7.41206
G1 X97.191 Y101.765 E7.44965
G1 X97.191 Y103.697 E7.50448
G1 X97.994 Y104.241 E7.53201
G1 X97.994 Y102.545 E7.58015
G1 X98.796 Y102.962 E7.60581
G1 X98.796 Y104.574 E7.65157
G1 X99.599 Y104.697 E7.67461
G1 X99.599 Y103.149 E7.71855
G1 X100.401 Y103.149 F7800.000
G1 X100.401 Y104.697 F1214.887 E7.76249
G1 X101.204 Y104.574 E7.78554
G1 X101.204 Y102.962 E7.83130
G1 X102.006 Y102.545 E7.85696
G1 X102.006 Y104.241 E7.90510
G1 X102.809 Y103.697 E7.93263
G1 X102.809 Y101.765 E7.98746
G1 X103.611 Y102.818 F7800.000
G1 X103.611 Y97.182 F1214.887 E8.14742
G1 X102.809 Y96.303 E8.18120
G1 X102.809 Y98.235 E8.23603
G1 X102.006 Y97.455 E8.26780
G1 X102.006 Y95.759 E8.31594
G1 X101.204 Y95.426 E8.34059
G1 X101.204 Y97.038 E8.38635
G1 X104.414 Y99.663 F7800.000
G1 X104.414 Y100.337 F1214.887 E8.40546
G1 X95.586 Y100.337 F7800.000
G1 X95.586 Y99.663 F1214.887 E8.42457
G1 Z0.750 F7800.000
G1 X97.227 Y99.907
G1 X97.310 Y99.279 F600.000 E8.44129
G1 X97.588 Y98.608 E8.46048
G1 X98.031 Y98.031 E8.47967
G1 X98.608 Y97.588 E8.49886
G1 X98.694 Y97.553 E8.50132
G1 X99.279 Y97.310 E8.51805
G1 X100.000 Y97.215 E8.53724
G1 X100.721 Y97.310 E8.55643
G1 X100.807 Y97.346 E8.55889
G1 X101.392 Y97.588 E8.57561
G1 X101.969 Y98.031 E8.59480
G1 X102.412 Y98.608 E8.61399
G1 X102.447 Y98.694 E8.61646
G1 X102.690 Y99.279 E8.63318
G1 X102.785 Y100.000 E8.65237
G1 X102.690 Y100.721 E8.67156
G1 X102.654 Y100.807 E8.67403
G1 X102.412 Y101.392 E8.69075
G1 X101.969 Y101.969 E8.70994
G1 X101.392 Y102.412 E8.72913
G1 X100.807 Y102.654 E8.74585
G1 X100.721 Y102.690 E8.74832
G1 X100.000 Y102.785 E8.76751
G1 X99.279 Y102.690 E8.78670
G1 X98.694 Y102.447 E8.80342
G1 X98.608 Y102.412 E8.80588
G1 X98.031 Y101.969 E8.82507
G1 X97.588 Y101.392 E8.84426
G1 X97.310 Y100.721 E8.86345
G1 X97.218 Y100.018 E8.88215
G1 X97.227 Y99.907 E8.88509
G1 X96.602 Y99.500 F7800.000
G1 X94.942 Y99.178
G1 X95.010 Y98.663 F600.000 E8.89882
G1 X95.526 Y97.417 E8.93442
G1 X96.347 Y96.347 E8.97002
G1 X97.417 Y95.526 E9.00562
G1 X98.663 Y95.010 E9.04122
G1 X100.000 Y94.834 E9.07682
G1 X101.337 Y95.010 E9.11243
G1 X102.583 Y95.526 E9.14803
G1 X103.653 Y96.347 E9.18363
G1 X104.474 Y97.417 E9.21923
G1 X104.792 Y98.183 E9.24111
G1 X104.990 Y98.663 E9.25483
G1 X105.166 Y100.000 E9.29044
G1 X104.990 Y101.337 E9.32604
G1 X104.792 Y101.817 E9.33976
G1 X104.474 Y102.583 E9.36164
G1 X103.653 Y103.653 E9.39724
G1 X102.583 Y104.474 E9.43284
G1 X101.817 Y104.792 E9.45473
G1 X101.337 Y104.990 E9.46845
G1 X100.000 Y105.166 E9.50405
G1 X98.663 Y104.990 E9.53965
G1 X97.897 Y104.673 E9.56153
G1 X97.417 Y104.474 E9.57525
G1 X96.347 Y103.653 E9.61085
