; generated by Slic3r 0.9.8 on 2013-06-12 at 15:01:31

; layer_height = .25
; perimeters = 1
; top_solid_layers = 4
; bottom_solid_layers = 4
; fill_density = .9
; perimeter_speed = 30
; infill_speed = 40
; travel_speed = 130
; scale = 1
; nozzle_diameter = 0.5
; filament_diameter = 3
; extrusion_multiplier = 1
; perimeters extrusion width = 0.80mm
; infill extrusion width = 0.80mm
; first layer extrusion width = 0.50mm

M107
M104 S220 ; set temperature
G28 ; home all axes
M109 S220 ; wait for temperature to be reached
G90 ; use absolute coordinates
G21 ; set units to millimeters
G92 E0
M82 ; use absolute distances for extrusion
G1 Z0.250 F7800.000
G1 X108.710 Y108.710
G1 X108.240 Y109.140 F900.000 E0.01127
G1 X106.580 Y110.390 E0.04801
G1 X105.970 Y110.760 E0.06063
G1 X105.330 Y111.070 E0.07320
G1 X104.050 Y111.600 E0.09770
G1 X103.700 Y111.730 E0.10431
G1 X103.000 Y111.940 E0.11723
G1 X102.280 Y112.070 E0.13017
G1 X100.900 Y112.250 E0.15478
G1 X100.170 Y112.310 E0.16773
G1 X99.440 Y112.290 E0.18065
G1 X97.350 Y112.010 E0.21793
G1 X96.990 Y111.940 E0.22442
G1 X96.630 Y111.840 E0.23103
G1 X95.940 Y111.600 E0.24395
G1 X94.660 Y111.070 E0.26845
G1 X94.020 Y110.760 E0.28102
G1 X93.710 Y110.580 E0.28736
G1 X93.120 Y110.180 E0.29997
G1 X91.750 Y109.140 E0.33038
G1 X91.280 Y108.710 E0.34165
G1 X90.850 Y108.240 E0.35291
G1 X89.600 Y106.580 E0.38966
G1 X89.230 Y105.970 E0.40228
G1 X88.920 Y105.330 E0.41485
G1 X88.390 Y104.050 E0.43935
G1 X88.260 Y103.700 E0.44595
G1 X88.050 Y103.000 E0.45888
G1 X87.920 Y102.280 E0.47181
G1 X87.740 Y100.900 E0.49643
G1 X87.680 Y100.170 E0.50938
G1 X87.700 Y99.440 E0.52229
G1 X87.980 Y97.350 E0.55958
G1 X88.050 Y96.990 E0.56607
G1 X88.150 Y96.630 E0.57267
G1 X88.390 Y95.940 E0.58559
G1 X88.920 Y94.660 E0.61009
G1 X89.230 Y94.020 E0.62267
G1 X89.410 Y93.710 E0.62901
G1 X89.810 Y93.120 E0.64161
G1 X90.850 Y91.750 E0.67203
G1 X91.060 Y91.510 E0.67767
G1 X91.280 Y91.280 E0.68330
G1 X91.750 Y90.850 E0.69456
G1 X93.410 Y89.600 E0.73131
G1 X94.020 Y89.230 E0.74393
G1 X94.660 Y88.920 E0.75650
G1 X96.280 Y88.260 E0.78743
G1 X96.990 Y88.050 E0.80053
G1 X97.710 Y87.920 E0.81347
G1 X99.040 Y87.740 E0.83720
G1 X99.830 Y87.680 E0.85121
G1 X100.540 Y87.700 E0.86377
G1 X102.640 Y87.980 E0.90124
G1 X103.000 Y88.050 E0.90772
G1 X103.350 Y88.150 E0.91416
G1 X104.050 Y88.390 E0.92724
G1 X105.330 Y88.920 E0.95174
G1 X105.970 Y89.230 E0.96432
G1 X106.280 Y89.410 E0.97066
G1 X106.870 Y89.810 E0.98326
G1 X108.240 Y90.850 E1.01368
G1 X108.710 Y91.280 E1.02495
G1 X109.140 Y91.750 E1.03621
G1 X110.390 Y93.410 E1.07296
G1 X110.760 Y94.020 E1.08557
G1 X111.070 Y94.660 E1.09815
G1 X111.730 Y96.280 E1.12908
G1 X111.940 Y96.990 E1.14218
G1 X112.070 Y97.710 E1.15512
G1 X112.250 Y99.080 E1.17955
G1 X112.310 Y99.800 E1.19233
G1 X112.290 Y100.530 E1.20524
G1 X112.010 Y102.640 E1.24288
G1 X111.940 Y103.000 E1.24937
G1 X111.840 Y103.350 E1.25580
G1 X111.600 Y104.050 E1.26889
G1 X111.070 Y105.330 E1.29339
G1 X110.760 Y105.970 E1.30596
G1 X110.580 Y106.280 E1.31230
G1 X110.180 Y106.870 E1.32491
G1 X109.340 Y107.980 E1.34952
G1 X109.140 Y108.240 E1.35533
G1 X108.762 Y108.656 E1.36526
G1 X108.710 Y108.710 E1.36659
G1 X108.360 Y108.360 F7800.000
G1 X107.920 Y108.760 F900.000 E1.37711
G1 X106.300 Y109.980 E1.41297
G1 X105.740 Y110.320 E1.42455
G1 X105.140 Y110.610 E1.43634
G1 X103.540 Y111.260 E1.46688
G1 X102.880 Y111.450 E1.47902
G1 X102.210 Y111.580 E1.49109
G1 X100.830 Y111.760 E1.51570
G1 X100.160 Y111.810 E1.52759
G1 X99.480 Y111.790 E1.53962
G1 X97.440 Y111.520 E1.57601
G1 X96.780 Y111.360 E1.58801
G1 X96.130 Y111.140 E1.60015
G1 X94.850 Y110.610 E1.62465
G1 X94.250 Y110.320 E1.63643
G1 X93.970 Y110.160 E1.64214
G1 X93.690 Y109.980 E1.64802
G1 X92.070 Y108.760 E1.68389
G1 X91.630 Y108.360 E1.69440
G1 X91.230 Y107.920 E1.70492
G1 X90.010 Y106.300 E1.74078
G1 X89.670 Y105.740 E1.75237
G1 X89.380 Y105.140 E1.76415
G1 X88.730 Y103.540 E1.79469
G1 X88.540 Y102.880 E1.80684
G1 X88.410 Y102.210 E1.81890
G1 X88.230 Y100.830 E1.84352
G1 X88.180 Y100.160 E1.85540
G1 X88.200 Y99.480 E1.86743
G1 X88.470 Y97.440 E1.90382
G1 X88.630 Y96.780 E1.91583
G1 X88.850 Y96.130 E1.92796
G1 X89.380 Y94.850 E1.95246
G1 X89.670 Y94.250 E1.96424
G1 X89.830 Y93.970 E1.96995
G1 X90.010 Y93.690 E1.97583
G1 X91.230 Y92.070 E2.01170
G1 X91.630 Y91.630 E2.02221
G1 X92.070 Y91.230 E2.03273
G1 X93.420 Y90.210 E2.06265
G1 X93.970 Y89.830 E2.07447
G1 X94.250 Y89.670 E2.08017
G1 X94.850 Y89.380 E2.09196
G1 X96.450 Y88.730 E2.12250
G1 X97.100 Y88.540 E2.13447
G1 X97.430 Y88.470 E2.14044
G1 X99.100 Y88.240 E2.17025
G1 X99.840 Y88.180 E2.18338
G1 X100.170 Y88.180 E2.18921
G1 X100.830 Y88.230 E2.20092
G1 X102.210 Y88.410 E2.22553
G1 X102.880 Y88.540 E2.23760
G1 X103.540 Y88.730 E2.24974
G1 X103.860 Y88.850 E2.25579
G1 X105.140 Y89.380 E2.28029
G1 X105.740 Y89.670 E2.29207
G1 X106.020 Y89.830 E2.29778
G1 X106.300 Y90.010 E2.30366
G1 X107.920 Y91.230 E2.33952
G1 X108.360 Y91.630 E2.35004
G1 X108.760 Y92.070 E2.36056
G1 X109.980 Y93.690 E2.39642
G1 X110.320 Y94.250 E2.40800
G1 X110.610 Y94.850 E2.41979
G1 X111.260 Y96.450 E2.45033
G1 X111.450 Y97.100 E2.46230
G1 X111.570 Y97.770 E2.47434
G1 X111.790 Y99.480 E2.50483
G1 X111.810 Y99.820 E2.51085
G1 X111.810 Y100.160 E2.51686
G1 X111.760 Y100.830 E2.52875
G1 X111.580 Y102.210 E2.55336
G1 X111.450 Y102.880 E2.56543
G1 X111.260 Y103.540 E2.57757
G1 X111.140 Y103.860 E2.58361
G1 X110.610 Y105.140 E2.60811
G1 X110.320 Y105.740 E2.61990
G1 X110.160 Y106.020 E2.62560
G1 X109.980 Y106.300 E2.63149
G1 X108.760 Y107.920 E2.66735
G1 X108.411 Y108.305 E2.67654
G1 X108.360 Y108.360 E2.67787
G1 X102.077 Y102.077 F7800.000
G1 X101.469 Y102.544 F300.000 E2.69143
G1 X100.760 Y102.837 E2.70499
G1 X100.000 Y102.938 E2.71855
G1 X99.240 Y102.837 E2.73211
G1 X98.531 Y102.544 E2.74567
G1 X97.923 Y102.077 E2.75923
G1 X97.456 Y101.469 E2.77279
G1 X97.163 Y100.760 E2.78635
G1 X97.062 Y100.000 E2.79992
G1 X97.163 Y99.240 E2.81348
G1 X97.456 Y98.531 E2.82704
G1 X97.923 Y97.923 E2.84060
G1 X98.531 Y97.456 E2.85416
G1 X99.240 Y97.163 E2.86772
G1 X100.000 Y97.062 E2.88128
G1 X100.760 Y97.163 E2.89484
G1 X101.469 Y97.456 E2.90840
G1 X102.077 Y97.923 E2.92197
G1 X102.544 Y98.531 E2.93553
G1 X102.837 Y99.240 E2.94909
G1 X102.938 Y100.000 E2.96265
G1 X102.837 Y100.760 E2.97621
G1 X102.544 Y101.469 E2.98977
G1 X102.123 Y102.018 E3.00201
G1 X102.077 Y102.077 E3.00333
G1 X101.721 Y101.721 F7800.000
G1 X101.217 Y102.107 F300.000 E3.01456
G1 X100.630 Y102.350 E3.02580
G1 X100.000 Y102.433 E3.03703
G1 X99.370 Y102.350 E3.04826
G1 X98.783 Y102.107 E3.05950
G1 X98.279 Y101.721 E3.07073
G1 X97.893 Y101.217 E3.08196
G1 X97.650 Y100.630 E3.09320
G1 X97.567 Y100.000 E3.10443
G1 X97.650 Y99.370 E3.11566
G1 X97.893 Y98.783 E3.12689
G1 X98.279 Y98.279 E3.13813
G1 X98.783 Y97.893 E3.14936
G1 X99.370 Y97.650 E3.16059
G1 X100.000 Y97.567 E3.17183
G1 X100.630 Y97.650 E3.18306
G1 X101.217 Y97.893 E3.19429
G1 X101.721 Y98.279 E3.20552
G1 X102.107 Y98.783 E3.21676
G1 X102.350 Y99.370 E3.22799
G1 X102.433 Y100.000 E3.23922
G1 X102.350 Y100.630 E3.25046
G1 X102.107 Y101.217 E3.26169
G1 X101.766 Y101.661 E3.27160
G1 X101.721 Y101.721 E3.27292
G1 X101.829 Y102.209 F7800.000
G1 X103.404 Y103.404
G1 X102.407 Y104.169 F300.000 E3.29514
G1 X101.246 Y104.649 E3.31736
G1 X100.000 Y104.813 E3.33959
G1 X98.754 Y104.649 E3.36181
G1 X97.593 Y104.169 E3.38403
G1 X96.596 Y103.404 E3.40625
G1 X95.831 Y102.407 E3.42847
G1 X95.351 Y101.246 E3.45069
G1 X95.187 Y100.000 E3.47291
G1 X95.351 Y98.754 E3.49513
G1 X95.831 Y97.593 E3.51735
G1 X96.596 Y96.596 E3.53957
G1 X97.593 Y95.831 E3.56180
G1 X98.754 Y95.351 E3.58402
G1 X100.000 Y95.187 E3.60624
G1 X101.246 Y95.351 E3.62846
G1 X102.407 Y95.831 E3.65068
G1 X103.404 Y96.596 E3.67290
G1 X104.169 Y97.593 E3.69512
G1 X104.649 Y98.754 E3.71734
G1 X104.813 Y100.000 E3.73956
G1 X104.649 Y101.246 E3.76178
G1 X104.169 Y102.407 E3.78401
G1 X103.449 Y103.344 E3.80490
G1 X103.404 Y103.404 E3.80623
G1 X103.810 Y103.696 F7800.000
G1 X103.760 Y103.760 F300.000 E3.80767
G1 X102.659 Y104.605 E3.83222
G1 X101.376 Y105.137 E3.85677
G1 X100.000 Y105.318 E3.88132
G1 X98.624 Y105.137 E3.90587
G1 X97.341 Y104.605 E3.93042
G1 X96.240 Y103.760 E3.95496
G1 X95.395 Y102.659 E3.97951
G1 X94.863 Y101.376 E4.00406
G1 X94.682 Y100.000 E4.02861
G1 X94.853 Y98.705 E4.05172
G1 X94.863 Y98.624 E4.05316
G1 X95.395 Y97.341 E4.07771
G1 X96.240 Y96.240 E4.10226
G1 X97.341 Y95.395 E4.12681
G1 X98.624 Y94.863 E4.15136
G1 X100.000 Y94.682 E4.17591
G1 X101.295 Y94.853 E4.19901
G1 X101.376 Y94.863 E4.20046
G1 X102.659 Y95.395 E4.22501
G1 X103.760 Y96.240 E4.24955
G1 X104.605 Y97.341 E4.27410
G1 X105.137 Y98.624 E4.29865
G1 X105.318 Y100.000 E4.32320
G1 X105.137 Y101.376 E4.34775
G1 X104.605 Y102.659 E4.37230
G1 X103.856 Y103.636 E4.39408
G1 X103.810 Y103.696 E4.39541
G1 X103.314 Y103.630 F7800.000
G1 X100.226 Y104.309
G1 X99.774 Y104.309 F1500.000 E4.40350
G1 X99.264 Y103.295 F7800.000
G1 X97.051 Y103.295 F1500.000 E4.44317
G1 X96.529 Y102.788 E4.45622
G1 X98.253 Y102.788 E4.48713
G1 X97.674 Y102.281 E4.50093
G1 X96.140 Y102.281 E4.52844
G1 X95.886 Y101.774 E4.53861
G1 X97.285 Y101.774 E4.56371
G1 X97.056 Y101.267 E4.57368
G1 X95.676 Y101.267 E4.59844
G1 X95.566 Y100.760 E4.60774
G1 X96.883 Y100.760 E4.63137
G1 X96.817 Y100.253 E4.64053
G1 X95.499 Y100.253 E4.66416
G1 X95.499 Y99.746 E4.67325
G1 X96.817 Y99.746 E4.69687
G1 X96.883 Y99.240 E4.70604
G1 X95.566 Y99.240 E4.72966
G1 X95.676 Y98.733 E4.73896
G1 X97.056 Y98.733 E4.76372
G1 X97.285 Y98.226 E4.77370
G1 X95.886 Y98.226 E4.79879
G1 X96.140 Y97.719 E4.80897
G1 X97.674 Y97.719 E4.83647
G1 X98.253 Y97.212 E4.85027
G1 X96.529 Y97.212 E4.88119
G1 X97.051 Y96.705 E4.89423
G1 X99.264 Y96.705 E4.93390
G1 X99.774 Y95.691 F7800.000
G1 X100.226 Y95.691 F1500.000 E4.94200
G1 X100.736 Y96.705 F7800.000
G1 X102.949 Y96.705 F1500.000 E4.98166
G1 X103.471 Y97.212 E4.99471
G1 X101.747 Y97.212 E5.02562
G1 X102.326 Y97.719 E5.03942
G1 X103.860 Y97.719 E5.06693
G1 X104.114 Y98.226 E5.07710
G1 X102.715 Y98.226 E5.10220
G1 X102.944 Y98.733 E5.11217
G1 X104.324 Y98.733 E5.13693
G1 X104.434 Y99.240 E5.14623
G1 X103.117 Y99.240 E5.16985
G1 X103.183 Y99.746 E5.17902
G1 X104.501 Y99.746 E5.20264
G1 X104.501 Y100.253 E5.21173
G1 X103.183 Y100.253 E5.23536
G1 X103.117 Y100.760 E5.24453
G1 X104.434 Y100.760 E5.26815
G1 X104.324 Y101.267 E5.27745
G1 X102.944 Y101.267 E5.30221
G1 X102.715 Y101.774 E5.31218
G1 X104.114 Y101.774 E5.33728
G1 X103.860 Y102.281 E5.34745
G1 X102.326 Y102.281 E5.37496
G1 X101.747 Y102.788 E5.38876
G1 X103.471 Y102.788 E5.41967
G1 X102.949 Y103.295 E5.43272
G1 X100.736 Y103.295 E5.47238
G1 X102.210 Y103.802 E5.50032
G1 X97.790 Y103.802 E5.57958
G1 X97.790 Y96.198 F7800.000
G1 X102.210 Y96.198 F1500.000 E5.65883
M106 S255
G1 Z0.500 F7800.000
G1 X101.292 Y97.762
G1 X101.828 Y98.172 F600.000 E5.67664
G1 X101.873 Y98.232 E5.67862
G1 X102.238 Y98.708 E5.69445
G1 X102.496 Y99.331 E5.71226
G1 X102.585 Y100.000 E5.73007
G1 X102.575 Y100.074 E5.73205
G1 X102.496 Y100.669 E5.74788
G1 X102.238 Y101.292 E5.76569
G1 X101.828 Y101.828 E5.78350
G1 X101.768 Y101.873 E5.78548
G1 X101.292 Y102.238 E5.80131
G1 X100.669 Y102.496 E5.81912
G1 X100.000 Y102.585 E5.83693
G1 X99.331 Y102.496 E5.85474
G1 X99.262 Y102.468 E5.85672
G1 X98.708 Y102.238 E5.87255
G1 X98.172 Y101.828 E5.89036
G1 X97.762 Y101.292 E5.90817
G1 X97.504 Y100.669 E5.92598
G1 X97.494 Y100.595 E5.92796
G1 X97.415 Y100.000 E5.94379
G1 X97.504 Y99.331 E5.96160
G1 X97.762 Y98.708 E5.97941
G1 X98.172 Y98.172 E5.99722
G1 X98.708 Y97.762 E6.01503
G1 X99.331 Y97.504 E6.03284
G1 X100.000 Y97.415 E6.05065
G1 X100.669 Y97.504 E6.06846
G1 X101.189 Y97.719 E6.08331
G1 X101.292 Y97.762 E6.08626
G1 X101.954 Y97.417 F7800.000
G1 X103.423 Y96.170
G1 X103.653 Y96.347 F600.000 E6.09394
G1 X104.474 Y97.417 E6.12954
G1 X104.990 Y98.663 E6.16515
G1 X105.166 Y100.000 E6.20075
G1 X104.990 Y101.337 E6.23635
G1 X104.474 Y102.583 E6.27195
G1 X103.653 Y103.653 E6.30755
G1 X102.583 Y104.474 E6.34316
G1 X102.315 Y104.586 E6.35083
G1 X101.337 Y104.990 E6.37876
G1 X100.000 Y105.166 E6.41436
G1 X98.663 Y104.990 E6.44996
G1 X98.394 Y104.879 E6.45764
G1 X97.417 Y104.474 E6.48556
G1 X96.347 Y103.653 E6.52116
G1 X95.526 Y102.583 E6.55677
G1 X94.892 Y101.053 E6.60049
G1 X94.972 Y101.053 E6.60262
G1 X94.834 Y100.000 E6.63065
G1 X95.010 Y98.663 E6.66625
G1 X95.526 Y97.417 E6.70185
G1 X96.347 Y96.347 E6.73745
G1 X97.417 Y95.526 E6.77305
G1 X98.947 Y94.892 E6.81678
G1 X98.947 Y94.972 E6.81890
G1 X100.000 Y94.834 E6.84693
G1 X101.337 Y95.010 E6.88253
G1 X102.583 Y95.526 E6.91814
G1 X103.334 Y96.102 E6.94311
G1 X103.423 Y96.170 E6.94606
G1 X101.204 Y97.253 F7800.000
G1 X101.204 Y95.426 F1207.316 E6.99792
G1 X102.006 Y95.759 E7.02257
G1 X102.006 Y97.705 E7.07781
G1 X102.809 Y98.561 E7.11112
G1 X102.809 Y96.303 E7.17520
G1 X103.611 Y97.182 E7.20897
G1 X103.611 Y102.818 E7.36894
G1 X102.809 Y101.439 F7800.000
G1 X102.809 Y103.697 F1207.316 E7.43302
G1 X102.006 Y104.241 E7.46055
G1 X102.006 Y102.295 E7.51579
G1 X101.204 Y102.747 E7.54193
G1 X101.204 Y104.574 E7.59378
G1 X100.401 Y104.697 E7.61683
G1 X100.401 Y102.949 E7.66645
G1 X99.599 Y102.949 F7800.000
G1 X99.599 Y104.697 F1207.316 E7.71607
G1 X98.796 Y104.574 E7.73911
G1 X98.796 Y102.747 E7.79097
G1 X97.994 Y102.295 E7.81710
G1 X97.994 Y104.241 E7.87235
G1 X97.191 Y103.697 E7.89988
G1 X97.191 Y101.439 E7.96396
G1 X96.389 Y102.818 E8.00925
G1 X96.389 Y97.182 E8.16922
G1 X97.191 Y96.303 E8.20299
G1 X97.191 Y98.561 E8.26707
G1 X97.994 Y97.705 E8.30038
G1 X97.994 Y95.759 E8.35562
G1 X98.796 Y95.426 E8.38027
G1 X98.796 Y97.253 E8.43213
G1 X99.599 Y97.051 F7800.000
G1 X99.599 Y95.303 F1207.316 E8.48175
G1 X100.401 Y95.303 E8.50452
G1 X100.401 Y97.051 E8.55415
G1 X104.414 Y99.663 F7800.000
G1 X104.414 Y100.337 F1207.316 E8.57326
G1 X95.586 Y100.337 F7800.000
G1 X95.586 Y99.663 F1207.316 E8.59236
G1 Z0.750 F7800.000
G1 X97.427 Y99.911
G1 X97.504 Y99.331 F600.000 E8.60780
G1 X97.762 Y98.708 E8.62561
G1 X98.172 Y98.172 E8.64342
G1 X98.708 Y97.762 E8.66123
G1 X99.248 Y97.538 E8.67666
G1 X99.331 Y97.504 E8.67904
G1 X100.000 Y97.415 E8.69685
G1 X100.669 Y97.504 E8.71465
G1 X101.209 Y97.727 E8.73009
G1 X101.292 Y97.762 E8.73247
G1 X101.828 Y98.172 E8.75027
G1 X102.238 Y98.708 E8.76808
G1 X102.496 Y99.331 E8.78589
G1 X102.585 Y100.000 E8.80370
G1 X102.496 Y100.669 E8.82151
G1 X102.462 Y100.752 E8.82389
G1 X102.238 Y101.292 E8.83932
G1 X101.828 Y101.828 E8.85713
G1 X101.292 Y102.238 E8.87494
G1 X100.669 Y102.496 E8.89275
G1 X100.000 Y102.585 E8.91056
G1 X99.331 Y102.496 E8.92837
G1 X99.248 Y102.462 E8.93075
G1 X98.708 Y102.238 E8.94618
G1 X98.172 Y101.828 E8.96399
G1 X97.762 Y101.292 E8.98180
G1 X97.504 Y100.669 E8.99961
G1 X97.418 Y100.022 E9.01685
G1 X97.427 Y99.911 E9.01978
G1 X96.802 Y99.503 F7800.000
G1 X94.942 Y99.178
G1 X95.010 Y98.663 F600.000 E9.03351
G1 X95.526 Y97.417 E9.06911
G1 X96.347 Y96.347 E9.10471
G1 X97.417 Y95.526 E9.14031
G1 X98.663 Y95.010 E9.17591
G1 X100.000 Y94.834 E9.21152
G1 X101.337 Y95.010 E9.24712
G1 X102.103 Y95.327 E9.26900
G1 X102.583 Y95.526 E9.28272
G1 X103.653 Y96.347 E9.31832
G1 X104.474 Y97.417 E9.35392
G1 X104.792 Y98.183 E9.37580
G1 X104.990 Y98.663 E9.38952
G1 X105.166 Y100.000 E9.42513
G1 X104.990 Y101.337 E9.46073
G1 X104.474 Y102.583 E9.49633
G1 X103.653 Y103.653 E9.53193
G1 X102.583 Y104.474 E9.56753
G1 X101.337 Y104.990 E9.60314
G1 X100.000 Y105.166 E9.63874
G1 X98.663 Y104.990 E9.67434
G1 X98.183 Y104.792 E9.68806
G1 X97.417 Y104.474 E9.70994
G1 X96.347 Y103.653 E9.74554
G1 X95.526 Y102.583 E9.78115
