; generated by Slic3r 0.9.8 on 2013-07-03 at 16:25:16

; layer_height = .25
; perimeters = 1
; top_solid_layers = 4
; bottom_solid_layers = 4
; fill_density = .9
; perimeter_speed = 30
; infill_speed = 40
; travel_speed = 130
; scale = 1
; nozzle_diameter = 0.5
; filament_diameter = 3
; extrusion_multiplier = 1
; perimeters extrusion width = 0.80mm
; infill extrusion width = 0.80mm
; first layer extrusion width = 0.50mm

M107
M104 S220 ; set temperature
G28 ; home all axes
M109 S220 ; wait for temperature to be reached
G90 ; use absolute coordinates
G21 ; set units to millimeters
G92 E0
M82 ; use absolute distances for extrusion
G1 Z0.250 F7800.000
G1 X115.015 Y114.755
G1 X114.755 Y115.015 F900.000 E0.00650
G1 X114.205 Y115.485 E0.01930
G1 X111.295 Y117.725 E0.08424
G1 X110.685 Y118.145 E0.09733
G1 X110.035 Y118.495 E0.11039
G1 X109.695 Y118.645 E0.11696
G1 X106.305 Y120.045 E0.18182
G1 X105.965 Y120.175 E0.18826
G1 X105.265 Y120.385 E0.20118
G1 X104.555 Y120.515 E0.21394
G1 X100.915 Y120.995 E0.27887
G1 X100.175 Y121.055 E0.29200
G1 X99.445 Y121.035 E0.30491
G1 X99.075 Y120.995 E0.31149
G1 X95.435 Y120.515 E0.37642
G1 X94.725 Y120.385 E0.38919
G1 X94.025 Y120.175 E0.40211
G1 X93.685 Y120.045 E0.40855
G1 X90.295 Y118.645 E0.47341
G1 X89.955 Y118.495 E0.47998
G1 X89.305 Y118.145 E0.49303
G1 X88.695 Y117.725 E0.50613
G1 X85.785 Y115.485 E0.57107
G1 X85.235 Y115.015 E0.58386
G1 X84.975 Y114.755 E0.59037
G1 X84.505 Y114.205 E0.60316
G1 X82.265 Y111.295 E0.66810
G1 X81.845 Y110.685 E0.68120
G1 X81.495 Y110.035 E0.69425
G1 X81.345 Y109.695 E0.70082
G1 X79.945 Y106.305 E0.76568
G1 X79.815 Y105.965 E0.77212
G1 X79.605 Y105.265 E0.78504
G1 X79.475 Y104.555 E0.79781
G1 X78.995 Y100.915 E0.86273
G1 X78.935 Y100.175 E0.87586
G1 X78.955 Y99.445 E0.88878
G1 X78.995 Y99.075 E0.89536
G1 X79.475 Y95.435 E0.96028
G1 X79.605 Y94.725 E0.97305
G1 X79.815 Y94.035 E0.98580
G1 X79.945 Y93.695 E0.99224
G1 X81.295 Y90.405 E1.05513
G1 X81.705 Y89.555 E1.07182
G1 X81.875 Y89.265 E1.07776
G1 X82.265 Y88.695 E1.08997
G1 X84.735 Y85.505 E1.16132
G1 X85.235 Y84.975 E1.17420
G1 X85.785 Y84.505 E1.18700
G1 X88.695 Y82.265 E1.25194
G1 X89.305 Y81.845 E1.26504
G1 X89.955 Y81.495 E1.27809
G1 X90.295 Y81.345 E1.28466
G1 X93.985 Y79.825 E1.35524
G1 X94.615 Y79.635 E1.36687
G1 X95.245 Y79.505 E1.37825
G1 X95.705 Y79.435 E1.38648
G1 X99.095 Y78.995 E1.44693
G1 X99.825 Y78.935 E1.45988
G1 X100.185 Y78.935 E1.46625
G1 X100.915 Y78.995 E1.47920
G1 X104.555 Y79.475 E1.54413
G1 X105.265 Y79.605 E1.55689
G1 X105.965 Y79.815 E1.56981
G1 X106.305 Y79.945 E1.57625
G1 X109.695 Y81.345 E1.64111
G1 X110.035 Y81.495 E1.64768
G1 X110.685 Y81.845 E1.66074
G1 X111.295 Y82.265 E1.67383
G1 X114.205 Y84.505 E1.73877
G1 X114.755 Y84.975 E1.75157
G1 X115.015 Y85.235 E1.75807
G1 X115.485 Y85.785 E1.77086
G1 X117.725 Y88.695 E1.83580
G1 X118.145 Y89.305 E1.84890
G1 X118.495 Y89.955 E1.86195
G1 X118.645 Y90.295 E1.86853
G1 X120.045 Y93.685 E1.93339
G1 X120.175 Y94.025 E1.93982
G1 X120.385 Y94.725 E1.95275
G1 X120.515 Y95.435 E1.96551
G1 X120.995 Y99.075 E2.03044
G1 X121.055 Y99.815 E2.04357
G1 X121.035 Y100.545 E2.05648
G1 X120.995 Y100.915 E2.06306
G1 X120.515 Y104.555 E2.12799
G1 X120.385 Y105.265 E2.14075
G1 X120.175 Y105.965 E2.15368
G1 X120.045 Y106.305 E2.16011
G1 X118.645 Y109.695 E2.22497
G1 X118.495 Y110.035 E2.23154
G1 X118.145 Y110.685 E2.24460
G1 X117.725 Y111.295 E2.25770
G1 X115.485 Y114.205 E2.32264
G1 X115.065 Y114.699 E2.33410
G1 X115.015 Y114.755 E2.33543
G1 X114.645 Y114.415 F7800.000
G1 X114.165 Y114.875 F900.000 E2.34719
G1 X110.715 Y117.525 E2.42412
G1 X110.125 Y117.885 E2.43634
G1 X109.825 Y118.045 E2.44235
G1 X109.505 Y118.185 E2.44853
G1 X106.115 Y119.585 E2.51339
G1 X105.795 Y119.705 E2.51943
G1 X105.155 Y119.895 E2.53124
G1 X104.485 Y120.015 E2.54327
G1 X100.845 Y120.495 E2.60820
G1 X100.165 Y120.555 E2.62027
G1 X99.825 Y120.555 E2.62629
G1 X99.145 Y120.495 E2.63836
G1 X95.175 Y119.965 E2.70919
G1 X94.515 Y119.805 E2.72119
G1 X93.875 Y119.585 E2.73316
G1 X90.485 Y118.185 E2.79802
G1 X90.165 Y118.045 E2.80420
G1 X89.565 Y117.715 E2.81631
G1 X89.005 Y117.325 E2.82838
G1 X85.825 Y114.875 E2.89936
G1 X85.575 Y114.645 E2.90537
G1 X85.115 Y114.165 E2.91713
G1 X82.465 Y110.715 E2.99406
G1 X82.105 Y110.125 E3.00628
G1 X81.945 Y109.825 E3.01229
G1 X81.805 Y109.505 E3.01847
G1 X80.405 Y106.115 E3.08333
G1 X80.285 Y105.795 E3.08937
G1 X80.095 Y105.155 E3.10118
G1 X79.975 Y104.485 E3.11322
G1 X79.495 Y100.845 E3.17814
G1 X79.435 Y100.165 E3.19021
G1 X79.435 Y99.825 E3.19623
G1 X79.495 Y99.145 E3.20830
G1 X80.025 Y95.175 E3.27913
G1 X80.185 Y94.515 E3.29114
G1 X80.405 Y93.885 E3.30294
G1 X81.755 Y90.605 E3.36566
G1 X81.985 Y90.085 E3.37572
G1 X82.295 Y89.525 E3.38703
G1 X82.665 Y89.005 E3.39832
G1 X84.905 Y86.095 E3.46326
G1 X85.115 Y85.825 E3.46931
G1 X85.345 Y85.575 E3.47532
G1 X85.825 Y85.115 E3.48707
G1 X89.275 Y82.465 E3.56400
G1 X89.865 Y82.105 E3.57623
G1 X90.165 Y81.945 E3.58224
G1 X90.485 Y81.805 E3.58841
G1 X93.875 Y80.405 E3.65327
G1 X94.155 Y80.295 E3.65859
G1 X94.735 Y80.125 E3.66928
G1 X95.325 Y79.995 E3.67997
G1 X95.765 Y79.925 E3.68784
G1 X99.155 Y79.485 E3.74830
G1 X99.835 Y79.435 E3.76035
G1 X100.175 Y79.435 E3.76637
G1 X100.845 Y79.495 E3.77826
G1 X104.815 Y80.025 E3.84909
G1 X105.475 Y80.185 E3.86110
G1 X106.115 Y80.405 E3.87307
G1 X109.505 Y81.805 E3.93793
G1 X109.825 Y81.945 E3.94410
G1 X110.425 Y82.275 E3.95621
G1 X110.985 Y82.665 E3.96828
G1 X114.165 Y85.115 E4.03927
G1 X114.415 Y85.345 E4.04528
G1 X114.875 Y85.825 E4.05703
G1 X117.525 Y89.275 E4.13396
G1 X117.885 Y89.865 E4.14619
G1 X118.045 Y90.165 E4.15220
G1 X118.185 Y90.485 E4.15837
G1 X119.585 Y93.875 E4.22323
G1 X119.705 Y94.195 E4.22928
G1 X119.895 Y94.835 E4.24108
G1 X120.015 Y95.505 E4.25312
G1 X120.495 Y99.145 E4.31805
G1 X120.555 Y99.825 E4.33012
G1 X120.555 Y100.165 E4.33613
G1 X120.495 Y100.845 E4.34820
G1 X119.965 Y104.815 E4.41903
G1 X119.805 Y105.475 E4.43104
G1 X119.585 Y106.115 E4.44301
G1 X118.185 Y109.505 E4.50787
G1 X118.045 Y109.825 E4.51404
G1 X117.715 Y110.425 E4.52615
G1 X117.325 Y110.985 E4.53822
G1 X114.875 Y114.165 E4.60921
G1 X114.696 Y114.360 E4.61389
G1 X114.645 Y114.415 E4.61522
G1 X102.078 Y102.078 F7800.000
G1 X101.470 Y102.545 F300.000 E4.62879
G1 X100.761 Y102.839 E4.64236
G1 X100.000 Y102.939 E4.65592
G1 X99.239 Y102.839 E4.66949
G1 X98.530 Y102.545 E4.68306
G1 X97.922 Y102.078 E4.69663
G1 X97.455 Y101.470 E4.71020
G1 X97.161 Y100.761 E4.72377
G1 X97.061 Y100.000 E4.73734
G1 X97.161 Y99.239 E4.75091
G1 X97.455 Y98.530 E4.76448
G1 X97.922 Y97.922 E4.77805
G1 X98.530 Y97.455 E4.79161
G1 X99.239 Y97.161 E4.80518
G1 X100.000 Y97.061 E4.81875
G1 X100.761 Y97.161 E4.83232
G1 X101.470 Y97.455 E4.84589
G1 X102.078 Y97.922 E4.85946
G1 X102.545 Y98.530 E4.87303
G1 X102.839 Y99.239 E4.88660
G1 X102.939 Y100.000 E4.90017
G1 X102.839 Y100.761 E4.91373
G1 X102.545 Y101.470 E4.92730
G1 X102.124 Y102.019 E4.93955
G1 X102.078 Y102.078 E4.94087
G1 X101.722 Y101.722 F7800.000
G1 X101.217 Y102.109 F300.000 E4.95211
G1 X100.630 Y102.352 E4.96335
G1 X100.000 Y102.435 E4.97460
G1 X99.370 Y102.352 E4.98584
G1 X98.783 Y102.109 E4.99708
G1 X98.278 Y101.722 E5.00832
G1 X97.891 Y101.217 E5.01956
G1 X97.648 Y100.630 E5.03080
G1 X97.565 Y100.000 E5.04204
G1 X97.648 Y99.370 E5.05328
G1 X97.891 Y98.783 E5.06452
G1 X98.278 Y98.278 E5.07576
G1 X98.783 Y97.891 E5.08700
G1 X99.370 Y97.648 E5.09824
G1 X100.000 Y97.565 E5.10949
G1 X100.630 Y97.648 E5.12073
G1 X101.217 Y97.891 E5.13197
G1 X101.722 Y98.278 E5.14321
G1 X102.109 Y98.783 E5.15445
G1 X102.352 Y99.370 E5.16569
G1 X102.435 Y100.000 E5.17693
G1 X102.352 Y100.630 E5.18817
G1 X102.109 Y101.217 E5.19941
G1 X101.767 Y101.662 E5.20933
G1 X101.722 Y101.722 E5.21065
G1 X101.830 Y102.210 F7800.000
G1 X109.439 Y109.701
G1 X106.779 Y111.742 F900.000 E5.26995
G1 X103.509 Y113.096 E5.33254
G1 X100.000 Y113.558 E5.39513
G1 X96.491 Y113.096 E5.45772
G1 X93.221 Y111.742 E5.52031
G1 X90.413 Y109.587 E5.58291
G1 X88.258 Y106.779 E5.64550
G1 X86.904 Y103.509 E5.70809
G1 X86.442 Y100.000 E5.77068
G1 X86.904 Y96.491 E5.83327
G1 X88.258 Y93.221 E5.89586
G1 X90.413 Y90.413 E5.95845
G1 X93.221 Y88.258 E6.02105
G1 X96.491 Y86.904 E6.08364
G1 X96.676 Y86.879 E6.08693
G1 X100.000 Y86.442 E6.14623
G1 X103.509 Y86.904 E6.20882
G1 X106.779 Y88.258 E6.27141
G1 X109.587 Y90.413 E6.33400
G1 X111.742 Y93.221 E6.39659
G1 X113.096 Y96.491 E6.45919
G1 X113.534 Y99.815 E6.51848
G1 X113.558 Y100.000 E6.52178
G1 X113.096 Y103.509 E6.58437
G1 X111.742 Y106.779 E6.64696
G1 X109.587 Y109.587 E6.70955
G1 X109.499 Y109.655 E6.71152
G1 X109.439 Y109.701 E6.71285
G1 X109.744 Y110.097 F7800.000
G1 X107.031 Y112.179 F900.000 E6.77331
G1 X103.640 Y113.584 E6.83823
G1 X100.000 Y114.063 E6.90315
G1 X96.360 Y113.584 E6.96806
G1 X92.969 Y112.179 E7.03298
G1 X90.056 Y109.944 E7.09790
G1 X87.821 Y107.031 E7.16282
G1 X86.416 Y103.640 E7.22774
G1 X85.937 Y100.000 E7.29266
G1 X86.416 Y96.360 E7.35758
G1 X87.821 Y92.969 E7.42250
G1 X90.056 Y90.056 E7.48742
G1 X92.969 Y87.821 E7.55234
G1 X96.360 Y86.416 E7.61726
G1 X96.610 Y86.384 E7.62172
G1 X100.000 Y85.937 E7.68218
G1 X103.640 Y86.416 E7.74710
G1 X107.031 Y87.821 E7.81202
G1 X109.944 Y90.056 E7.87694
G1 X112.179 Y92.969 E7.94186
G1 X113.584 Y96.360 E8.00678
G1 X114.030 Y99.750 E8.06724
G1 X114.063 Y100.000 E8.07170
G1 X113.584 Y103.640 E8.13662
G1 X112.179 Y107.031 E8.20154
G1 X109.944 Y109.944 E8.26645
G1 X109.803 Y110.052 E8.26959
G1 X109.744 Y110.097 E8.27091
G1 X109.282 Y109.906 F7800.000
G1 X100.226 Y113.054
G1 X99.774 Y113.054 F1500.000 E8.27893
G1 X96.258 Y112.552 F7800.000
G1 X103.742 Y112.552 F1500.000 E8.41184
G1 X104.954 Y112.050 E8.43513
G1 X95.046 Y112.050 E8.61109
G1 X93.834 Y111.548 E8.63439
G1 X106.166 Y111.548 E8.85339
G1 X107.108 Y111.046 E8.87233
G1 X92.910 Y111.046 E9.12445
G1 X92.255 Y110.544 E9.13910
G1 X107.757 Y110.544 E9.41437
G1 X108.407 Y110.042 E9.42895
G1 X91.601 Y110.042 E9.72738
G1 X90.947 Y109.540 E9.74202
G1 X109.056 Y109.540 E10.06360
G1 X109.604 Y109.037 E10.07680
G1 X90.396 Y109.037 E10.41788
G1 X90.011 Y108.535 E10.42912
G1 X109.989 Y108.535 E10.78389
G1 X110.375 Y108.033 E10.79513
G1 X89.625 Y108.033 E11.16358
G1 X89.240 Y107.531 E11.17482
G1 X110.760 Y107.531 E11.55695
G1 X111.145 Y107.029 E11.56819
G1 X88.855 Y107.029 E11.96401
G1 X88.470 Y106.527 E11.97525
G1 X111.530 Y106.527 E12.38474
G1 X111.738 Y106.025 E12.39440
G1 X88.262 Y106.025 E12.81128
G1 X88.054 Y105.523 E12.82093
G1 X111.946 Y105.523 E13.24520
G1 X112.154 Y105.021 E13.25485
G1 X87.846 Y105.021 E13.68651
G1 X87.638 Y104.519 E13.69616
G1 X112.362 Y104.519 E14.13521
G1 X112.570 Y104.017 E14.14485
G1 X87.430 Y104.017 E14.59128
G1 X87.222 Y103.515 E14.60093
G1 X112.778 Y103.515 E15.05475
G1 X112.883 Y103.012 E15.06385
G1 X101.424 Y103.012 E15.26734
G1 X102.112 Y102.510 E15.28246
G1 X112.949 Y102.510 E15.47491
G1 X113.015 Y102.008 E15.48390
G1 X102.537 Y102.008 E15.66995
G1 X102.846 Y101.506 E15.68042
G1 X113.081 Y101.506 E15.86216
G1 X113.147 Y101.004 E15.87116
G1 X103.054 Y101.004 E16.05038
G1 X103.152 Y100.502 E16.05946
G1 X113.213 Y100.502 E16.23811
G1 X113.279 Y100.000 E16.24711
G1 X103.219 Y100.000 E16.42576
G1 X103.152 Y99.498 E16.43475
G1 X113.213 Y99.498 E16.61340
G1 X113.147 Y98.996 E16.62240
G1 X103.054 Y98.996 E16.80161
G1 X102.846 Y98.494 E16.81126
G1 X113.081 Y98.494 E16.99300
G1 X113.015 Y97.992 E17.00200
G1 X102.537 Y97.992 E17.18805
G1 X102.112 Y97.490 E17.19974
G1 X112.949 Y97.490 E17.39218
G1 X112.883 Y96.987 E17.40118
G1 X101.424 Y96.987 E17.60466
G1 X98.577 Y96.987 F7800.000
G1 X87.117 Y96.987 F1500.000 E17.80815
G1 X87.051 Y97.490 E17.81714
G1 X97.889 Y97.490 E18.00958
G1 X97.463 Y97.992 E18.02127
G1 X86.985 Y97.992 E18.20733
G1 X86.919 Y98.494 E18.21632
G1 X97.154 Y98.494 E18.39806
G1 X96.946 Y98.996 E18.40771
G1 X86.853 Y98.996 E18.58693
G1 X86.787 Y99.498 E18.59592
G1 X96.848 Y99.498 E18.77457
G1 X96.782 Y100.000 E18.78356
G1 X86.721 Y100.000 E18.96222
G1 X86.787 Y100.502 E18.97121
G1 X96.848 Y100.502 E19.14986
G1 X96.946 Y101.004 E19.15895
G1 X86.853 Y101.004 E19.33817
G1 X86.919 Y101.506 E19.34716
G1 X97.154 Y101.506 E19.52890
G1 X97.463 Y102.008 E19.53937
G1 X86.985 Y102.008 E19.72542
G1 X87.051 Y102.510 E19.73441
G1 X97.889 Y102.510 E19.92685
G1 X98.577 Y103.012 E19.94198
G1 X87.117 Y103.012 E20.14546
G1 X87.222 Y96.485 F7800.000
G1 X112.778 Y96.485 F1500.000 E20.59928
G1 X112.570 Y95.983 E20.60893
G1 X87.430 Y95.983 E21.05536
G1 X87.638 Y95.481 E21.06501
G1 X112.362 Y95.481 E21.50405
G1 X112.154 Y94.979 E21.51370
G1 X87.846 Y94.979 E21.94536
G1 X88.054 Y94.477 E21.95501
G1 X111.946 Y94.477 E22.37928
G1 X111.738 Y93.975 E22.38893
G1 X88.262 Y93.975 E22.80582
G1 X88.470 Y93.473 E22.81546
G1 X111.530 Y93.473 E23.22496
G1 X111.145 Y92.971 E23.23620
G1 X88.855 Y92.971 E23.63202
G1 X89.240 Y92.469 E23.64326
G1 X110.760 Y92.469 E24.02539
G1 X110.375 Y91.967 E24.03663
G1 X89.625 Y91.967 E24.40508
G1 X90.011 Y91.465 E24.41632
G1 X109.989 Y91.465 E24.77109
G1 X109.604 Y90.962 E24.78233
G1 X90.396 Y90.962 E25.12342
G1 X90.947 Y90.460 E25.13665
G1 X109.053 Y90.460 E25.45818
G1 X108.399 Y89.958 E25.47282
G1 X91.601 Y89.958 E25.77111
G1 X92.255 Y89.456 E25.78576
G1 X107.745 Y89.456 E26.06081
G1 X107.090 Y88.954 E26.07545
G1 X92.910 Y88.954 E26.32727
G1 X93.834 Y88.452 E26.34594
G1 X106.166 Y88.452 E26.56494
G1 X104.954 Y87.950 E26.58824
G1 X95.046 Y87.950 E26.76419
G1 X96.258 Y87.448 E26.78749
G1 X103.742 Y87.448 E26.92039
G1 X100.226 Y86.946 F7800.000
G1 X99.774 Y86.946 F1500.000 E26.92841
M106 S239
G1 Z0.500 F7800.000
G1 X100.000 Y97.414
G1 X100.669 Y97.502 F600.000 E26.94623
G1 X101.293 Y97.760 E26.96405
G1 X101.829 Y98.171 E26.98187
G1 X102.240 Y98.707 E26.99970
G1 X102.498 Y99.331 E27.01752
G1 X102.586 Y100.000 E27.03534
G1 X102.498 Y100.669 E27.05316
G1 X102.472 Y100.733 E27.05497
G1 X102.240 Y101.293 E27.07098
G1 X101.829 Y101.829 E27.08880
G1 X101.293 Y102.240 E27.10663
G1 X100.669 Y102.498 E27.12445
G1 X100.000 Y102.586 E27.14227
G1 X99.399 Y102.507 E27.15828
G1 X99.331 Y102.498 E27.16009
G1 X98.707 Y102.240 E27.17791
G1 X98.171 Y101.829 E27.19574
G1 X98.130 Y101.774 E27.19754
G1 X97.760 Y101.293 E27.21356
G1 X97.502 Y100.669 E27.23138
G1 X97.414 Y100.000 E27.24920
G1 X97.502 Y99.331 E27.26702
G1 X97.760 Y98.707 E27.28484
G1 X98.171 Y98.171 E27.30267
G1 X98.707 Y97.760 E27.32049
G1 X99.331 Y97.502 E27.33831
G1 X99.889 Y97.428 E27.35318
G1 X100.000 Y97.414 E27.35613
G1 X100.401 Y96.784 F7800.000
G1 X100.362 Y86.136
G1 X103.601 Y86.563 F1800.000 E27.44236
G1 X106.956 Y87.952 E27.53823
G1 X109.837 Y90.163 E27.63409
G1 X112.048 Y93.044 E27.72995
G1 X113.437 Y96.399 E27.82581
G1 X113.911 Y100.000 E27.92168
G1 X113.437 Y103.601 E28.01754
G1 X112.362 Y106.197 E28.09173
G1 X112.048 Y106.956 E28.11340
G1 X109.837 Y109.837 E28.20927
G1 X106.956 Y112.048 E28.30513
G1 X106.197 Y112.362 E28.32680
G1 X103.601 Y113.437 E28.40099
G1 X100.000 Y113.911 E28.49685
G1 X96.399 Y113.437 E28.59272
G1 X93.044 Y112.048 E28.68858
G1 X90.163 Y109.837 E28.78444
G1 X87.952 Y106.956 E28.88030
G1 X86.877 Y104.359 E28.95450
G1 X86.563 Y103.601 E28.97617
G1 X86.089 Y100.000 E29.07203
G1 X86.563 Y96.399 E29.16789
G1 X87.638 Y93.803 E29.24209
G1 X87.952 Y93.044 E29.26376
G1 X90.163 Y90.163 E29.35962
G1 X93.044 Y87.952 E29.45548
G1 X96.399 Y86.563 E29.55134
G1 X100.000 Y86.089 E29.64721
G1 X100.251 Y86.122 E29.65388
G1 X100.362 Y86.136 E29.65684
G1 X113.159 Y99.663 F7800.000
G1 X113.159 Y100.337 F3000.000 E29.67474
G1 X112.407 Y104.475 F7800.000
G1 X112.407 Y95.525 F3000.000 E29.91274
