; generated by Slic3r 0.9.8 on 2013-07-03 at 19:37:14

; layer_height = .25
; perimeters = 1
; top_solid_layers = 4
; bottom_solid_layers = 4
; fill_density = .9
; perimeter_speed = 30
; infill_speed = 40
; travel_speed = 130
; scale = 1
; nozzle_diameter = 0.5
; filament_diameter = 3
; extrusion_multiplier = 1
; perimeters extrusion width = 0.80mm
; infill extrusion width = 0.80mm
; first layer extrusion width = 0.50mm

M107
M104 S220 ; set temperature
G28 ; home all axes
M109 S220 ; wait for temperature to be reached
G90 ; use absolute coordinates
G21 ; set units to millimeters
G92 E0
M82 ; use absolute distances for extrusion
G1 Z0.250 F7800.000
G1 X115.015 Y114.755
G1 X114.755 Y115.015 F900.000 E0.00650
G1 X114.205 Y115.485 E0.01930
G1 X111.295 Y117.725 E0.08424
G1 X110.685 Y118.145 E0.09733
G1 X110.035 Y118.495 E0.11039
G1 X109.695 Y118.645 E0.11696
G1 X106.305 Y120.045 E0.18182
G1 X105.965 Y120.175 E0.18826
G1 X105.265 Y120.385 E0.20118
G1 X104.555 Y120.515 E0.21394
G1 X100.915 Y120.995 E0.27887
G1 X100.175 Y121.055 E0.29200
G1 X99.445 Y121.035 E0.30491
G1 X99.075 Y120.995 E0.31149
G1 X95.435 Y120.515 E0.37642
G1 X94.725 Y120.385 E0.38919
G1 X94.025 Y120.175 E0.40211
G1 X93.685 Y120.045 E0.40855
G1 X90.295 Y118.645 E0.47341
G1 X89.955 Y118.495 E0.47998
G1 X89.305 Y118.145 E0.49303
G1 X88.695 Y117.725 E0.50613
G1 X85.785 Y115.485 E0.57107
G1 X85.235 Y115.015 E0.58386
G1 X84.975 Y114.755 E0.59037
G1 X84.505 Y114.205 E0.60316
G1 X82.265 Y111.295 E0.66810
G1 X81.845 Y110.685 E0.68120
G1 X81.495 Y110.035 E0.69425
G1 X81.345 Y109.695 E0.70082
G1 X79.945 Y106.305 E0.76568
G1 X79.815 Y105.965 E0.77212
G1 X79.605 Y105.265 E0.78504
G1 X79.475 Y104.555 E0.79781
G1 X78.995 Y100.915 E0.86273
G1 X78.935 Y100.175 E0.87586
G1 X78.955 Y99.445 E0.88878
G1 X78.995 Y99.075 E0.89536
G1 X79.475 Y95.435 E0.96028
G1 X79.605 Y94.725 E0.97305
G1 X79.815 Y94.025 E0.98597
G1 X79.945 Y93.685 E0.99241
G1 X81.345 Y90.295 E1.05727
G1 X81.495 Y89.955 E1.06384
G1 X81.845 Y89.305 E1.07690
G1 X82.265 Y88.695 E1.08999
G1 X84.735 Y85.505 E1.16134
G1 X85.235 Y84.975 E1.17422
G1 X85.785 Y84.505 E1.18702
G1 X88.695 Y82.265 E1.25196
G1 X89.305 Y81.845 E1.26505
G1 X89.955 Y81.495 E1.27811
G1 X90.295 Y81.345 E1.28468
G1 X93.685 Y79.945 E1.34954
G1 X94.315 Y79.715 E1.36140
G1 X94.635 Y79.625 E1.36728
G1 X95.555 Y79.455 E1.38382
G1 X99.095 Y78.995 E1.44695
G1 X99.815 Y78.935 E1.45973
G1 X100.185 Y78.935 E1.46627
G1 X100.915 Y78.995 E1.47922
G1 X104.555 Y79.475 E1.54415
G1 X105.265 Y79.605 E1.55691
G1 X105.965 Y79.815 E1.56984
G1 X106.305 Y79.945 E1.57627
G1 X109.695 Y81.345 E1.64113
G1 X110.035 Y81.495 E1.64771
G1 X110.685 Y81.845 E1.66076
G1 X111.295 Y82.265 E1.67386
G1 X114.205 Y84.505 E1.73880
G1 X114.755 Y84.975 E1.75159
G1 X115.015 Y85.235 E1.75809
G1 X115.485 Y85.785 E1.77089
G1 X117.725 Y88.695 E1.83583
G1 X118.145 Y89.305 E1.84892
G1 X118.495 Y89.955 E1.86198
G1 X118.645 Y90.295 E1.86855
G1 X120.045 Y93.685 E1.93341
G1 X120.175 Y94.025 E1.93985
G1 X120.385 Y94.725 E1.95277
G1 X120.515 Y95.435 E1.96553
G1 X120.995 Y99.075 E2.03046
G1 X121.055 Y99.815 E2.04359
G1 X121.035 Y100.545 E2.05650
G1 X120.995 Y100.915 E2.06309
G1 X120.515 Y104.555 E2.12801
G1 X120.385 Y105.265 E2.14078
G1 X120.175 Y105.965 E2.15370
G1 X120.045 Y106.305 E2.16014
G1 X118.645 Y109.695 E2.22500
G1 X118.495 Y110.035 E2.23157
G1 X118.145 Y110.685 E2.24462
G1 X117.725 Y111.295 E2.25772
G1 X115.485 Y114.205 E2.32266
G1 X115.065 Y114.699 E2.33413
G1 X115.015 Y114.755 E2.33545
G1 X114.645 Y114.415 F7800.000
G1 X114.165 Y114.875 F900.000 E2.34721
G1 X110.715 Y117.525 E2.42414
G1 X110.125 Y117.885 E2.43636
G1 X109.825 Y118.045 E2.44238
G1 X109.505 Y118.185 E2.44855
G1 X106.115 Y119.585 E2.51341
G1 X105.795 Y119.705 E2.51946
G1 X105.155 Y119.895 E2.53126
G1 X104.485 Y120.015 E2.54330
G1 X100.845 Y120.495 E2.60823
G1 X100.165 Y120.555 E2.62030
G1 X99.825 Y120.555 E2.62631
G1 X99.145 Y120.495 E2.63838
G1 X95.175 Y119.965 E2.70921
G1 X94.515 Y119.805 E2.72122
G1 X93.875 Y119.585 E2.73319
G1 X90.485 Y118.185 E2.79805
G1 X90.165 Y118.045 E2.80422
G1 X89.565 Y117.715 E2.81633
G1 X89.005 Y117.325 E2.82840
G1 X85.825 Y114.875 E2.89939
G1 X85.575 Y114.645 E2.90540
G1 X85.115 Y114.165 E2.91715
G1 X82.465 Y110.715 E2.99408
G1 X82.105 Y110.125 E3.00630
G1 X81.945 Y109.825 E3.01232
G1 X81.805 Y109.505 E3.01849
G1 X80.405 Y106.115 E3.08335
G1 X80.285 Y105.795 E3.08940
G1 X80.095 Y105.155 E3.10120
G1 X79.975 Y104.485 E3.11324
G1 X79.495 Y100.845 E3.17817
G1 X79.435 Y100.165 E3.19024
G1 X79.435 Y99.825 E3.19625
G1 X79.495 Y99.145 E3.20832
G1 X80.025 Y95.175 E3.27915
G1 X80.185 Y94.515 E3.29116
G1 X80.405 Y93.875 E3.30313
G1 X81.805 Y90.485 E3.36799
G1 X81.945 Y90.165 E3.37416
G1 X82.275 Y89.565 E3.38627
G1 X82.665 Y89.005 E3.39834
G1 X85.115 Y85.825 E3.46933
G1 X85.345 Y85.575 E3.47534
G1 X85.825 Y85.115 E3.48709
G1 X89.275 Y82.465 E3.56402
G1 X89.865 Y82.105 E3.57625
G1 X90.165 Y81.945 E3.58226
G1 X90.485 Y81.805 E3.58844
G1 X93.875 Y80.405 E3.65329
G1 X94.455 Y80.195 E3.66420
G1 X94.755 Y80.115 E3.66969
G1 X95.775 Y79.925 E3.68804
G1 X99.155 Y79.485 E3.74832
G1 X99.835 Y79.435 E3.76037
G1 X100.505 Y79.455 E3.77223
G1 X100.845 Y79.495 E3.77828
G1 X104.815 Y80.025 E3.84911
G1 X105.475 Y80.185 E3.86112
G1 X106.115 Y80.405 E3.87309
G1 X109.505 Y81.805 E3.93795
G1 X109.825 Y81.945 E3.94412
G1 X110.425 Y82.275 E3.95623
G1 X110.985 Y82.665 E3.96830
G1 X114.165 Y85.115 E4.03929
G1 X114.415 Y85.345 E4.04530
G1 X114.875 Y85.825 E4.05705
G1 X117.525 Y89.275 E4.13398
G1 X117.885 Y89.865 E4.14621
G1 X118.045 Y90.165 E4.15222
G1 X118.185 Y90.485 E4.15840
G1 X119.585 Y93.875 E4.22325
G1 X119.705 Y94.195 E4.22930
G1 X119.895 Y94.835 E4.24110
G1 X120.015 Y95.505 E4.25314
G1 X120.495 Y99.145 E4.31807
G1 X120.555 Y99.825 E4.33014
G1 X120.555 Y100.165 E4.33615
G1 X120.495 Y100.845 E4.34822
G1 X119.965 Y104.815 E4.41905
G1 X119.805 Y105.475 E4.43106
G1 X119.585 Y106.115 E4.44303
G1 X118.185 Y109.505 E4.50789
G1 X118.045 Y109.825 E4.51406
G1 X117.715 Y110.425 E4.52617
G1 X117.325 Y110.985 E4.53824
G1 X114.875 Y114.165 E4.60923
G1 X114.696 Y114.360 E4.61391
G1 X114.645 Y114.415 E4.61524
G1 X103.624 Y103.624 F7800.000
G1 X102.563 Y104.439 F300.000 E4.63890
G1 X101.501 Y104.879 E4.65923
G1 X101.327 Y104.951 E4.66256
G1 X100.000 Y105.126 E4.68622
G1 X98.673 Y104.951 E4.70988
G1 X97.437 Y104.439 E4.73355
G1 X96.525 Y103.739 E4.75387
G1 X96.376 Y103.624 E4.75721
G1 X95.561 Y102.563 E4.78087
G1 X95.049 Y101.327 E4.80453
G1 X94.874 Y100.000 E4.82819
G1 X95.049 Y98.673 E4.85185
G1 X95.561 Y97.437 E4.87552
G1 X96.376 Y96.376 E4.89918
G1 X97.288 Y95.676 E4.91950
G1 X97.437 Y95.561 E4.92284
G1 X98.673 Y95.049 E4.94650
G1 X100.000 Y94.874 E4.97016
G1 X101.327 Y95.049 E4.99382
G1 X102.563 Y95.561 E5.01748
G1 X103.624 Y96.376 E5.04115
G1 X103.739 Y96.525 E5.04448
G1 X104.439 Y97.437 E5.06481
G1 X104.951 Y98.673 E5.08847
G1 X105.126 Y100.000 E5.11213
G1 X104.951 Y101.327 E5.13579
G1 X104.439 Y102.563 E5.15945
G1 X103.670 Y103.565 E5.18179
G1 X103.624 Y103.624 E5.18312
G1 X103.268 Y103.268 F7800.000
G1 X102.311 Y104.002 F300.000 E5.20445
G1 X101.309 Y104.417 E5.22361
G1 X101.196 Y104.464 E5.22578
G1 X100.000 Y104.621 E5.24712
G1 X98.804 Y104.464 E5.26845
G1 X97.689 Y104.002 E5.28978
G1 X96.830 Y103.342 E5.30895
G1 X96.732 Y103.268 E5.31112
G1 X95.998 Y102.311 E5.33245
G1 X95.536 Y101.196 E5.35378
G1 X95.379 Y100.000 E5.37512
G1 X95.536 Y98.804 E5.39645
G1 X95.998 Y97.689 E5.41778
G1 X96.732 Y96.732 E5.43912
G1 X97.689 Y95.998 E5.46045
G1 X98.804 Y95.536 E5.48178
G1 X100.000 Y95.379 E5.50312
G1 X101.196 Y95.536 E5.52445
G1 X102.311 Y95.998 E5.54578
G1 X103.268 Y96.732 E5.56712
G1 X103.342 Y96.830 E5.56929
G1 X104.002 Y97.689 E5.58845
G1 X104.464 Y98.804 E5.60978
G1 X104.621 Y100.000 E5.63112
G1 X104.464 Y101.196 E5.65245
G1 X104.002 Y102.311 E5.67378
G1 X103.313 Y103.208 E5.69379
G1 X103.268 Y103.268 E5.69512
G1 X103.376 Y103.756 F7800.000
G1 X109.432 Y109.706
G1 X106.779 Y111.742 F900.000 E5.75425
G1 X103.509 Y113.096 E5.81684
G1 X100.000 Y113.558 E5.87943
G1 X96.491 Y113.096 E5.94203
G1 X93.221 Y111.742 E6.00462
G1 X90.413 Y109.587 E6.06721
G1 X88.258 Y106.779 E6.12980
G1 X86.904 Y103.509 E6.19239
G1 X86.442 Y100.000 E6.25498
G1 X86.904 Y96.491 E6.31757
G1 X88.258 Y93.221 E6.38017
G1 X90.413 Y90.413 E6.44276
G1 X93.221 Y88.258 E6.50535
G1 X93.401 Y88.183 E6.50881
G1 X96.491 Y86.904 E6.56794
G1 X100.000 Y86.442 E6.63053
G1 X103.509 Y86.904 E6.69312
G1 X106.779 Y88.258 E6.75571
G1 X109.587 Y90.413 E6.81831
G1 X111.742 Y93.221 E6.88090
G1 X113.022 Y96.310 E6.94003
G1 X113.096 Y96.491 E6.94349
G1 X113.558 Y100.000 E7.00608
G1 X113.096 Y103.509 E7.06867
G1 X111.742 Y106.779 E7.13126
G1 X109.587 Y109.587 E7.19385
G1 X109.492 Y109.661 E7.19598
G1 X109.432 Y109.706 E7.19731
G1 X109.737 Y110.103 F7800.000
G1 X107.031 Y112.179 F900.000 E7.25761
G1 X103.640 Y113.584 E7.32253
G1 X100.000 Y114.063 E7.38745
G1 X96.360 Y113.584 E7.45237
G1 X92.969 Y112.179 E7.51729
G1 X90.056 Y109.944 E7.58221
G1 X87.821 Y107.031 E7.64713
G1 X86.416 Y103.640 E7.71205
G1 X85.937 Y100.000 E7.77696
G1 X86.416 Y96.360 E7.84188
G1 X87.821 Y92.969 E7.90680
G1 X90.056 Y90.056 E7.97172
G1 X92.969 Y87.821 E8.03664
G1 X96.360 Y86.416 E8.10156
G1 X100.000 Y85.937 E8.16648
G1 X103.640 Y86.416 E8.23140
G1 X107.031 Y87.821 E8.29632
G1 X109.944 Y90.056 E8.36124
G1 X112.179 Y92.969 E8.42616
G1 X113.584 Y96.360 E8.49108
G1 X114.063 Y100.000 E8.55600
G1 X113.584 Y103.640 E8.62092
G1 X112.179 Y107.031 E8.68584
G1 X109.944 Y109.944 E8.75076
G1 X109.796 Y110.057 E8.75405
G1 X109.737 Y110.103 E8.75538
G1 X109.275 Y109.912 F7800.000
G1 X100.226 Y113.054
G1 X99.774 Y113.054 F1500.000 E8.76340
G1 X96.258 Y112.552 F7800.000
G1 X103.742 Y112.552 F1500.000 E8.89630
G1 X104.954 Y112.050 E8.91960
G1 X95.046 Y112.050 E9.09555
G1 X93.834 Y111.548 E9.11885
G1 X106.166 Y111.548 E9.33785
G1 X107.090 Y111.046 E9.35652
G1 X92.910 Y111.046 E9.60834
G1 X92.255 Y110.544 E9.62298
G1 X107.745 Y110.544 E9.89803
G1 X108.399 Y110.042 E9.91268
G1 X91.601 Y110.042 E10.21097
G1 X90.947 Y109.540 E10.22561
G1 X109.053 Y109.540 E10.54714
G1 X109.604 Y109.037 E10.56037
G1 X90.396 Y109.037 E10.90146
G1 X90.011 Y108.535 E10.91270
G1 X109.989 Y108.535 E11.26747
G1 X110.375 Y108.033 E11.27870
G1 X89.625 Y108.033 E11.64716
G1 X89.240 Y107.531 E11.65839
G1 X110.760 Y107.531 E12.04053
G1 X111.145 Y107.029 E12.05177
G1 X88.855 Y107.029 E12.44758
G1 X88.470 Y106.527 E12.45882
G1 X111.530 Y106.527 E12.86832
G1 X111.738 Y106.025 E12.87797
G1 X88.262 Y106.025 E13.29486
G1 X88.054 Y105.523 E13.30451
G1 X99.414 Y105.523 E13.50623
G1 X100.586 Y105.523 F7800.000
G1 X111.946 Y105.523 F1500.000 E13.70795
G1 X112.154 Y105.021 E13.71760
G1 X102.239 Y105.021 E13.89367
G1 X103.055 Y104.519 E13.91068
G1 X112.362 Y104.519 E14.07596
G1 X112.570 Y104.017 E14.08561
G1 X103.709 Y104.017 E14.24296
G1 X104.114 Y103.515 E14.25441
G1 X112.778 Y103.515 E14.40827
G1 X112.883 Y103.012 E14.41737
G1 X104.499 Y103.012 E14.56625
G1 X104.777 Y102.510 E14.57644
G1 X112.949 Y102.510 E14.72155
G1 X113.015 Y102.008 E14.73055
G1 X104.985 Y102.008 E14.87314
G1 X105.193 Y101.506 E14.88279
G1 X113.081 Y101.506 E15.02287
G1 X113.147 Y101.004 E15.03186
G1 X105.273 Y101.004 E15.17170
G1 X105.339 Y100.502 E15.18069
G1 X113.213 Y100.502 E15.32052
G1 X113.279 Y100.000 E15.32951
G1 X105.405 Y100.000 E15.46934
G1 X105.339 Y99.498 E15.47833
G1 X113.213 Y99.498 E15.61817
G1 X113.147 Y98.996 E15.62716
G1 X105.273 Y98.996 E15.76699
G1 X105.193 Y98.494 E15.77602
G1 X113.081 Y98.494 E15.91610
G1 X113.015 Y97.992 E15.92509
G1 X104.985 Y97.992 E16.06769
G1 X104.777 Y97.490 E16.07734
G1 X112.949 Y97.490 E16.22245
G1 X112.883 Y96.987 E16.23145
G1 X104.499 Y96.987 E16.38032
G1 X104.114 Y96.485 E16.39156
G1 X112.778 Y96.485 E16.54542
G1 X112.570 Y95.983 E16.55507
G1 X103.709 Y95.983 E16.71242
G1 X103.055 Y95.481 E16.72706
G1 X112.362 Y95.481 E16.89234
G1 X112.154 Y94.979 E16.90199
G1 X102.239 Y94.979 E17.07806
G1 X100.586 Y94.477 E17.10873
G1 X111.946 Y94.477 E17.31045
G1 X111.738 Y93.975 E17.32010
G1 X88.262 Y93.975 E17.73699
G1 X88.470 Y93.473 E17.74664
G1 X111.530 Y93.473 E18.15613
G1 X111.145 Y92.971 E18.16737
G1 X88.855 Y92.971 E18.56319
G1 X89.240 Y92.469 E18.57443
G1 X110.760 Y92.469 E18.95656
G1 X110.375 Y91.967 E18.96780
G1 X89.625 Y91.967 E19.33625
G1 X90.011 Y91.465 E19.34749
G1 X109.989 Y91.465 E19.70226
G1 X109.604 Y90.962 E19.71350
G1 X90.396 Y90.962 E20.05459
G1 X90.947 Y90.460 E20.06782
G1 X109.053 Y90.460 E20.38935
G1 X108.399 Y89.958 E20.40399
G1 X91.601 Y89.958 E20.70228
G1 X92.255 Y89.456 E20.71693
G1 X107.745 Y89.456 E20.99198
G1 X107.090 Y88.954 E21.00663
G1 X92.910 Y88.954 E21.25844
G1 X93.834 Y88.452 E21.27711
G1 X106.166 Y88.452 E21.49611
G1 X104.954 Y87.950 E21.51941
G1 X95.046 Y87.950 E21.69536
G1 X96.258 Y87.448 E21.71866
G1 X103.742 Y87.448 E21.85156
G1 X100.226 Y86.946 F7800.000
G1 X99.774 Y86.946 F1500.000 E21.85958
G1 X99.414 Y94.477 F7800.000
G1 X88.054 Y94.477 F1500.000 E22.06130
G1 X87.846 Y94.979 E22.07095
G1 X97.761 Y94.979 E22.24702
G1 X96.945 Y95.481 E22.26403
G1 X87.638 Y95.481 E22.42931
G1 X87.430 Y95.983 E22.43896
G1 X96.291 Y95.983 E22.59631
G1 X95.886 Y96.485 E22.60776
G1 X87.222 Y96.485 E22.76162
G1 X87.117 Y96.987 E22.77072
G1 X95.501 Y96.987 E22.91960
G1 X95.223 Y97.490 E22.92979
G1 X87.051 Y97.490 E23.07490
G1 X86.985 Y97.992 E23.08390
G1 X95.015 Y97.992 E23.22649
G1 X94.808 Y98.494 E23.23614
G1 X86.919 Y98.494 E23.37622
G1 X86.853 Y98.996 E23.38521
G1 X94.728 Y98.996 E23.52504
G1 X94.661 Y99.498 E23.53404
G1 X86.787 Y99.498 E23.67387
G1 X86.721 Y100.000 E23.68286
G1 X94.595 Y100.000 E23.82269
G1 X94.661 Y100.502 E23.83168
G1 X86.787 Y100.502 E23.97151
G1 X86.853 Y101.004 E23.98051
G1 X94.728 Y101.004 E24.12034
G1 X94.808 Y101.506 E24.12937
G1 X86.919 Y101.506 E24.26945
G1 X86.985 Y102.008 E24.27844
G1 X95.015 Y102.008 E24.42103
G1 X95.223 Y102.510 E24.43068
G1 X87.051 Y102.510 E24.57580
G1 X87.117 Y103.012 E24.58479
G1 X95.501 Y103.012 E24.73367
G1 X95.886 Y103.515 E24.74491
G1 X87.222 Y103.515 E24.89877
G1 X87.430 Y104.017 E24.90842
G1 X96.291 Y104.017 E25.06577
G1 X96.945 Y104.519 E25.08041
G1 X87.638 Y104.519 E25.24569
G1 X87.846 Y105.021 E25.25534
G1 X97.761 Y105.021 E25.43141
M106 S239
G1 Z0.500 F7800.000
G1 X97.911 Y104.256
G1 X97.614 Y104.133 F600.000 E25.43991
G1 X96.625 Y103.375 E25.47280
G1 X95.867 Y102.386 E25.50568
G1 X95.390 Y101.235 E25.53857
G1 X95.227 Y100.000 E25.57146
G1 X95.390 Y98.765 E25.60434
G1 X95.867 Y97.614 E25.63723
G1 X96.625 Y96.625 E25.67012
G1 X97.614 Y95.867 E25.70300
G1 X98.765 Y95.390 E25.73589
G1 X100.000 Y95.227 E25.76878
G1 X101.235 Y95.390 E25.80167
G1 X102.386 Y95.867 E25.83455
G1 X103.375 Y96.625 E25.86744
G1 X103.571 Y96.881 E25.87594
G1 X104.133 Y97.614 E25.90033
G1 X104.610 Y98.765 E25.93321
G1 X104.772 Y100.000 E25.96610
G1 X104.730 Y100.319 E25.97460
G1 X104.610 Y101.235 E25.99899
G1 X104.133 Y102.386 E26.03187
G1 X103.375 Y103.375 E26.06476
G1 X102.642 Y103.937 E26.08915
G1 X102.386 Y104.133 E26.09765
G1 X101.235 Y104.610 E26.13053
G1 X100.000 Y104.772 E26.16342
G1 X98.765 Y104.610 E26.19631
G1 X98.015 Y104.299 E26.21774
G1 X97.911 Y104.256 E26.22069
G1 X97.319 Y104.711 F7800.000
G1 X92.386 Y111.542
G1 X90.163 Y109.837 F1800.000 E26.29465
G1 X87.952 Y106.956 E26.39051
G1 X86.563 Y103.601 E26.48637
G1 X86.089 Y100.000 E26.58223
G1 X86.563 Y96.399 E26.67810
G1 X87.635 Y93.811 E26.75205
G1 X87.952 Y93.044 E26.77396
G1 X90.163 Y90.163 E26.86982
G1 X93.044 Y87.952 E26.96568
G1 X93.811 Y87.635 E26.98760
G1 X96.399 Y86.563 E27.06155
