; generated by Slic3r 0.9.8 on 2013-05-21 at 15:57:33

; layer_height = .25
; perimeters = 1
; top_solid_layers = 4
; bottom_solid_layers = 4
; fill_density = .9
; perimeter_speed = 30
; infill_speed = 40
; travel_speed = 130
; scale = 1
; nozzle_diameter = 0.5
; filament_diameter = 3
; extrusion_multiplier = 1
; perimeters extrusion width = 0.80mm
; infill extrusion width = 0.80mm
; first layer extrusion width = 0.50mm

M107
M104 S225 ; set temperature
G28 ; home all axes
M109 S225 ; wait for temperature to be reached
G90 ; use absolute coordinates
G21 ; set units to millimeters
G92 E0
M82 ; use absolute distances for extrusion
G1 F900.000 E-1.00000
G92 E0
G1 Z0.250 F7800.000
G1 X111.223 Y135.049
G1 F900.000 E1.50000
G1 X110.683 Y135.179 F900.000 E1.50982
G1 X110.123 Y135.269 E1.51985
G1 X109.843 Y135.299 E1.52483
G1 X109.283 Y135.319 E1.53474
G1 X90.733 Y135.329 E1.86278
G1 X90.183 Y135.309 E1.87251
G1 X89.903 Y135.279 E1.87749
G1 X89.083 Y135.129 E1.89223
G1 X88.283 Y134.889 E1.90700
G1 X87.513 Y134.549 E1.92189
G1 X86.793 Y134.119 E1.93672
G1 X86.343 Y133.789 E1.94658
G1 X85.923 Y133.419 E1.95648
G1 X60.683 Y107.609 E2.59487
G1 X60.493 Y107.389 E2.60001
G1 X59.983 Y106.679 E2.61547
G1 X59.683 Y106.169 E2.62593
G1 X59.433 Y105.639 E2.63630
G1 X59.233 Y105.089 E2.64665
G1 X50.503 Y78.109 E3.14811
G1 X50.333 Y77.499 E3.15931
G1 X50.223 Y76.889 E3.17027
G1 X50.163 Y75.949 E3.18693
G1 X50.163 Y71.689 E3.26226
G1 X50.183 Y71.139 E3.27199
G1 X50.293 Y70.319 E3.28663
G1 X50.353 Y70.059 E3.29134
G1 X50.503 Y69.529 E3.30108
G1 X50.693 Y69.009 E3.31088
G1 X50.923 Y68.509 E3.32061
G1 X51.343 Y67.799 E3.33520
G1 X51.843 Y67.139 E3.34984
G1 X52.413 Y66.549 E3.36435
G1 X53.043 Y66.029 E3.37879
G1 X53.503 Y65.719 E3.38860
G1 X54.233 Y65.329 E3.40324
G1 X55.003 Y65.029 E3.41785
G1 X55.793 Y64.819 E3.43231
G1 X56.613 Y64.709 E3.44694
G1 X57.163 Y64.689 E3.45667
G1 X142.833 Y64.669 E4.97165
G1 X143.383 Y64.689 E4.98138
G1 X143.653 Y64.719 E4.98618
G1 X144.193 Y64.799 E4.99584
G1 X144.463 Y64.859 E5.00073
G1 X145.253 Y65.099 E5.01533
G1 X146.013 Y65.429 E5.02998
G1 X146.723 Y65.849 E5.04457
G1 X147.383 Y66.349 E5.05921
G1 X147.783 Y66.719 E5.06885
G1 X148.333 Y67.339 E5.08350
G1 X148.803 Y68.009 E5.09798
G1 X149.073 Y68.489 E5.10771
G1 X149.303 Y68.989 E5.11745
G1 X149.493 Y69.509 E5.12724
G1 X149.643 Y70.039 E5.13698
G1 X149.703 Y70.299 E5.14170
G1 X149.813 Y71.119 E5.15633
G1 X149.833 Y71.669 E5.16606
G1 X149.833 Y75.929 E5.24139
G1 X149.813 Y76.499 E5.25148
G1 X149.693 Y77.339 E5.26648
G1 X149.553 Y77.899 E5.27669
G1 X149.373 Y78.439 E5.28676
G1 X149.013 Y79.209 E5.30179
G1 X148.723 Y79.709 E5.31201
G1 X115.023 Y132.329 E6.41701
G1 X114.503 Y132.989 E6.43187
G1 X114.313 Y133.189 E6.43675
G1 X113.903 Y133.579 E6.44676
G1 X113.473 Y133.929 E6.45656
G1 X113.003 Y134.249 E6.46662
G1 X112.523 Y134.529 E6.47644
G1 X112.013 Y134.769 E6.48641
G1 X111.294 Y135.025 E6.49991
G1 X111.223 Y135.049 E6.50123
G1 X110.893 Y134.619 F7800.000
G1 X110.093 Y134.769 F900.000 E6.51563
G1 X109.823 Y134.799 E6.52043
G1 X109.283 Y134.819 E6.52999
G1 X90.733 Y134.829 E6.85802
G1 X90.193 Y134.809 E6.86758
G1 X89.923 Y134.779 E6.87238
G1 X89.113 Y134.629 E6.88695
G1 X88.593 Y134.469 E6.89657
G1 X88.093 Y134.269 E6.90609
G1 X87.603 Y134.029 E6.91574
G1 X86.913 Y133.589 E6.93021
G1 X86.483 Y133.249 E6.93991
G1 X86.083 Y132.869 E6.94967
G1 X61.243 Y107.469 E7.57793
G1 X60.843 Y107.029 E7.58844
G1 X60.493 Y106.539 E7.59909
G1 X60.183 Y106.029 E7.60964
G1 X60.043 Y105.769 E7.61487
G1 X59.803 Y105.209 E7.62564
G1 X50.983 Y77.949 E8.13231
G1 X50.883 Y77.629 E8.13824
G1 X50.743 Y76.959 E8.15034
G1 X50.673 Y76.289 E8.16225
G1 X50.663 Y75.949 E8.16827
G1 X50.663 Y71.689 E8.24360
G1 X50.683 Y71.169 E8.25280
G1 X50.743 Y70.649 E8.26206
G1 X50.793 Y70.389 E8.26674
G1 X50.993 Y69.629 E8.28064
G1 X51.083 Y69.389 E8.28517
G1 X51.403 Y68.669 E8.29911
G1 X51.813 Y67.999 E8.31300
G1 X52.123 Y67.579 E8.32223
G1 X52.663 Y66.999 E8.33624
G1 X53.253 Y66.489 E8.35003
G1 X53.913 Y66.059 E8.36396
G1 X54.613 Y65.709 E8.37780
G1 X55.103 Y65.519 E8.38710
G1 X55.603 Y65.379 E8.39628
G1 X56.123 Y65.269 E8.40568
G1 X56.643 Y65.209 E8.41493
G1 X57.163 Y65.189 E8.42414
G1 X142.833 Y65.169 E9.93911
G1 X143.353 Y65.189 E9.94832
G1 X143.873 Y65.249 E9.95757
G1 X144.383 Y65.359 E9.96680
G1 X144.893 Y65.499 E9.97615
G1 X145.383 Y65.689 E9.98545
G1 X145.853 Y65.909 E9.99462
G1 X146.523 Y66.319 E10.00851
G1 X146.943 Y66.629 E10.01774
G1 X147.523 Y67.169 E10.03176
G1 X148.033 Y67.759 E10.04555
G1 X148.593 Y68.649 E10.06414
G1 X148.913 Y69.359 E10.07792
G1 X149.003 Y69.609 E10.08261
G1 X149.203 Y70.369 E10.09651
G1 X149.253 Y70.629 E10.10119
G1 X149.313 Y71.149 E10.11045
G1 X149.333 Y71.669 E10.11965
G1 X149.333 Y75.929 E10.19499
G1 X149.313 Y76.499 E10.20507
G1 X149.233 Y77.059 E10.21508
G1 X149.113 Y77.619 E10.22520
G1 X149.033 Y77.889 E10.23018
G1 X148.833 Y78.429 E10.24037
G1 X148.593 Y78.939 E10.25033
G1 X148.303 Y79.439 E10.26056
G1 X114.753 Y131.829 E11.36070
G1 X114.443 Y132.269 E11.37022
G1 X114.103 Y132.689 E11.37978
G1 X113.723 Y133.069 E11.38928
G1 X113.093 Y133.589 E11.40373
G1 X112.643 Y133.889 E11.41329
G1 X112.163 Y134.149 E11.42294
G1 X111.673 Y134.369 E11.43244
G1 X110.965 Y134.597 E11.44560
G1 X110.893 Y134.619 E11.44693
G1 F900.000 E10.44693
G92 E0
G1 X80.002 Y98.772 F7800.000
G1 F900.000 E1.50000
G1 X79.434 Y99.208 F300.000 E1.51265
G1 X78.773 Y99.482 E1.52531
G1 X78.064 Y99.575 E1.53796
G1 X77.354 Y99.482 E1.55061
G1 X76.693 Y99.208 E1.56326
G1 X76.126 Y98.773 E1.57592
G1 X75.690 Y98.205 E1.58857
G1 X75.416 Y97.544 E1.60122
G1 X75.322 Y96.835 E1.61388
G1 X75.416 Y96.126 E1.62653
G1 X75.689 Y95.464 E1.63918
G1 X76.125 Y94.897 E1.65183
G1 X76.692 Y94.461 E1.66449
G1 X77.353 Y94.187 E1.67714
G1 X78.062 Y94.093 E1.68979
G1 X78.772 Y94.187 E1.70245
G1 X79.433 Y94.460 E1.71510
G1 X80.001 Y94.896 E1.72775
G1 X80.436 Y95.463 E1.74041
G1 X80.710 Y96.124 E1.75306
G1 X80.804 Y96.834 E1.76571
G1 X80.711 Y97.543 E1.77836
G1 X80.437 Y98.204 E1.79102
G1 X80.047 Y98.712 E1.80234
G1 X80.002 Y98.772 E1.80367
G1 X79.645 Y98.415 F7800.000
G1 X79.182 Y98.771 F300.000 E1.81399
G1 X78.643 Y98.994 E1.82432
G1 X78.064 Y99.071 E1.83464
G1 X77.485 Y98.995 E1.84497
G1 X76.945 Y98.771 E1.85529
G1 X76.482 Y98.416 E1.86562
G1 X76.127 Y97.953 E1.87594
G1 X75.903 Y97.414 E1.88627
G1 X75.827 Y96.835 E1.89659
G1 X75.903 Y96.256 E1.90692
G1 X76.126 Y95.716 E1.91724
G1 X76.481 Y95.253 E1.92757
G1 X76.944 Y94.898 E1.93789
G1 X77.484 Y94.674 E1.94822
G1 X78.063 Y94.598 E1.95854
G1 X78.641 Y94.674 E1.96887
G1 X79.181 Y94.897 E1.97919
G1 X79.644 Y95.252 E1.98952
G1 X80.000 Y95.716 E1.99984
G1 X80.223 Y96.255 E2.01016
G1 X80.300 Y96.834 E2.02049
G1 X80.224 Y97.413 E2.03081
G1 X80.000 Y97.952 E2.04114
G1 X79.691 Y98.356 E2.05014
G1 X79.645 Y98.415 E2.05146
G1 X79.753 Y98.904 F7800.000
G1 F900.000 E1.05146
G92 E0
G1 X113.139 Y96.826 F7800.000
G1 F900.000 E1.50000
G1 X113.232 Y96.116 F300.000 E1.51265
G1 X113.506 Y95.455 E1.52531
G1 X113.941 Y94.888 E1.53796
G1 X114.509 Y94.452 E1.55061
G1 X115.170 Y94.178 E1.56326
G1 X115.879 Y94.084 E1.57592
G1 X116.588 Y94.178 E1.58857
G1 X117.249 Y94.451 E1.60122
G1 X117.817 Y94.887 E1.61388
G1 X118.253 Y95.454 E1.62653
G1 X118.527 Y96.115 E1.63918
G1 X118.620 Y96.825 E1.65184
G1 X118.527 Y97.534 E1.66449
G1 X118.254 Y98.195 E1.67714
G1 X117.818 Y98.763 E1.68979
G1 X117.251 Y99.199 E1.70245
G1 X116.590 Y99.472 E1.71510
G1 X115.880 Y99.566 E1.72775
G1 X115.171 Y99.473 E1.74041
G1 X114.510 Y99.199 E1.75306
G1 X113.942 Y98.764 E1.76571
G1 X113.506 Y98.196 E1.77836
G1 X113.232 Y97.535 E1.79102
G1 X113.149 Y96.900 E1.80234
G1 X113.139 Y96.826 E1.80367
G1 X113.643 Y96.826 F7800.000
G1 X113.719 Y96.247 F300.000 E1.81399
G1 X113.942 Y95.707 E1.82432
G1 X114.298 Y95.244 E1.83464
G1 X114.761 Y94.889 E1.84497
G1 X115.300 Y94.665 E1.85529
G1 X115.879 Y94.589 E1.86562
G1 X116.458 Y94.665 E1.87594
G1 X116.997 Y94.888 E1.88627
G1 X117.461 Y95.243 E1.89659
G1 X117.816 Y95.706 E1.90692
G1 X118.040 Y96.246 E1.91724
G1 X118.116 Y96.825 E1.92757
G1 X118.040 Y97.404 E1.93789
G1 X117.817 Y97.943 E1.94822
G1 X117.461 Y98.406 E1.95854
G1 X116.998 Y98.762 E1.96887
G1 X116.459 Y98.985 E1.97919
G1 X115.880 Y99.062 E1.98952
G1 X115.301 Y98.986 E1.99984
G1 X114.762 Y98.762 E2.01017
G1 X114.298 Y98.407 E2.02049
G1 X113.943 Y97.944 E2.03081
G1 X113.719 Y97.405 E2.04114
G1 X113.653 Y96.900 E2.05014
G1 X113.643 Y96.826 E2.05146
G1 X113.221 Y96.557 F7800.000
G1 F900.000 E1.05146
G92 E0
G1 X101.664 Y105.490 F7800.000
G1 F900.000 E1.50000
G1 X102.037 Y105.975 F300.000 E1.51082
G1 X102.271 Y106.541 E1.52164
G1 X102.351 Y107.147 E1.53246
G1 X102.271 Y107.754 E1.54328
G1 X102.037 Y108.319 E1.55410
G1 X101.665 Y108.805 E1.56493
G1 X101.180 Y109.177 E1.57574
G1 X100.614 Y109.412 E1.58657
G1 X100.008 Y109.492 E1.59739
G1 X99.401 Y109.412 E1.60821
G1 X98.836 Y109.178 E1.61903
G1 X98.350 Y108.806 E1.62985
G1 X97.977 Y108.320 E1.64067
G1 X97.743 Y107.755 E1.65149
G1 X97.663 Y107.148 E1.66231
G1 X97.743 Y106.542 E1.67313
G1 X97.977 Y105.976 E1.68395
G1 X98.349 Y105.491 E1.69477
G1 X98.835 Y105.118 E1.70559
G1 X99.400 Y104.884 E1.71642
G1 X100.006 Y104.804 E1.72724
G1 X100.613 Y104.884 E1.73806
G1 X101.179 Y105.118 E1.74888
G1 X101.605 Y105.444 E1.75837
G1 X101.664 Y105.490 E1.75970
G1 X101.308 Y105.847 F7800.000
G1 X101.600 Y106.227 F300.000 E1.76819
G1 X101.784 Y106.671 E1.77668
G1 X101.847 Y107.147 E1.78518
G1 X101.784 Y107.623 E1.79367
G1 X101.600 Y108.067 E1.80216
G1 X101.308 Y108.448 E1.81066
G1 X100.927 Y108.741 E1.81915
G1 X100.484 Y108.925 E1.82764
G1 X100.007 Y108.987 E1.83613
G1 X99.531 Y108.925 E1.84462
G1 X99.088 Y108.741 E1.85312
G1 X98.707 Y108.449 E1.86161
G1 X98.414 Y108.068 E1.87010
G1 X98.230 Y107.624 E1.87860
G1 X98.167 Y107.148 E1.88709
G1 X98.230 Y106.672 E1.89558
G1 X98.414 Y106.228 E1.90408
G1 X98.706 Y105.847 E1.91256
G1 X99.087 Y105.555 E1.92106
G1 X99.530 Y105.371 E1.92955
G1 X100.007 Y105.308 E1.93804
G1 X100.483 Y105.371 E1.94654
G1 X100.927 Y105.554 E1.95503
G1 X101.248 Y105.801 E1.96220
G1 X101.308 Y105.847 E1.96352
G1 X101.796 Y105.738 F7800.000
G1 F900.000 E0.96352
G92 E0
G1 X100.011 Y122.266 F7800.000
G1 F900.000 E1.50000
G1 X100.617 Y122.346 F300.000 E1.51082
G1 X101.183 Y122.580 E1.52164
G1 X101.668 Y122.952 E1.53246
G1 X102.041 Y123.438 E1.54328
G1 X102.275 Y124.003 E1.55410
G1 X102.355 Y124.610 E1.56492
G1 X102.275 Y125.216 E1.57575
G1 X102.041 Y125.782 E1.58657
G1 X101.669 Y126.267 E1.59739
G1 X101.184 Y126.640 E1.60821
G1 X100.618 Y126.874 E1.61903
G1 X100.012 Y126.954 E1.62985
G1 X99.405 Y126.875 E1.64067
G1 X98.840 Y126.640 E1.65149
G1 X98.354 Y126.268 E1.66231
G1 X97.982 Y125.783 E1.67313
G1 X97.747 Y125.217 E1.68395
G1 X97.667 Y124.611 E1.69477
G1 X97.747 Y124.004 E1.70559
G1 X97.981 Y123.439 E1.71642
G1 X98.353 Y122.953 E1.72723
G1 X98.839 Y122.581 E1.73806
G1 X99.404 Y122.346 E1.74888
G1 X99.936 Y122.276 E1.75837
G1 X100.011 Y122.266 E1.75970
G1 X100.011 Y122.771 F7800.000
G1 X100.487 Y122.833 F300.000 E1.76819
G1 X100.931 Y123.017 E1.77669
G1 X101.312 Y123.309 E1.78517
G1 X101.604 Y123.690 E1.79367
G1 X101.788 Y124.134 E1.80216
G1 X101.851 Y124.610 E1.81065
G1 X101.788 Y125.086 E1.81915
G1 X101.605 Y125.530 E1.82764
G1 X101.312 Y125.911 E1.83613
G1 X100.932 Y126.203 E1.84462
G1 X100.488 Y126.387 E1.85312
G1 X100.012 Y126.450 E1.86161
G1 X99.536 Y126.387 E1.87010
G1 X99.092 Y126.204 E1.87860
G1 X98.711 Y125.911 E1.88709
G1 X98.418 Y125.530 E1.89558
G1 X98.234 Y125.087 E1.90407
G1 X98.172 Y124.611 E1.91257
G1 X98.234 Y124.135 E1.92106
G1 X98.418 Y123.691 E1.92955
G1 X98.710 Y123.310 E1.93804
G1 X99.091 Y123.017 E1.94654
G1 X99.535 Y122.833 E1.95503
G1 X99.936 Y122.780 E1.96220
G1 X100.011 Y122.771 E1.96352
G1 X100.279 Y122.349 F7800.000
G1 F900.000 E0.96352
G92 E0
G1 X108.787 Y127.827 F7800.000
G1 F900.000 E1.50000
G1 X91.237 Y127.831 F900.000 E1.81035
G1 X91.231 Y102.431 E2.25952
G1 X66.399 Y102.437 E2.69864
G1 X66.392 Y75.450 E3.17589
G1 X57.664 Y75.452 E3.33024
G1 X57.663 Y72.189 E3.38793
G1 X70.035 Y72.186 E3.60671
G1 X70.039 Y91.236 E3.94359
G1 X89.728 Y91.231 E4.29177
G1 X89.729 Y94.406 E4.34791
G1 X110.279 Y94.402 E4.71132
G1 X110.278 Y91.227 E4.76746
G1 X122.650 Y91.224 E4.98625
G1 X128.758 Y81.157 E5.19447
G1 X128.756 Y72.172 E5.35335
G1 X142.334 Y72.169 E5.59348
G1 X142.335 Y75.431 E5.65117
G1 X133.606 Y75.433 E5.80552
G1 X133.608 Y82.975 E5.93889
G1 X121.809 Y102.424 E6.34117
G1 X108.781 Y102.427 E6.57155
G1 X108.787 Y127.752 E7.01939
G1 X108.787 Y127.827 E7.02072
G1 X109.287 Y128.327 F7800.000
G1 X90.737 Y128.331 F900.000 E7.34876
G1 X90.731 Y102.931 E7.79792
G1 X65.899 Y102.937 E8.23705
G1 X65.892 Y75.950 E8.71429
G1 X57.164 Y75.952 E8.86865
G1 X57.163 Y71.689 E8.94403
G1 X70.535 Y71.686 E9.18049
G1 X70.539 Y90.736 E9.51736
G1 X90.228 Y90.731 E9.86554
G1 X90.229 Y93.906 E9.92169
G1 X109.779 Y93.902 E10.26741
G1 X109.778 Y90.727 E10.32355
G1 X122.369 Y90.724 E10.54620
G1 X128.258 Y81.017 E10.74697
G1 X128.255 Y71.672 E10.91223
G1 X142.834 Y71.669 E11.17003
G1 X142.835 Y75.931 E11.24541
G1 X134.106 Y75.933 E11.39977
G1 X134.108 Y83.115 E11.52677
G1 X122.090 Y102.924 E11.93649
G1 X109.281 Y102.927 E12.16301
G1 X109.287 Y128.252 E12.61085
G1 X109.287 Y128.327 E12.61218
G1 X108.854 Y128.077 F7800.000
G1 X108.512 Y126.830
G1 X101.533 Y126.830 F1500.000 E12.73596
G1 X102.027 Y126.328 E12.74846
G1 X108.512 Y126.328 E12.86347
G1 X108.512 Y125.827 E12.87236
G1 X102.339 Y125.827 E12.98185
G1 X102.540 Y125.325 E12.99143
G1 X108.512 Y125.325 E13.09734
G1 X108.511 Y124.824 E13.10623
G1 X102.606 Y124.824 E13.21097
G1 X102.596 Y124.322 F7800.000
G1 X108.511 Y124.322 F1500.000 E13.31588
G1 X108.511 Y123.821 E13.32477
G1 X102.516 Y123.821 E13.43111
G1 X102.308 Y123.319 E13.44074
G1 X108.511 Y123.319 E13.55076
G1 X108.511 Y122.818 E13.55965
G1 X101.970 Y122.818 E13.67567
G1 X101.435 Y122.316 E13.68867
G1 X108.511 Y122.316 E13.81417
G1 X108.511 Y121.815 E13.82307
G1 X100.186 Y121.815 E13.97072
G1 X99.837 Y121.815 F7800.000
G1 X91.510 Y121.815 F1500.000 E14.11840
G1 X91.511 Y122.316 E14.12730
G1 X98.587 Y122.316 E14.25282
G1 X98.052 Y122.818 E14.26582
G1 X91.511 Y122.818 E14.38185
G1 X91.511 Y123.319 E14.39074
G1 X97.714 Y123.319 E14.50078
G1 X97.507 Y123.821 E14.51040
G1 X91.511 Y123.821 E14.61675
G1 X91.511 Y124.322 E14.62564
G1 X97.426 Y124.322 E14.73055
G1 X97.416 Y124.824 F7800.000
G1 X91.511 Y124.824 F1500.000 E14.83529
G1 X91.511 Y125.325 E14.84418
G1 X97.482 Y125.325 E14.95009
G1 X97.684 Y125.827 E14.95967
G1 X91.511 Y125.827 E15.06914
G1 X91.512 Y126.328 E15.07804
G1 X97.995 Y126.328 E15.19303
G1 X98.490 Y126.830 E15.20553
G1 X91.512 Y126.830 E15.32929
G1 X91.512 Y127.331 E15.33819
G1 X92.379 Y127.331 E15.35358
G1 F900.000 E14.35358
G92 E0
G1 X108.511 Y121.313 F7800.000
G1 F900.000 E1.50000
G1 X91.510 Y121.313 F1500.000 E1.80153
G1 X91.510 Y120.812 E1.81042
G1 X108.510 Y120.812 E2.11195
G1 X108.510 Y120.310 E2.12084
G1 X91.510 Y120.310 E2.42236
G1 X91.510 Y119.809 E2.43126
G1 X108.510 Y119.809 E2.73278
G1 X108.510 Y119.307 E2.74168
G1 X91.510 Y119.307 E3.04320
G1 X91.510 Y118.806 E3.05210
G1 X108.510 Y118.806 E3.35362
G1 X108.510 Y118.304 E3.36252
G1 X91.510 Y118.304 E3.66404
G1 X91.509 Y117.803 E3.67294
G1 X108.510 Y117.803 E3.97446
G1 X108.510 Y117.301 E3.98336
G1 X91.509 Y117.301 E4.28488
G1 X91.509 Y116.800 E4.29377
G1 X108.509 Y116.800 E4.59530
G1 X108.509 Y116.298 E4.60419
G1 X91.509 Y116.298 E4.90572
G1 X91.509 Y115.797 E4.91461
G1 X108.509 Y115.797 E5.21614
G1 X108.509 Y115.295 E5.22503
G1 X91.509 Y115.295 E5.52656
