; generated by Slic3r 0.9.8 on 2013-05-21 at 21:04:28

; layer_height = .25
; perimeters = 1
; top_solid_layers = 4
; bottom_solid_layers = 4
; fill_density = .9
; perimeter_speed = 30
; infill_speed = 40
; travel_speed = 130
; scale = 1
; nozzle_diameter = 0.5
; filament_diameter = 3
; extrusion_multiplier = 1
; perimeters extrusion width = 0.80mm
; infill extrusion width = 0.80mm
; first layer extrusion width = 0.50mm

M107
M104 S225 ; set temperature
G28 ; home all axes
M109 S225 ; wait for temperature to be reached
G90 ; use absolute coordinates
G21 ; set units to millimeters
G92 E0
M82 ; use absolute distances for extrusion
G1 F900.000 E-1.00000
G92 E0
G1 Z0.250 F7800.000
G1 X129.409 Y112.970
G1 F900.000 E1.50000
G1 X128.589 Y113.080 F900.000 E1.51463
G1 X128.039 Y113.100 E1.52436
G1 X71.949 Y113.100 E2.51625
G1 X71.399 Y113.080 E2.52598
G1 X70.579 Y112.970 E2.54062
G1 X70.049 Y112.840 E2.55027
G1 X69.269 Y112.570 E2.56486
G1 X68.769 Y112.340 E2.57459
G1 X68.059 Y111.920 E2.58918
G1 X67.399 Y111.420 E2.60383
G1 X66.999 Y111.050 E2.61346
G1 X66.629 Y110.650 E2.62310
G1 X66.129 Y109.990 E2.63774
G1 X65.709 Y109.280 E2.65233
G1 X65.379 Y108.520 E2.66698
G1 X65.209 Y108.000 E2.67665
G1 X65.079 Y107.470 E2.68630
G1 X64.969 Y106.650 E2.70093
G1 X64.949 Y106.100 E2.71067
G1 X64.949 Y93.900 E2.92641
G1 X64.969 Y93.350 E2.93614
G1 X65.079 Y92.530 E2.95077
G1 X65.139 Y92.270 E2.95549
G1 X65.289 Y91.740 E2.96523
G1 X65.479 Y91.220 E2.97502
G1 X65.709 Y90.720 E2.98476
G1 X65.979 Y90.240 E2.99449
G1 X66.449 Y89.570 E3.00897
G1 X66.629 Y89.350 E3.01399
G1 X66.999 Y88.950 E3.02363
G1 X67.399 Y88.580 E3.03327
G1 X67.829 Y88.240 E3.04296
G1 X68.289 Y87.930 E3.05277
G1 X68.769 Y87.660 E3.06251
G1 X69.269 Y87.430 E3.07224
G1 X69.789 Y87.240 E3.08203
G1 X70.309 Y87.090 E3.09160
G1 X70.579 Y87.030 E3.09649
G1 X71.129 Y86.950 E3.10632
G1 X71.399 Y86.920 E3.11112
G1 X71.949 Y86.900 E3.12086
G1 X128.039 Y86.890 E4.11275
G1 X128.589 Y86.910 E4.12248
G1 X129.409 Y87.020 E4.13711
G1 X129.939 Y87.150 E4.14676
G1 X130.719 Y87.420 E4.16136
G1 X131.219 Y87.650 E4.17109
G1 X131.929 Y88.070 E4.18568
G1 X132.589 Y88.570 E4.20032
G1 X132.989 Y88.940 E4.20995
G1 X133.359 Y89.340 E4.21959
G1 X133.859 Y90.000 E4.23423
G1 X134.279 Y90.710 E4.24882
G1 X134.609 Y91.470 E4.26347
G1 X134.779 Y91.990 E4.27315
G1 X134.909 Y92.520 E4.28280
G1 X135.019 Y93.340 E4.29743
G1 X135.039 Y93.890 E4.30716
G1 X135.039 Y106.100 E4.52308
G1 X135.019 Y106.650 E4.53281
G1 X134.909 Y107.470 E4.54744
G1 X134.849 Y107.730 E4.55216
G1 X134.699 Y108.260 E4.56190
G1 X134.509 Y108.780 E4.57169
G1 X134.279 Y109.280 E4.58143
G1 X134.009 Y109.760 E4.59117
G1 X133.539 Y110.430 E4.60564
G1 X133.359 Y110.650 E4.61066
G1 X132.989 Y111.050 E4.62030
G1 X132.589 Y111.420 E4.62994
G1 X132.369 Y111.600 E4.63496
G1 X131.699 Y112.070 E4.64944
G1 X131.219 Y112.340 E4.65917
G1 X130.719 Y112.570 E4.66891
G1 X130.199 Y112.760 E4.67870
G1 X129.482 Y112.953 E4.69183
G1 X129.409 Y112.970 E4.69315
G1 X129.339 Y112.470 F7800.000
G1 X129.079 Y112.520 F900.000 E4.69784
G1 X128.559 Y112.580 E4.70709
G1 X128.039 Y112.600 E4.71629
G1 X71.949 Y112.600 E5.70818
G1 X71.429 Y112.580 E5.71739
G1 X70.909 Y112.520 E5.72664
G1 X70.649 Y112.470 E5.73132
G1 X69.889 Y112.270 E5.74522
G1 X69.399 Y112.080 E5.75452
G1 X68.929 Y111.860 E5.76369
G1 X68.699 Y111.730 E5.76836
G1 X68.049 Y111.300 E5.78215
G1 X67.639 Y110.970 E5.79145
G1 X67.079 Y110.410 E5.80546
G1 X66.599 Y109.790 E5.81932
G1 X66.189 Y109.120 E5.83322
G1 X65.969 Y108.650 E5.84239
G1 X65.779 Y108.160 E5.85169
G1 X65.579 Y107.400 E5.86558
G1 X65.529 Y107.140 E5.87027
G1 X65.469 Y106.620 E5.87952
G1 X65.449 Y106.100 E5.88872
G1 X65.449 Y93.900 E6.10447
G1 X65.469 Y93.380 E6.11367
G1 X65.529 Y92.860 E6.12293
G1 X65.639 Y92.340 E6.13233
G1 X65.779 Y91.840 E6.14151
G1 X65.969 Y91.350 E6.15080
G1 X66.189 Y90.880 E6.15998
G1 X66.319 Y90.650 E6.16465
G1 X66.599 Y90.210 E6.17387
G1 X66.909 Y89.790 E6.18310
G1 X67.449 Y89.210 E6.19712
G1 X68.039 Y88.700 E6.21091
G1 X68.699 Y88.270 E6.22484
G1 X69.159 Y88.030 E6.23401
G1 X69.639 Y87.820 E6.24328
G1 X69.889 Y87.730 E6.24798
G1 X70.389 Y87.590 E6.25716
G1 X70.909 Y87.480 E6.26656
G1 X71.429 Y87.420 E6.27582
G1 X71.949 Y87.400 E6.28502
G1 X128.039 Y87.390 E7.27691
G1 X128.559 Y87.410 E7.28611
G1 X129.079 Y87.470 E7.29537
G1 X129.339 Y87.520 E7.30005
G1 X130.099 Y87.720 E7.31395
G1 X130.589 Y87.910 E7.32324
G1 X131.059 Y88.130 E7.33242
G1 X131.289 Y88.260 E7.33709
G1 X131.939 Y88.690 E7.35087
G1 X132.349 Y89.020 E7.36018
G1 X132.909 Y89.580 E7.37418
G1 X133.389 Y90.200 E7.38805
G1 X133.799 Y90.870 E7.40194
G1 X134.019 Y91.340 E7.41112
G1 X134.209 Y91.830 E7.42041
G1 X134.409 Y92.590 E7.43431
G1 X134.459 Y92.850 E7.43899
G1 X134.519 Y93.370 E7.44825
G1 X134.539 Y93.890 E7.45745
G1 X134.539 Y106.100 E7.67337
G1 X134.519 Y106.620 E7.68257
G1 X134.459 Y107.140 E7.69183
G1 X134.349 Y107.660 E7.70123
G1 X134.209 Y108.160 E7.71041
G1 X134.019 Y108.650 E7.71970
G1 X133.799 Y109.120 E7.72888
G1 X133.669 Y109.350 E7.73355
G1 X133.239 Y110.000 E7.74733
G1 X132.909 Y110.410 E7.75664
G1 X132.349 Y110.970 E7.77065
G1 X131.939 Y111.300 E7.77995
G1 X131.289 Y111.730 E7.79373
G1 X130.829 Y111.970 E7.80291
G1 X130.339 Y112.180 E7.81234
G1 X130.099 Y112.270 E7.81687
G1 X129.412 Y112.453 E7.82944
G1 X129.339 Y112.470 E7.83077
G1 F900.000 E6.83077
G92 E0
G1 X86.772 Y100.709 F7800.000
G1 F900.000 E1.50000
G1 X86.499 Y101.370 F300.000 E1.51265
G1 X86.063 Y101.938 E1.52531
G1 X85.495 Y102.374 E1.53796
G1 X84.834 Y102.647 E1.55061
G1 X84.125 Y102.741 E1.56326
G1 X83.416 Y102.647 E1.57592
G1 X82.755 Y102.374 E1.58857
G1 X82.187 Y101.938 E1.60122
G1 X81.751 Y101.370 E1.61388
G1 X81.478 Y100.709 E1.62653
G1 X81.384 Y100.000 E1.63918
G1 X81.478 Y99.291 E1.65183
G1 X81.751 Y98.630 E1.66449
G1 X82.187 Y98.062 E1.67714
G1 X82.755 Y97.626 E1.68979
G1 X83.416 Y97.353 E1.70245
G1 X84.125 Y97.259 E1.71510
G1 X84.834 Y97.353 E1.72775
G1 X85.495 Y97.626 E1.74041
G1 X86.063 Y98.062 E1.75306
G1 X86.499 Y98.630 E1.76571
G1 X86.772 Y99.291 E1.77836
G1 X86.866 Y100.000 E1.79102
G1 X86.782 Y100.635 E1.80234
G1 X86.772 Y100.709 E1.80367
G1 X86.285 Y100.579 F7800.000
G1 X86.062 Y101.118 F300.000 E1.81399
G1 X85.706 Y101.581 E1.82432
G1 X85.243 Y101.937 E1.83464
G1 X84.704 Y102.160 E1.84497
G1 X84.125 Y102.237 E1.85529
G1 X83.546 Y102.160 E1.86562
G1 X83.007 Y101.937 E1.87594
G1 X82.544 Y101.581 E1.88627
G1 X82.188 Y101.118 E1.89659
G1 X81.965 Y100.579 E1.90692
G1 X81.888 Y100.000 E1.91724
G1 X81.965 Y99.421 E1.92757
G1 X82.188 Y98.882 E1.93789
G1 X82.544 Y98.419 E1.94822
G1 X83.007 Y98.063 E1.95854
G1 X83.546 Y97.840 E1.96887
G1 X84.125 Y97.763 E1.97919
G1 X84.704 Y97.840 E1.98952
G1 X85.243 Y98.063 E1.99984
G1 X85.706 Y98.419 E2.01017
G1 X86.062 Y98.882 E2.02049
G1 X86.285 Y99.421 E2.03081
G1 X86.362 Y100.000 E2.04114
G1 X86.295 Y100.504 E2.05014
G1 X86.285 Y100.579 E2.05146
G1 X86.623 Y100.947 F7800.000
G1 F900.000 E1.05146
G92 E0
G1 X95.791 Y97.575 F7800.000
G1 F900.000 E1.50000
G1 X98.997 Y97.575 F900.000 E1.55668
G1 X98.997 Y100.044 E1.60034
G1 X96.995 Y100.044 E1.63573
G1 X96.995 Y105.600 E1.73399
G1 X72.459 Y105.600 E2.16789
G1 X72.459 Y94.401 E2.36594
G1 X95.791 Y94.405 E2.77855
G1 X95.791 Y97.500 E2.83329
G1 X95.791 Y97.575 E2.83461
G1 X96.291 Y97.075 F7800.000
G1 X99.497 Y97.075 F900.000 E2.89129
G1 X99.497 Y100.544 E2.95263
G1 X97.495 Y100.544 E2.98803
G1 X97.495 Y106.100 E3.08628
G1 X71.959 Y106.100 E3.53787
G1 X71.959 Y93.900 E3.75360
G1 X96.291 Y93.905 E4.18390
G1 X96.291 Y97.000 E4.23863
G1 X96.291 Y97.075 E4.23996
G1 X96.291 Y97.575 F7800.000
G1 F900.000 E3.23996
G92 E0
G1 X119.201 Y100.000 F7800.000
G1 F900.000 E1.50000
G1 X119.294 Y99.291 F300.000 E1.51265
G1 X119.568 Y98.630 E1.52531
G1 X120.003 Y98.062 E1.53796
G1 X120.571 Y97.626 E1.55061
G1 X121.232 Y97.353 E1.56326
G1 X121.941 Y97.259 E1.57592
G1 X122.651 Y97.353 E1.58857
G1 X123.312 Y97.626 E1.60122
G1 X123.879 Y98.062 E1.61388
G1 X124.315 Y98.630 E1.62653
G1 X124.589 Y99.291 E1.63918
G1 X124.682 Y100.000 E1.65183
G1 X124.589 Y100.709 E1.66449
G1 X124.315 Y101.370 E1.67714
G1 X123.879 Y101.938 E1.68979
G1 X123.312 Y102.374 E1.70245
G1 X122.651 Y102.647 E1.71510
G1 X121.941 Y102.741 E1.72775
G1 X121.232 Y102.647 E1.74041
G1 X120.571 Y102.374 E1.75306
G1 X120.003 Y101.938 E1.76571
G1 X119.568 Y101.370 E1.77836
G1 X119.294 Y100.709 E1.79102
G1 X119.210 Y100.074 E1.80234
G1 X119.201 Y100.000 E1.80367
G1 X119.705 Y100.000 F7800.000
G1 X119.781 Y99.421 F300.000 E1.81399
G1 X120.005 Y98.882 E1.82432
G1 X120.360 Y98.419 E1.83464
G1 X120.823 Y98.063 E1.84497
G1 X121.363 Y97.840 E1.85529
G1 X121.941 Y97.763 E1.86562
G1 X122.520 Y97.840 E1.87594
G1 X123.060 Y98.063 E1.88627
G1 X123.523 Y98.419 E1.89659
G1 X123.878 Y98.882 E1.90692
G1 X124.102 Y99.421 E1.91724
G1 X124.178 Y100.000 E1.92757
G1 X124.102 Y100.579 E1.93789
G1 X123.878 Y101.118 E1.94822
G1 X123.523 Y101.581 E1.95854
G1 X123.060 Y101.937 E1.96887
G1 X122.520 Y102.160 E1.97919
G1 X121.941 Y102.237 E1.98952
G1 X121.363 Y102.160 E1.99984
G1 X120.823 Y101.937 E2.01017
G1 X120.360 Y101.581 E2.02049
G1 X120.005 Y101.118 E2.03081
G1 X119.781 Y100.579 E2.04114
G1 X119.715 Y100.074 E2.05014
G1 X119.705 Y100.000 E2.05146
G1 X119.283 Y99.731 F7800.000
G1 F900.000 E1.05146
G92 E0
G1 X116.341 Y97.575 F7800.000
G1 F900.000 E1.50000
G1 X116.341 Y94.400 F900.000 E1.55615
G1 X127.541 Y94.400 E1.75421
G1 X127.541 Y105.600 E1.95227
G1 X115.138 Y105.600 E2.17161
G1 X115.138 Y100.044 E2.26987
G1 X113.136 Y100.044 E2.30526
G1 X113.136 Y97.575 E2.34892
G1 X116.266 Y97.575 E2.40427
G1 X116.341 Y97.575 E2.40560
G1 X115.841 Y97.075 F7800.000
G1 X115.841 Y93.900 F900.000 E2.46174
G1 X128.041 Y93.900 E2.67749
G1 X128.041 Y106.100 E2.89323
G1 X114.638 Y106.100 E3.13026
G1 X114.638 Y100.544 E3.22852
G1 X112.636 Y100.544 E3.26391
G1 X112.636 Y97.075 E3.32525
G1 X115.766 Y97.075 E3.38060
G1 X115.841 Y97.075 E3.38193
G1 X116.341 Y97.075 F7800.000
G1 X116.616 Y97.450
G1 X120.205 Y97.450 F1500.000 E3.44666
G1 X119.676 Y97.960 E3.45990
G1 X116.616 Y97.960 E3.51510
G1 F900.000 E2.51510
G92 E0
G1 X115.413 Y100.000 F7800.000
G1 F900.000 E1.50000
G1 X118.921 Y100.000 F1500.000 E1.56329
G1 X118.989 Y100.510 E1.57257
G1 X115.413 Y100.510 E1.63707
G1 X115.413 Y101.020 E1.64627
G1 X119.107 Y101.020 E1.71290
G1 X119.318 Y101.530 E1.72285
G1 X115.413 Y101.530 E1.79329
G1 X115.413 Y102.040 E1.80249
G1 X119.676 Y102.040 E1.87940
G1 X120.205 Y102.550 E1.89265
G1 X115.413 Y102.550 E1.97908
G1 X115.413 Y103.060 E1.98828
G1 X121.147 Y103.060 E2.09171
G1 F900.000 E1.09171
G92 E0
G1 X118.989 Y99.490 F7800.000
G1 F900.000 E1.50000
G1 X113.411 Y99.490 F1500.000 E1.60060
G1 X113.411 Y98.980 E1.60980
G1 X119.107 Y98.980 E1.71253
G1 X119.318 Y98.470 E1.72249
G1 X113.411 Y98.470 E1.82903
G1 F900.000 E0.82903
G92 E0
G1 X116.616 Y94.900 F7800.000
G1 F900.000 E1.50000
G1 X127.266 Y94.900 F1500.000 E1.69210
G1 X127.266 Y95.410 E1.70130
G1 X116.616 Y95.410 E1.89341
G1 X116.616 Y95.920 E1.90260
G1 X127.266 Y95.920 E2.09471
G1 X127.266 Y96.430 E2.10391
G1 X116.616 Y96.430 E2.29601
G1 X116.616 Y96.940 E2.30521
G1 X121.147 Y96.940 E2.38693
G1 X122.736 Y96.940 F7800.000
G1 X127.266 Y96.940 F1500.000 E2.46864
G1 X127.266 Y97.450 E2.47785
G1 X123.678 Y97.450 E2.54257
G1 X124.206 Y97.960 E2.55582
G1 X127.266 Y97.960 E2.61102
G1 X127.266 Y98.470 E2.62021
G1 X124.565 Y98.470 E2.66894
G1 X124.776 Y98.980 E2.67890
G1 X127.266 Y98.980 E2.72381
G1 X127.266 Y99.490 E2.73301
G1 X124.894 Y99.490 E2.77580
G1 X124.961 Y100.000 E2.78508
G1 X127.266 Y100.000 E2.82666
G1 X127.266 Y100.510 E2.83586
G1 X124.894 Y100.510 E2.87864
G1 X124.776 Y101.020 E2.88808
G1 X127.266 Y101.020 E2.93300
G1 X127.266 Y101.530 E2.94220
G1 X124.565 Y101.530 E2.99093
G1 X124.206 Y102.040 E3.00217
G1 X127.266 Y102.040 E3.05737
G1 X127.266 Y102.550 E3.06657
G1 X123.678 Y102.550 E3.13129
G1 X122.736 Y103.060 E3.15062
G1 X127.266 Y103.060 E3.23233
G1 X127.266 Y103.570 E3.24153
G1 X115.413 Y103.570 E3.45535
G1 X115.413 Y104.080 E3.46455
G1 X127.266 Y104.080 E3.67836
G1 X127.266 Y104.590 E3.68756
G1 X115.413 Y104.590 E3.90137
G1 X115.413 Y105.100 E3.91057
G1 X127.266 Y105.100 E4.12439
G1 F900.000 E3.12439
G92 E0
G1 X98.722 Y98.470 F7800.000
G1 F900.000 E1.50000
G1 X86.749 Y98.470 F1500.000 E1.71595
G1 X86.960 Y98.980 E1.72590
G1 X98.722 Y98.980 E1.93804
G1 X98.722 Y99.490 E1.94724
G1 X87.078 Y99.490 E2.15725
G1 X87.145 Y100.000 E2.16653
G1 X96.720 Y100.000 E2.33923
G1 X96.720 Y100.510 E2.34843
G1 X87.078 Y100.510 E2.52234
G1 X86.960 Y101.020 E2.53178
G1 X96.720 Y101.020 E2.70783
G1 X96.720 Y101.530 E2.71702
G1 X86.749 Y101.530 E2.89688
G1 X86.390 Y102.040 E2.90812
G1 X96.720 Y102.040 E3.09445
G1 X96.720 Y102.550 E3.10365
G1 X85.862 Y102.550 E3.29950
G1 X84.919 Y103.060 E3.31882
G1 X96.720 Y103.060 E3.53167
G1 X96.720 Y103.570 E3.54087
G1 X72.734 Y103.570 E3.97350
G1 X72.734 Y104.080 E3.98270
G1 X96.720 Y104.080 E4.41534
G1 X96.720 Y104.590 E4.42453
G1 X72.734 Y104.590 E4.85717
G1 X72.734 Y105.100 E4.86637
G1 X96.720 Y105.100 E5.29900
G1 F900.000 E4.29900
G92 E0
G1 X95.517 Y97.960 F7800.000
G1 F900.000 E1.50000
G1 X86.390 Y97.960 F1500.000 E1.66461
G1 X85.862 Y97.450 E1.67784
G1 X95.517 Y97.450 E1.85197
G1 X95.517 Y96.940 E1.86117
G1 X84.921 Y96.940 E2.05228
G1 X83.329 Y96.940 F7800.000
G1 X72.734 Y96.940 F1500.000 E2.24339
G1 X72.734 Y97.450 E2.25259
G1 X82.388 Y97.450 E2.42671
G1 X81.860 Y97.960 E2.43995
G1 X72.734 Y97.960 E2.60456
G1 X72.734 Y98.470 E2.61376
G1 X81.501 Y98.470 E2.77189
G1 X81.290 Y98.980 E2.78185
G1 X72.734 Y98.980 E2.93618
G1 X72.734 Y99.490 E2.94538
G1 X81.172 Y99.490 E3.09758
G1 X81.105 Y100.000 E3.10685
G1 X72.734 Y100.000 E3.25785
G1 X72.734 Y100.510 E3.26704
G1 X81.172 Y100.510 E3.41925
G1 X81.290 Y101.020 E3.42869
G1 X72.734 Y101.020 E3.58302
G1 X72.734 Y101.530 E3.59222
G1 X81.501 Y101.530 E3.75036
G1 X81.860 Y102.040 E3.76161
G1 X72.734 Y102.040 E3.92622
G1 X72.734 Y102.550 E3.93542
G1 X82.388 Y102.550 E4.10956
G1 X83.331 Y103.060 E4.12888
G1 X72.734 Y103.060 E4.32002
G1 F900.000 E3.32002
G92 E0
G1 X72.734 Y96.430 F7800.000
G1 F900.000 E1.50000
G1 X95.517 Y96.430 F1500.000 E1.91093
G1 X95.517 Y95.920 E1.92013
G1 X72.734 Y95.920 E2.33105
G1 X72.734 Y95.411 E2.34025
G1 X95.517 Y95.411 E2.75118
G1 F900.000 E1.75118
G92 E0
G1 X73.708 Y94.901 F7800.000
G1 F900.000 E1.50000
G1 X72.734 Y94.901 F1500.000 E1.51757
M106 S235
G1 F900.000 E0.51757
G92 E0
G1 Z0.500 F7800.000
G1 X81.405 Y98.430
G1 F900.000 E1.50000
G1 X81.905 Y97.778 F600.000 E1.52169
G1 X82.555 Y97.280 E1.54328
G1 X83.312 Y96.966 E1.56493
G1 X84.125 Y96.859 E1.58657
G1 X84.299 Y96.882 E1.59120
G1 X84.938 Y96.966 E1.60821
G1 X85.695 Y97.280 E1.62985
G1 X86.346 Y97.779 E1.65149
G1 X86.845 Y98.430 E1.67313
G1 X87.159 Y99.187 E1.69478
G1 X87.266 Y100.000 E1.71642
G1 X87.159 Y100.813 E1.73806
G1 X86.912 Y101.408 E1.75507
G1 X86.845 Y101.570 E1.75970
G1 X86.347 Y102.219 E1.78128
G1 X85.695 Y102.720 E1.80298
G1 X84.938 Y103.034 E1.82462
G1 X84.125 Y103.141 E1.84627
G1 X83.951 Y103.118 E1.85090
G1 X83.312 Y103.034 E1.86791
G1 X82.555 Y102.720 E1.88955
G1 X81.904 Y102.221 E1.91119
G1 X81.405 Y101.570 E1.93283
G1 X81.091 Y100.813 E1.95448
G1 X80.984 Y100.000 E1.97612
G1 X81.091 Y99.187 E1.99776
G1 X81.362 Y98.533 E2.01645
G1 X81.405 Y98.430 E2.01940
G1 X82.057 Y98.806 F7800.000
G1 X82.437 Y98.311 F600.000 E2.03587
G1 X82.931 Y97.932 E2.05231
G1 X83.507 Y97.694 E2.06876
G1 X84.125 Y97.612 E2.08522
G1 X84.201 Y97.622 E2.08725
G1 X84.743 Y97.694 E2.10167
G1 X85.319 Y97.932 E2.11813
G1 X85.813 Y98.312 E2.13458
