; generated by Slic3r 0.9.8 on 2013-05-22 at 07:13:14

; layer_height = .25
; perimeters = 1
; top_solid_layers = 4
; bottom_solid_layers = 4
; fill_density = .9
; perimeter_speed = 30
; infill_speed = 40
; travel_speed = 130
; scale = 1
; nozzle_diameter = 0.5
; filament_diameter = 3
; extrusion_multiplier = 1
; perimeters extrusion width = 0.80mm
; infill extrusion width = 0.80mm
; first layer extrusion width = 0.50mm

M107
M104 S225 ; set temperature
G28 ; home all axes
M109 S225 ; wait for temperature to be reached
G90 ; use absolute coordinates
G21 ; set units to millimeters
G92 E0
M82 ; use absolute distances for extrusion
G1 F900.000 E-1.00000
G92 E0
G1 Z0.250 F7800.000
G1 X144.417 Y137.141
G1 F900.000 E1.50000
G1 X55.567 Y137.141 F900.000 E3.07121
G1 X55.017 Y137.121 E3.08095
G1 X54.197 Y137.011 E3.09558
G1 X53.667 Y136.881 E3.10523
G1 X53.147 Y136.711 E3.11490
G1 X52.387 Y136.381 E3.12955
G1 X51.907 Y136.111 E3.13929
G1 X51.237 Y135.641 E3.15376
G1 X51.017 Y135.461 E3.15879
G1 X50.617 Y135.091 E3.16843
G1 X50.067 Y134.471 E3.18308
G1 X49.597 Y133.801 E3.19756
G1 X49.327 Y133.321 E3.20730
G1 X49.097 Y132.821 E3.21703
G1 X48.827 Y132.041 E3.23162
G1 X48.697 Y131.511 E3.24127
G1 X48.587 Y130.691 E3.25591
G1 X48.567 Y130.141 E3.26564
G1 X48.567 Y69.841 E4.33198
G1 X48.587 Y69.291 E4.34171
G1 X48.697 Y68.471 E4.35634
G1 X48.827 Y67.941 E4.36599
G1 X48.997 Y67.421 E4.37566
G1 X49.207 Y66.911 E4.38542
G1 X49.457 Y66.421 E4.39515
G1 X49.747 Y65.951 E4.40491
G1 X50.247 Y65.291 E4.41955
G1 X50.617 Y64.891 E4.42919
G1 X51.017 Y64.521 E4.43883
G1 X51.677 Y64.021 E4.45347
G1 X52.147 Y63.731 E4.46323
G1 X52.637 Y63.481 E4.47296
G1 X53.147 Y63.271 E4.48271
G1 X53.667 Y63.101 E4.49239
G1 X54.197 Y62.971 E4.50204
G1 X55.017 Y62.861 E4.51667
G1 X55.567 Y62.841 E4.52640
G1 X144.417 Y62.841 E6.09762
G1 X144.967 Y62.861 E6.10735
G1 X145.787 Y62.971 E6.12198
G1 X146.317 Y63.101 E6.13163
G1 X146.837 Y63.271 E6.14130
G1 X147.597 Y63.601 E6.15596
G1 X148.077 Y63.871 E6.16570
G1 X148.747 Y64.341 E6.18017
G1 X148.967 Y64.521 E6.18519
G1 X149.367 Y64.891 E6.19483
G1 X149.917 Y65.511 E6.20949
G1 X150.387 Y66.181 E6.22396
G1 X150.657 Y66.661 E6.23370
G1 X150.887 Y67.161 E6.24343
G1 X151.157 Y67.941 E6.25803
G1 X151.287 Y68.471 E6.26768
G1 X151.397 Y69.291 E6.28231
G1 X151.417 Y69.841 E6.29204
G1 X151.417 Y130.141 E7.35838
G1 X151.397 Y130.691 E7.36811
G1 X151.287 Y131.511 E7.38274
G1 X151.157 Y132.041 E7.39239
G1 X150.887 Y132.821 E7.40699
G1 X150.657 Y133.321 E7.41672
G1 X150.387 Y133.801 E7.42646
G1 X149.917 Y134.471 E7.44093
G1 X149.557 Y134.891 E7.45072
G1 X149.167 Y135.281 E7.46047
G1 X148.747 Y135.641 E7.47025
G1 X148.077 Y136.111 E7.48472
G1 X147.597 Y136.381 E7.49446
G1 X147.097 Y136.611 E7.50420
G1 X146.317 Y136.881 E7.51879
G1 X145.787 Y137.011 E7.52844
G1 X144.967 Y137.121 E7.54307
G1 X144.492 Y137.138 E7.55148
G1 X144.417 Y137.141 E7.55281
G1 X144.417 Y136.641 F7800.000
G1 X55.567 Y136.641 F900.000 E9.12402
G1 X55.047 Y136.621 E9.13322
G1 X54.527 Y136.561 E9.14248
G1 X54.007 Y136.451 E9.15188
G1 X53.507 Y136.311 E9.16106
G1 X53.267 Y136.221 E9.16559
G1 X52.777 Y136.011 E9.17502
G1 X52.317 Y135.771 E9.18419
G1 X51.667 Y135.341 E9.19798
G1 X51.257 Y135.011 E9.20728
G1 X50.697 Y134.451 E9.22129
G1 X50.367 Y134.041 E9.23059
G1 X49.937 Y133.391 E9.24438
G1 X49.807 Y133.161 E9.24905
G1 X49.587 Y132.691 E9.25823
G1 X49.397 Y132.201 E9.26752
G1 X49.197 Y131.441 E9.28142
G1 X49.147 Y131.181 E9.28610
G1 X49.087 Y130.661 E9.29536
G1 X49.067 Y130.141 E9.30456
G1 X49.067 Y69.841 E10.37090
G1 X49.087 Y69.321 E10.38010
G1 X49.147 Y68.801 E10.38936
G1 X49.257 Y68.281 E10.39875
G1 X49.397 Y67.781 E10.40794
G1 X49.587 Y67.291 E10.41723
G1 X49.807 Y66.821 E10.42641
G1 X50.217 Y66.151 E10.44030
G1 X50.697 Y65.531 E10.45416
G1 X50.877 Y65.341 E10.45879
G1 X51.257 Y64.971 E10.46817
G1 X51.667 Y64.641 E10.47748
G1 X52.317 Y64.211 E10.49126
G1 X52.777 Y63.971 E10.50044
G1 X53.507 Y63.671 E10.51439
G1 X54.007 Y63.531 E10.52357
G1 X54.527 Y63.421 E10.53297
G1 X55.047 Y63.361 E10.54223
G1 X55.567 Y63.341 E10.55143
G1 X144.417 Y63.341 E12.12265
G1 X144.937 Y63.361 E12.13185
G1 X145.457 Y63.421 E12.14110
G1 X145.977 Y63.531 E12.15050
G1 X146.477 Y63.671 E12.15969
G1 X146.717 Y63.761 E12.16422
G1 X147.207 Y63.971 E12.17365
G1 X147.667 Y64.211 E12.18282
G1 X148.317 Y64.641 E12.19660
G1 X148.727 Y64.971 E12.20591
G1 X149.287 Y65.531 E12.21991
G1 X149.617 Y65.941 E12.22922
G1 X150.047 Y66.591 E12.24300
G1 X150.177 Y66.821 E12.24768
G1 X150.397 Y67.291 E12.25685
G1 X150.587 Y67.781 E12.26615
G1 X150.787 Y68.541 E12.28004
G1 X150.837 Y68.801 E12.28473
G1 X150.897 Y69.321 E12.29398
G1 X150.917 Y69.841 E12.30319
G1 X150.917 Y130.141 E13.36952
G1 X150.897 Y130.661 E13.37873
G1 X150.837 Y131.181 E13.38798
G1 X150.787 Y131.441 E13.39266
G1 X150.587 Y132.201 E13.40656
G1 X150.397 Y132.691 E13.41586
G1 X150.177 Y133.161 E13.42503
G1 X150.047 Y133.391 E13.42970
G1 X149.617 Y134.041 E13.44349
G1 X149.287 Y134.451 E13.45279
G1 X148.727 Y135.011 E13.46680
G1 X148.317 Y135.341 E13.47611
G1 X147.667 Y135.771 E13.48989
G1 X147.207 Y136.011 E13.49906
G1 X146.717 Y136.221 E13.50849
G1 X146.477 Y136.311 E13.51302
G1 X145.977 Y136.451 E13.52221
G1 X145.457 Y136.561 E13.53160
G1 X144.937 Y136.621 E13.54086
G1 X144.492 Y136.638 E13.54874
G1 X144.417 Y136.641 E13.55006
G1 F900.000 E12.55006
G92 E0
G1 X138.637 Y94.730 F7800.000
G1 F900.000 E1.50000
G1 X137.927 Y94.821 F300.000 E1.51266
G1 X137.217 Y94.730 E1.52532
G1 X136.557 Y94.454 E1.53797
G1 X135.989 Y94.021 E1.55060
G1 X135.552 Y93.451 E1.56330
G1 X135.278 Y92.790 E1.57596
G1 X135.187 Y92.081 E1.58860
G1 X135.278 Y91.372 E1.60123
G1 X135.552 Y90.710 E1.61391
G1 X135.989 Y90.144 E1.62656
G1 X136.557 Y89.708 E1.63921
G1 X137.217 Y89.434 E1.65185
G1 X137.927 Y89.340 E1.66452
G1 X138.637 Y89.434 E1.67718
G1 X139.298 Y89.708 E1.68983
G1 X139.864 Y90.144 E1.70247
G1 X140.300 Y90.710 E1.71510
G1 X140.574 Y91.371 E1.72775
G1 X140.667 Y92.081 E1.74041
G1 X140.574 Y92.791 E1.75308
G1 X140.300 Y93.451 E1.76571
G1 X139.864 Y94.020 E1.77839
G1 X139.298 Y94.453 E1.79100
G1 X138.706 Y94.701 E1.80234
G1 X138.637 Y94.730 E1.80367
G1 X138.506 Y94.243 F7800.000
G1 X137.927 Y94.317 F300.000 E1.81400
G1 X137.348 Y94.243 E1.82432
G1 X136.809 Y94.017 E1.83465
G1 X136.345 Y93.664 E1.84497
G1 X135.989 Y93.199 E1.85532
G1 X135.765 Y92.660 E1.86564
G1 X135.691 Y92.081 E1.87596
G1 X135.765 Y91.502 E1.88628
G1 X135.989 Y90.963 E1.89661
G1 X136.345 Y90.501 E1.90693
G1 X136.809 Y90.145 E1.91727
G1 X137.348 Y89.921 E1.92758
G1 X137.927 Y89.845 E1.93791
G1 X138.506 Y89.921 E1.94825
G1 X139.045 Y90.145 E1.95857
G1 X139.507 Y90.501 E1.96888
G1 X139.863 Y90.963 E1.97919
G1 X140.086 Y91.502 E1.98951
G1 X140.163 Y92.081 E1.99984
G1 X140.086 Y92.660 E2.01018
G1 X139.863 Y93.199 E2.02049
G1 X139.507 Y93.663 E2.03084
G1 X139.045 Y94.017 E2.04113
G1 X138.576 Y94.214 E2.05013
G1 X138.506 Y94.243 E2.05146
G1 X138.356 Y94.719 F7800.000
G1 F900.000 E1.05146
G92 E0
G1 X64.803 Y91.837 F7800.000
G1 F900.000 E1.50000
G1 X64.772 Y92.554 F300.000 E1.51269
G1 X64.557 Y93.236 E1.52534
G1 X64.173 Y93.841 E1.53801
G1 X63.646 Y94.324 E1.55065
G1 X63.013 Y94.656 E1.56329
G1 X62.313 Y94.810 E1.57596
G1 X61.599 Y94.780 E1.58860
G1 X60.916 Y94.567 E1.60125
G1 X60.314 Y94.183 E1.61389
G1 X59.828 Y93.657 E1.62655
G1 X59.496 Y93.023 E1.63920
G1 X59.342 Y92.323 E1.65187
G1 X59.372 Y91.608 E1.66453
G1 X59.587 Y90.927 E1.67716
G1 X59.968 Y90.322 E1.68980
G1 X60.497 Y89.838 E1.70249
G1 X61.132 Y89.506 E1.71516
G1 X61.831 Y89.351 E1.72781
G1 X62.543 Y89.382 E1.74041
G1 X63.225 Y89.595 E1.75305
G1 X63.831 Y89.979 E1.76574
G1 X64.314 Y90.507 E1.77840
G1 X64.645 Y91.140 E1.79104
G1 X64.786 Y91.764 E1.80234
G1 X64.803 Y91.837 E1.80366
G1 X64.300 Y91.882 F7800.000
G1 X64.275 Y92.467 F300.000 E1.81401
G1 X64.100 Y93.023 E1.82433
G1 X63.786 Y93.517 E1.83467
G1 X63.356 Y93.911 E1.84499
G1 X62.840 Y94.182 E1.85530
G1 X62.269 Y94.308 E1.86563
G1 X61.686 Y94.283 E1.87596
G1 X61.129 Y94.110 E1.88627
G1 X60.637 Y93.796 E1.89658
G1 X60.241 Y93.366 E1.90693
G1 X59.970 Y92.850 E1.91724
G1 X59.844 Y92.279 E1.92757
G1 X59.869 Y91.695 E1.93791
G1 X60.044 Y91.139 E1.94822
G1 X60.355 Y90.645 E1.95854
G1 X60.786 Y90.251 E1.96888
G1 X61.305 Y89.980 E1.97922
G1 X61.875 Y89.854 E1.98955
G1 X62.456 Y89.879 E1.99984
G1 X63.013 Y90.052 E2.01015
G1 X63.507 Y90.366 E2.02049
G1 X63.901 Y90.796 E2.03082
G1 X64.172 Y91.314 E2.04115
G1 X64.284 Y91.809 E2.05013
G1 X64.300 Y91.882 E2.05145
G1 X64.744 Y92.112 F7800.000
G1 F900.000 E1.05145
G92 E0
G1 X91.214 Y97.645 F7800.000
G1 F900.000 E1.50000
G1 X92.124 Y95.453 F900.000 E1.54197
G1 X93.568 Y93.568 E1.58396
G1 X95.453 Y92.124 E1.62595
G1 X97.645 Y91.214 E1.66792
G1 X99.999 Y90.905 E1.70991
G1 X102.353 Y91.214 E1.75189
G1 X104.545 Y92.124 E1.79387
G1 X106.430 Y93.568 E1.83586
G1 X107.874 Y95.452 E1.87784
G1 X108.784 Y97.645 E1.91981
G1 X109.087 Y99.950 E1.96092
G1 X109.087 Y109.574 E2.13112
G1 X108.784 Y111.879 E2.17223
G1 X107.874 Y114.071 E2.21420
G1 X106.430 Y115.956 E2.25619
G1 X104.545 Y117.400 E2.29818
G1 X102.353 Y118.310 E2.34015
G1 X99.999 Y118.619 E2.38214
G1 X97.645 Y118.310 E2.42412
G1 X95.453 Y117.400 E2.46609
G1 X93.568 Y115.956 E2.50809
G1 X92.124 Y114.072 E2.55007
G1 X91.214 Y111.879 E2.59204
G1 X90.911 Y109.574 E2.63315
G1 X90.911 Y99.950 E2.80335
G1 X91.205 Y97.719 E2.84313
G1 X91.214 Y97.645 E2.84446
G1 X91.701 Y97.776 F7800.000
G1 X92.561 Y95.705 F900.000 E2.88410
G1 X93.925 Y93.925 E2.92376
G1 X95.705 Y92.561 E2.96343
G1 X97.776 Y91.701 E3.00307
G1 X99.999 Y91.409 E3.04273
G1 X102.222 Y91.701 E3.08238
G1 X104.293 Y92.561 E3.12203
G1 X106.073 Y93.925 E3.16169
G1 X107.437 Y95.705 E3.20135
G1 X108.297 Y97.776 E3.24100
G1 X108.587 Y99.983 E3.28036
G1 X108.587 Y109.541 E3.44940
G1 X108.297 Y111.748 E3.48876
G1 X107.437 Y113.819 E3.52841
G1 X106.073 Y115.599 E3.56807
G1 X104.293 Y116.963 E3.60773
G1 X102.222 Y117.823 E3.64737
G1 X99.999 Y118.115 E3.68703
G1 X97.776 Y117.823 E3.72669
G1 X95.705 Y116.963 E3.76633
G1 X93.925 Y115.599 E3.80599
G1 X92.561 Y113.819 E3.84565
G1 X91.701 Y111.748 E3.88530
G1 X91.411 Y109.541 E3.92466
G1 X91.411 Y99.983 E4.09370
G1 X91.692 Y97.850 E4.13174
G1 X91.701 Y97.776 E4.13306
G1 X91.364 Y97.407 F7800.000
G1 F900.000 E3.13306
G92 E0
G1 X56.077 Y70.351 F7800.000
G1 F900.000 E1.50000
G1 X143.923 Y70.351 F900.000 E3.05346
G1 X143.923 Y129.649 E4.10208
G1 X56.077 Y129.649 E5.65554
G1 X56.077 Y70.426 E6.70283
G1 X56.077 Y70.351 E6.70416
G1 X55.577 Y69.851 F7800.000
G1 X144.423 Y69.851 F900.000 E8.27530
G1 X144.423 Y130.149 E9.34160
G1 X55.577 Y130.149 E10.91275
G1 X55.577 Y69.926 E11.97772
G1 X55.577 Y69.851 E11.97905
G1 X56.010 Y70.101 F7800.000
G1 X56.352 Y70.851
G1 X143.648 Y70.851 F1500.000 E13.53071
G1 X143.648 Y71.353 E13.53964
G1 X56.352 Y71.353 E15.09130
G1 X56.352 Y71.856 E15.10024
G1 X143.648 Y71.856 E16.65191
G1 X143.648 Y72.359 E16.66085
G1 X56.352 Y72.359 E18.21251
G1 X56.352 Y72.861 E18.22144
G1 X143.648 Y72.861 E19.77310
G1 X143.648 Y73.364 E19.78204
G1 X56.352 Y73.364 E21.33371
G1 X56.352 Y73.866 E21.34263
G1 X143.648 Y73.866 E22.89429
G1 X143.648 Y74.369 E22.90323
G1 X56.352 Y74.369 E24.45490
G1 X56.352 Y74.871 E24.46382
G1 X143.648 Y74.871 E26.01549
G1 X143.648 Y75.374 E26.02443
G1 X56.352 Y75.374 E27.57609
G1 X56.352 Y75.877 E27.58503
G1 X143.648 Y75.877 E29.13670
G1 X143.648 Y76.379 E29.14562
G1 X56.352 Y76.379 E30.69728
G1 X56.352 Y76.882 E30.70622
G1 X143.648 Y76.882 E32.25789
G1 X143.648 Y77.384 E32.26681
G1 X56.352 Y77.384 E33.81848
G1 X56.352 Y77.887 E33.82742
G1 X143.648 Y77.887 E35.37908
G1 X143.648 Y78.389 E35.38800
G1 X56.352 Y78.389 E36.93967
G1 X56.352 Y78.892 E36.94861
G1 X143.648 Y78.892 E38.50027
G1 X143.648 Y79.395 E38.50921
G1 X56.352 Y79.395 E40.06088
G1 X56.352 Y79.897 E40.06980
G1 X143.648 Y79.897 E41.62147
G1 X143.648 Y80.400 E41.63041
G1 X56.352 Y80.400 E43.18207
G1 X56.352 Y80.902 E43.19099
G1 X143.648 Y80.902 E44.74266
G1 X143.648 Y81.405 E44.75160
G1 X56.352 Y81.405 E46.30326
G1 X56.352 Y81.907 E46.31219
G1 X143.648 Y81.907 E47.86385
G1 X143.648 Y82.410 E47.87279
G1 X56.352 Y82.410 E49.42446
G1 X56.352 Y82.913 E49.43340
G1 X143.648 Y82.913 E50.98506
G1 X143.648 Y83.415 E50.99398
G1 X56.352 Y83.415 E52.54565
G1 X56.352 Y83.918 E52.55459
G1 X143.648 Y83.918 E54.10625
G1 X143.648 Y84.420 E54.11518
G1 X56.352 Y84.420 E55.66684
G1 X56.352 Y84.923 E55.67578
G1 X143.648 Y84.923 E57.22745
G1 X143.648 Y85.425 E57.23637
G1 X56.352 Y85.425 E58.78803
G1 X56.352 Y85.928 E58.79698
G1 X143.648 Y85.928 E60.34864
G1 X143.648 Y86.431 E60.35758
G1 X56.352 Y86.431 E61.90925
G1 X56.352 Y86.933 E61.91817
G1 X143.648 Y86.933 E63.46983
G1 X143.648 Y87.436 E63.47877
G1 X56.352 Y87.436 E65.03044
G1 X56.352 Y87.938 E65.03936
G1 X143.648 Y87.938 E66.59103
G1 X143.648 Y88.441 E66.59997
G1 X56.352 Y88.441 E68.15163
G1 X56.352 Y88.943 E68.16055
G1 X61.586 Y88.943 E68.25359
G1 X62.591 Y88.943 F7800.000
G1 X137.341 Y88.943 F1500.000 E69.58225
G1 X138.513 Y88.943 F7800.000
G1 X143.648 Y88.943 F1500.000 E69.67352
G1 X143.648 Y89.446 E69.68246
G1 X139.552 Y89.446 E69.75526
G1 X140.119 Y89.949 E69.76873
G1 X143.648 Y89.949 E69.83146
G1 X143.648 Y90.451 E69.84039
G1 X140.506 Y90.451 E69.89624
G1 X140.717 Y90.954 E69.90593
G1 X143.648 Y90.954 E69.95803
G1 X143.648 Y91.456 E69.96696
G1 X140.864 Y91.456 E70.01645
G1 X140.931 Y91.959 E70.02546
G1 X143.648 Y91.959 E70.07375
G1 X143.648 Y92.461 E70.08268
G1 X140.896 Y92.461 E70.13160
G1 X140.818 Y92.964 E70.14064
G1 X143.648 Y92.964 E70.19094
G1 X143.648 Y93.467 E70.19988
G1 X140.610 Y93.467 E70.25387
G1 X140.308 Y93.969 E70.26430
G1 X143.648 Y93.969 E70.32366
G1 X143.648 Y94.472 E70.33260
G1 X139.871 Y94.472 E70.39973
G1 X139.123 Y94.974 E70.41575
G1 X143.648 Y94.974 E70.49618
G1 F900.000 E69.49618
G92 E0
G1 X143.648 Y118.595 F7800.000
G1 F900.000 E1.50000
G1 X102.745 Y118.595 F1500.000 E2.22705
G1 X103.956 Y118.092 E2.25036
G1 X143.648 Y118.092 E2.95588
G1 X143.648 Y117.590 E2.96481
G1 X104.894 Y117.590 E3.65364
G1 X105.550 Y117.087 E3.66833
G1 X143.648 Y117.087 E4.34551
G1 X143.648 Y116.585 E4.35444
G1 X106.206 Y116.585 E5.01996
G1 X106.738 Y116.082 E5.03297
G1 X143.648 Y116.082 E5.68904
G1 X143.648 Y115.580 E5.69797
G1 X107.123 Y115.580 E6.34719
G1 X107.508 Y115.077 E6.35844
G1 X143.648 Y115.077 E7.00082
G1 X143.648 Y114.574 E7.00976
G1 X107.893 Y114.574 E7.64529
G1 X108.190 Y114.072 E7.65566
G1 X143.648 Y114.072 E8.28592
G1 X143.648 Y113.569 E8.29485
G1 X108.399 Y113.569 E8.92140
G1 X108.607 Y113.067 E8.93107
G1 X143.648 Y113.067 E9.55392
G1 X143.648 Y112.564 E9.56285
G1 X108.816 Y112.564 E10.18199
G1 X109.024 Y112.062 E10.19166
G1 X143.648 Y112.062 E10.80709
G1 X143.648 Y111.559 E10.81602
G1 X109.105 Y111.559 E11.43002
G1 X109.171 Y111.057 E11.43902
G1 X143.648 Y111.057 E12.05184
G1 X143.648 Y110.554 E12.06078
G1 X109.237 Y110.554 E12.67242
G1 X109.303 Y110.051 E12.68143
G1 X143.648 Y110.051 E13.29189
G1 X143.648 Y109.549 E13.30083
G1 X109.362 Y109.549 E13.91026
G1 X109.362 Y109.046 E13.91919
G1 X143.648 Y109.046 E14.52861
G1 X143.648 Y108.544 E14.53755
G1 X109.362 Y108.544 E15.14697
G1 X109.362 Y108.041 E15.15591
G1 X143.648 Y108.041 E15.76533
G1 X143.648 Y107.539 E15.77427
G1 X109.362 Y107.539 E16.38369
G1 X109.362 Y107.036 E16.39263
G1 X143.648 Y107.036 E17.00205
G1 X143.648 Y106.533 E17.01099
G1 X109.362 Y106.533 E17.62041
G1 X109.362 Y106.031 E17.62935
G1 X143.648 Y106.031 E18.23877
G1 X143.648 Y105.528 E18.24771
G1 X109.362 Y105.528 E18.85713
G1 X109.362 Y105.026 E18.86607
G1 X143.648 Y105.026 E19.47549
