; generated by Slic3r 0.9.8 on 2013-07-07 at 10:22:27

; layer_height = .25
; perimeters = 1
; top_solid_layers = 4
; bottom_solid_layers = 4
; fill_density = .9
; perimeter_speed = 30
; infill_speed = 40
; travel_speed = 130
; scale = 1
; nozzle_diameter = 0.5
; filament_diameter = 3
; extrusion_multiplier = 1
; perimeters extrusion width = 0.80mm
; infill extrusion width = 0.80mm
; first layer extrusion width = 0.50mm

M107
M104 S220 ; set temperature
G28 ; home all axes
M109 S220 ; wait for temperature to be reached
G90 ; use absolute coordinates
G21 ; set units to millimeters
G92 E0
M82 ; use absolute distances for extrusion
G1 Z0.250 F7800.000
G1 X112.232 Y110.029
G1 X112.012 Y110.209 F900.000 E0.00503
G1 X111.342 Y110.679 E0.01950
G1 X110.862 Y110.949 E0.02924
G1 X110.102 Y111.279 E0.04389
G1 X109.582 Y111.449 E0.05357
G1 X109.052 Y111.579 E0.06322
G1 X108.232 Y111.689 E0.07785
G1 X107.682 Y111.709 E0.08758
G1 X92.302 Y111.709 E0.35956
G1 X91.752 Y111.689 E0.36929
G1 X90.932 Y111.579 E0.38392
G1 X90.672 Y111.519 E0.38864
G1 X90.142 Y111.369 E0.39838
G1 X89.622 Y111.179 E0.40817
G1 X89.122 Y110.949 E0.41790
G1 X88.642 Y110.679 E0.42764
G1 X87.972 Y110.209 E0.44211
G1 X87.352 Y109.659 E0.45677
G1 X86.982 Y109.259 E0.46641
G1 X86.482 Y108.599 E0.48105
G1 X86.062 Y107.889 E0.49564
G1 X85.732 Y107.129 E0.51029
G1 X85.492 Y106.339 E0.52489
G1 X85.432 Y106.079 E0.52961
G1 X85.352 Y105.529 E0.53944
G1 X85.322 Y105.259 E0.54424
G1 X85.302 Y104.709 E0.55397
G1 X85.302 Y95.299 E0.72038
G1 X85.322 Y94.749 E0.73011
G1 X85.432 Y93.929 E0.74474
G1 X85.562 Y93.399 E0.75439
G1 X85.732 Y92.879 E0.76407
G1 X85.942 Y92.369 E0.77382
G1 X86.192 Y91.879 E0.78355
G1 X86.482 Y91.409 E0.79331
G1 X86.802 Y90.969 E0.80293
G1 X87.162 Y90.549 E0.81272
G1 X87.552 Y90.159 E0.82247
G1 X87.962 Y89.799 E0.83212
G1 X88.642 Y89.329 E0.84674
G1 X89.122 Y89.059 E0.85648
G1 X89.872 Y88.729 E0.87097
G1 X90.662 Y88.489 E0.88557
G1 X91.202 Y88.389 E0.89528
G1 X91.752 Y88.319 E0.90508
G1 X92.302 Y88.299 E0.91481
G1 X107.682 Y88.289 E1.18679
G1 X108.222 Y88.309 E1.19635
G1 X109.042 Y88.419 E1.21098
G1 X109.312 Y88.479 E1.21587
G1 X109.842 Y88.629 E1.22561
G1 X110.362 Y88.819 E1.23540
G1 X111.102 Y89.179 E1.24995
G1 X111.572 Y89.469 E1.25972
G1 X112.012 Y89.789 E1.26934
G1 X112.632 Y90.339 E1.28400
G1 X113.182 Y90.949 E1.29852
G1 X113.652 Y91.629 E1.31314
G1 X113.922 Y92.109 E1.32288
G1 X114.252 Y92.869 E1.33753
G1 X114.492 Y93.659 E1.35213
G1 X114.552 Y93.919 E1.35685
G1 X114.632 Y94.469 E1.36668
G1 X114.662 Y94.739 E1.37148
G1 X114.682 Y95.289 E1.38122
G1 X114.682 Y104.709 E1.54780
G1 X114.662 Y105.259 E1.55753
G1 X114.552 Y106.079 E1.57216
G1 X114.422 Y106.609 E1.58181
G1 X114.252 Y107.129 E1.59149
G1 X114.042 Y107.639 E1.60124
G1 X113.792 Y108.129 E1.61097
G1 X113.502 Y108.599 E1.62073
G1 X113.182 Y109.039 E1.63035
G1 X112.632 Y109.659 E1.64501
G1 X112.288 Y109.979 E1.65332
G1 X112.232 Y110.029 E1.65465
G1 X111.992 Y109.579 F7800.000
G1 X111.582 Y109.909 F900.000 E1.66395
G1 X110.932 Y110.339 E1.67774
G1 X110.472 Y110.579 E1.68691
G1 X109.982 Y110.789 E1.69634
G1 X109.742 Y110.879 E1.70087
G1 X109.242 Y111.019 E1.71005
G1 X108.722 Y111.129 E1.71945
G1 X108.202 Y111.189 E1.72871
G1 X107.682 Y111.209 E1.73791
G1 X92.302 Y111.209 E2.00989
G1 X91.782 Y111.189 E2.01909
G1 X91.262 Y111.129 E2.02835
G1 X91.002 Y111.079 E2.03303
G1 X90.242 Y110.879 E2.04693
G1 X90.002 Y110.789 E2.05146
G1 X89.282 Y110.469 E2.06539
G1 X89.052 Y110.339 E2.07007
G1 X88.402 Y109.909 E2.08385
G1 X87.992 Y109.579 E2.09315
G1 X87.432 Y109.019 E2.10716
G1 X86.952 Y108.399 E2.12103
G1 X86.542 Y107.729 E2.13492
G1 X86.222 Y107.009 E2.14885
G1 X86.132 Y106.769 E2.15338
G1 X85.992 Y106.269 E2.16256
G1 X85.882 Y105.749 E2.17196
G1 X85.822 Y105.229 E2.18122
G1 X85.802 Y104.709 E2.19042
G1 X85.802 Y95.299 E2.35683
G1 X85.822 Y94.779 E2.36603
G1 X85.882 Y94.259 E2.37529
G1 X85.992 Y93.749 E2.38451
G1 X86.132 Y93.239 E2.39387
G1 X86.322 Y92.749 E2.40316
G1 X86.542 Y92.279 E2.41234
G1 X86.672 Y92.049 E2.41701
G1 X87.102 Y91.399 E2.43079
G1 X87.432 Y90.989 E2.44010
G1 X87.802 Y90.609 E2.44948
G1 X88.392 Y90.109 E2.46315
G1 X88.822 Y89.809 E2.47242
G1 X89.512 Y89.429 E2.48635
G1 X89.992 Y89.219 E2.49562
G1 X90.742 Y88.989 E2.50949
G1 X91.252 Y88.879 E2.51872
G1 X91.772 Y88.819 E2.52797
G1 X92.302 Y88.799 E2.53735
G1 X107.682 Y88.789 E2.80933
G1 X108.202 Y88.809 E2.81853
G1 X108.722 Y88.869 E2.82779
G1 X108.982 Y88.919 E2.83247
G1 X109.742 Y89.119 E2.84637
G1 X109.982 Y89.209 E2.85090
G1 X110.702 Y89.529 E2.86484
G1 X110.932 Y89.659 E2.86951
G1 X111.372 Y89.939 E2.87873
G1 X111.792 Y90.249 E2.88796
G1 X112.372 Y90.789 E2.90198
G1 X112.882 Y91.379 E2.91577
G1 X113.312 Y92.039 E2.92970
G1 X113.552 Y92.499 E2.93887
G1 X113.852 Y93.229 E2.95283
G1 X114.052 Y93.989 E2.96673
G1 X114.102 Y94.249 E2.97141
G1 X114.162 Y94.769 E2.98067
G1 X114.182 Y95.289 E2.98987
G1 X114.182 Y104.709 E3.15645
G1 X114.162 Y105.229 E3.16565
G1 X114.102 Y105.749 E3.17491
G1 X113.992 Y106.269 E3.18431
G1 X113.852 Y106.769 E3.19349
G1 X113.662 Y107.259 E3.20278
G1 X113.442 Y107.729 E3.21196
G1 X113.312 Y107.959 E3.21663
G1 X112.882 Y108.609 E3.23041
G1 X112.552 Y109.019 E3.23972
G1 X112.047 Y109.527 E3.25240
G1 X111.992 Y109.579 E3.25373
G1 X107.187 Y104.211 F7800.000
G1 X92.812 Y104.211 F300.000 E3.50793
G1 X92.812 Y102.536 E3.53755
G1 X107.187 Y102.536 E3.79176
G1 X107.187 Y104.136 E3.82005
G1 X107.187 Y104.211 E3.82138
G1 X107.687 Y104.711 F7800.000
G1 X92.312 Y104.711 F300.000 E4.09327
G1 X92.312 Y102.036 E4.14057
G1 X107.687 Y102.036 E4.41246
G1 X107.687 Y104.636 E4.45844
G1 X107.687 Y104.711 E4.45977
G1 X107.254 Y104.461 F7800.000
G1 X107.187 Y97.464
G1 X92.812 Y97.464 F300.000 E4.71397
G1 X92.812 Y95.807 E4.74328
G1 X107.187 Y95.790 E4.99748
G1 X107.187 Y97.389 E5.02576
G1 X107.187 Y97.464 E5.02709
G1 X107.687 Y97.964 F7800.000
G1 X92.312 Y97.964 F300.000 E5.29898
G1 X92.312 Y95.308 E5.34595
G1 X107.687 Y95.289 E5.61784
G1 X107.687 Y97.889 E5.66381
G1 X107.687 Y97.964 E5.66514
G1 X107.254 Y97.714 F7800.000
G1 X106.913 Y103.036
G1 X93.087 Y103.036 F1500.000 E5.99520
G1 X93.087 Y103.711 E6.01131
G1 X106.913 Y103.711 E6.34137
G1 X106.913 Y96.964 F7800.000
G1 X93.087 Y96.964 F1500.000 E6.67070
G1 X106.379 Y96.291 F7800.000
G1 X106.913 Y96.291 F1500.000 E6.68340
M106 S255
G1 Z0.500 F7800.000
G1 X107.537 Y102.186
G1 X107.537 Y104.561 F600.000 E6.74610
G1 X92.462 Y104.561 E7.14403
G1 X92.462 Y102.186 E7.20672
G1 X107.426 Y102.186 E7.60169
G1 X107.537 Y102.186 E7.60465
G1 X107.537 Y97.814 F7800.000
G1 X92.462 Y97.814 F600.000 E8.00258
G1 X92.462 Y95.458 E8.06478
G1 X107.537 Y95.440 E8.46271
G1 X107.537 Y97.702 E8.52244
G1 X107.537 Y97.814 E8.52539
G1 X106.791 Y102.596 F7800.000
G1 X106.791 Y104.150 F1739.779 E8.56687
G1 X106.037 Y104.150 E8.58700
G1 X106.037 Y102.596 E8.62848
G1 X105.282 Y102.596 E8.64862
G1 X105.282 Y104.150 E8.69009
G1 X104.527 Y104.150 E8.71023
G1 X104.527 Y102.596 E8.75170
G1 X103.773 Y102.596 E8.77184
G1 X103.773 Y104.150 E8.81331
G1 X103.018 Y104.150 E8.83345
G1 X103.018 Y102.596 E8.87492
G1 X102.264 Y102.596 E8.89506
G1 X102.264 Y104.150 E8.93653
G1 X101.509 Y104.150 E8.95667
G1 X101.509 Y102.596 E8.99814
G1 X100.755 Y102.596 E9.01828
G1 X100.755 Y104.150 E9.05975
G1 X100.000 Y104.150 E9.07989
G1 X100.000 Y102.596 E9.12136
G1 X99.245 Y102.596 E9.14150
G1 X99.245 Y104.150 E9.18297
G1 X98.491 Y104.150 E9.20311
G1 X98.491 Y102.596 E9.24459
G1 X97.736 Y102.596 E9.26472
G1 X97.736 Y104.150 E9.30619
G1 X96.982 Y104.150 E9.32633
G1 X96.982 Y102.596 E9.36781
G1 X96.227 Y102.596 E9.38794
G1 X96.227 Y104.150 E9.42942
G1 X95.472 Y104.150 E9.44956
G1 X95.472 Y102.596 E9.49103
G1 X94.718 Y102.596 E9.51116
G1 X94.718 Y104.150 E9.55264
G1 X93.963 Y104.150 E9.57278
G1 X93.963 Y102.596 E9.61425
G1 X93.209 Y102.596 E9.63439
G1 X93.209 Y104.150 E9.67586
G1 X93.209 Y97.404 F7800.000
G1 X93.209 Y95.867 F1739.779 E9.71687
G1 X93.963 Y95.866 E9.73701
G1 X93.963 Y97.404 E9.77804
G1 X94.718 Y97.404 E9.79818
G1 X94.718 Y95.865 E9.83923
G1 X95.472 Y95.864 E9.85937
G1 X95.472 Y97.404 E9.90045
G1 X96.227 Y97.404 E9.92058
G1 X96.227 Y95.863 E9.96169
G1 X96.982 Y95.863 E9.98183
G1 X96.982 Y97.404 E10.02295
G1 X97.736 Y97.404 E10.04309
G1 X97.736 Y95.862 E10.08424
G1 X98.491 Y95.861 E10.10438
G1 X98.491 Y97.404 E10.14555
G1 X99.245 Y97.404 E10.16569
G1 X99.245 Y95.860 E10.20689
G1 X100.000 Y95.859 E10.22703
G1 X100.000 Y97.404 E10.26825
G1 X100.755 Y97.404 E10.28839
G1 X100.755 Y95.858 E10.32964
G1 X101.509 Y95.857 E10.34978
G1 X101.509 Y97.404 E10.39105
G1 X102.264 Y97.404 E10.41119
G1 X102.264 Y95.856 E10.45248
G1 X103.018 Y95.855 E10.47262
G1 X103.018 Y97.404 E10.51394
G1 X103.773 Y97.404 E10.53408
G1 X103.773 Y95.854 E10.57542
G1 X104.527 Y95.854 E10.59556
G1 X104.527 Y97.404 E10.63693
G1 X105.282 Y97.404 E10.65707
G1 X105.282 Y95.853 E10.69846
G1 X106.037 Y95.852 E10.71860
G1 X106.037 Y97.404 E10.76001
G1 X106.791 Y97.404 E10.78015
G1 X106.791 Y95.851 E10.82159
G1 Z0.750 F7800.000
G1 X107.537 Y102.186
G1 X107.537 Y104.561 F600.000 E10.88428
G1 X92.462 Y104.561 E11.28221
G1 X92.462 Y102.186 E11.34490
G1 X107.426 Y102.186 E11.73988
G1 X107.537 Y102.186 E11.74283
G1 X107.537 Y97.814 F7800.000
G1 X92.462 Y97.814 F600.000 E12.14076
G1 X92.462 Y95.458 E12.20297
G1 X107.537 Y95.440 E12.60090
G1 X107.537 Y97.702 E12.66062
G1 X107.537 Y97.814 E12.66358
G1 X107.127 Y102.932 F7800.000
G1 X92.873 Y102.932 F1573.218 E13.10840
G1 X92.873 Y103.815 E13.13593
G1 X107.127 Y103.815 E13.58075
G1 X107.127 Y97.068 F7800.000
G1 X92.873 Y97.068 F1573.218 E14.02488
G1 X106.372 Y96.187 F7800.000
G1 X107.127 Y96.187 F1573.218 E14.04840
G1 Z1.000 F7800.000
G1 X107.537 Y102.186
G1 X107.537 Y104.561 F600.000 E14.11109
G1 X92.462 Y104.561 E14.50902
G1 X92.462 Y102.186 E14.57171
G1 X107.426 Y102.186 E14.96669
G1 X107.537 Y102.186 E14.96964
G1 X107.537 Y97.814 F7800.000
G1 X92.462 Y97.814 F600.000 E15.36757
G1 X92.462 Y95.458 E15.42978
G1 X107.537 Y95.440 E15.82771
G1 X107.537 Y97.702 E15.88743
G1 X107.537 Y97.814 E15.89039
G1 X106.791 Y102.596 F7800.000
G1 X106.791 Y104.150 F1739.779 E15.93186
G1 X106.037 Y104.150 E15.95200
G1 X106.037 Y102.596 E15.99347
G1 X105.282 Y102.596 E16.01361
G1 X105.282 Y104.150 E16.05508
G1 X104.527 Y104.150 E16.07522
G1 X104.527 Y102.596 E16.11669
G1 X103.773 Y102.596 E16.13683
G1 X103.773 Y104.150 E16.17830
G1 X103.018 Y104.150 E16.19844
G1 X103.018 Y102.596 E16.23991
G1 X102.264 Y102.596 E16.26005
G1 X102.264 Y104.150 E16.30153
G1 X101.509 Y104.150 E16.32166
G1 X101.509 Y102.596 E16.36314
G1 X100.755 Y102.596 E16.38327
G1 X100.755 Y104.150 E16.42475
G1 X100.000 Y104.150 E16.44488
G1 X100.000 Y102.596 E16.48636
G1 X99.245 Y102.596 E16.50650
G1 X99.245 Y104.150 E16.54797
G1 X98.491 Y104.150 E16.56811
G1 X98.491 Y102.596 E16.60958
G1 X97.736 Y102.596 E16.62972
G1 X97.736 Y104.150 E16.67119
G1 X96.982 Y104.150 E16.69133
G1 X96.982 Y102.596 E16.73280
G1 X96.227 Y102.596 E16.75294
G1 X96.227 Y104.150 E16.79441
G1 X95.472 Y104.150 E16.81455
G1 X95.472 Y102.596 E16.85602
G1 X94.718 Y102.596 E16.87616
G1 X94.718 Y104.150 E16.91763
G1 X93.963 Y104.150 E16.93777
G1 X93.963 Y102.596 E16.97924
G1 X93.209 Y102.596 E16.99938
G1 X93.209 Y104.150 E17.04085
G1 X93.209 Y97.404 F7800.000
G1 X93.209 Y95.867 F1739.779 E17.08186
G1 X93.963 Y95.866 E17.10200
G1 X93.963 Y97.404 E17.14303
G1 X94.718 Y97.404 E17.16317
G1 X94.718 Y95.865 E17.20422
G1 X95.472 Y95.864 E17.22436
G1 X95.472 Y97.404 E17.26544
G1 X96.227 Y97.404 E17.28558
G1 X96.227 Y95.863 E17.32668
G1 X96.982 Y95.863 E17.34682
G1 X96.982 Y97.404 E17.38795
G1 X97.736 Y97.404 E17.40809
G1 X97.736 Y95.862 E17.44924
G1 X98.491 Y95.861 E17.46937
G1 X98.491 Y97.404 E17.51055
G1 X99.245 Y97.404 E17.53069
G1 X99.245 Y95.860 E17.57189
G1 X100.000 Y95.859 E17.59203
G1 X100.000 Y97.404 E17.63325
G1 X100.755 Y97.404 E17.65339
G1 X100.755 Y95.858 E17.69464
G1 X101.509 Y95.857 E17.71477
G1 X101.509 Y97.404 E17.75604
G1 X102.264 Y97.404 E17.77618
G1 X102.264 Y95.856 E17.81748
G1 X103.018 Y95.855 E17.83762
G1 X103.018 Y97.404 E17.87894
G1 X103.773 Y97.404 E17.89907
G1 X103.773 Y95.854 E17.94042
G1 X104.527 Y95.854 E17.96055
G1 X104.527 Y97.404 E18.00192
G1 X105.282 Y97.404 E18.02206
G1 X105.282 Y95.853 E18.06345
G1 X106.037 Y95.852 E18.08359
G1 X106.037 Y97.404 E18.12501
G1 X106.791 Y97.404 E18.14514
G1 X106.791 Y95.851 E18.18658
G1 Z1.250 F7800.000
G1 X107.537 Y102.186
G1 X107.537 Y104.561 F600.000 E18.24927
G1 X92.462 Y104.561 E18.64720
G1 X92.462 Y102.186 E18.70990
G1 X107.426 Y102.186 E19.10487
G1 X107.537 Y102.186 E19.10783
G1 X107.537 Y97.814 F7800.000
G1 X92.462 Y97.814 F600.000 E19.50576
G1 X92.462 Y95.458 E19.56796
G1 X107.537 Y95.440 E19.96589
G1 X107.537 Y97.702 E20.02562
G1 X107.537 Y97.814 E20.02857
G1 X107.127 Y102.932 F7800.000
G1 X92.873 Y102.932 F1573.216 E20.47338
G1 X92.873 Y103.815 E20.50092
G1 X107.127 Y103.815 E20.94572
G1 X107.127 Y97.068 F7800.000
G1 X92.873 Y97.068 F1573.216 E21.38984
G1 X106.373 Y96.187 F7800.000
G1 X107.127 Y96.187 F1573.216 E21.41335
G1 Z1.500 F7800.000
G1 X107.537 Y102.186
G1 X107.537 Y104.561 F600.000 E21.47604
G1 X92.462 Y104.561 E21.87397
G1 X92.462 Y102.186 E21.93666
G1 X107.426 Y102.186 E22.33164
G1 X107.537 Y102.186 E22.33459
G1 X107.537 Y97.814 F7800.000
G1 X92.462 Y97.814 F600.000 E22.73252
G1 X92.462 Y95.458 E22.79473
G1 X107.537 Y95.440 E23.19266
G1 X107.537 Y97.702 E23.25238
G1 X107.537 Y97.814 E23.25534
G1 X106.791 Y102.596 F7800.000
G1 X106.791 Y104.150 F1739.778 E23.29681
G1 X106.037 Y104.150 E23.31695
G1 X106.037 Y102.596 E23.35842
G1 X105.282 Y102.596 E23.37856
G1 X105.282 Y104.150 E23.42003
G1 X104.527 Y104.150 E23.44017
G1 X104.527 Y102.596 E23.48164
G1 X103.773 Y102.596 E23.50178
G1 X103.773 Y104.150 E23.54325
G1 X103.018 Y104.150 E23.56339
G1 X103.018 Y102.596 E23.60486
G1 X102.264 Y102.596 E23.62500
G1 X102.264 Y104.150 E23.66647
G1 X101.509 Y104.150 E23.68661
G1 X101.509 Y102.596 E23.72808
G1 X100.755 Y102.596 E23.74822
G1 X100.755 Y104.150 E23.78969
G1 X100.000 Y104.150 E23.80983
G1 X100.000 Y102.596 E23.85130
G1 X99.245 Y102.596 E23.87144
G1 X99.245 Y104.150 E23.91292
G1 X98.491 Y104.150 E23.93305
G1 X98.491 Y102.596 E23.97453
G1 X97.736 Y102.596 E23.99466
G1 X97.736 Y104.150 E24.03614
G1 X96.982 Y104.150 E24.05627
G1 X96.982 Y102.596 E24.09775
G1 X96.227 Y102.596 E24.11789
G1 X96.227 Y104.150 E24.15936
G1 X95.473 Y104.150 E24.17949
G1 X95.473 Y102.596 E24.22097
G1 X94.718 Y102.596 E24.24111
G1 X94.718 Y104.150 E24.28258
G1 X93.963 Y104.150 E24.30272
G1 X93.963 Y102.596 E24.34419
G1 X93.209 Y102.596 E24.36433
G1 X93.209 Y104.150 E24.40580
G1 X93.209 Y97.404 F7800.000
G1 X93.209 Y95.867 F1739.778 E24.44681
G1 X93.963 Y95.866 E24.46695
G1 X93.963 Y97.404 E24.50798
G1 X94.718 Y97.404 E24.52811
G1 X94.718 Y95.865 E24.56917
G1 X95.473 Y95.864 E24.58931
G1 X95.473 Y97.404 E24.63039
G1 X96.227 Y97.404 E24.65052
G1 X96.227 Y95.863 E24.69162
G1 X96.982 Y95.863 E24.71176
G1 X96.982 Y97.404 E24.75289
G1 X97.736 Y97.404 E24.77303
G1 X97.736 Y95.862 E24.81418
G1 X98.491 Y95.861 E24.83432
G1 X98.491 Y97.404 E24.87549
G1 X99.245 Y97.404 E24.89563
G1 X99.245 Y95.860 E24.93683
G1 X100.000 Y95.859 E24.95697
G1 X100.000 Y97.404 E24.99819
G1 X100.755 Y97.404 E25.01833
G1 X100.755 Y95.858 E25.05957
G1 X101.509 Y95.857 E25.07971
G1 X101.509 Y97.404 E25.12098
G1 X102.264 Y97.404 E25.14112
G1 X102.264 Y95.856 E25.18242
G1 X103.018 Y95.855 E25.20255
G1 X103.018 Y97.404 E25.24387
G1 X103.773 Y97.404 E25.26401
G1 X103.773 Y95.854 E25.30535
G1 X104.527 Y95.854 E25.32549
G1 X104.527 Y97.404 E25.36686
G1 X105.282 Y97.404 E25.38700
