; generated by Slic3r 0.9.8 on 2013-05-24 at 22:47:02

; layer_height = .25
; perimeters = 1
; top_solid_layers = 4
; bottom_solid_layers = 4
; fill_density = .9
; perimeter_speed = 30
; infill_speed = 40
; travel_speed = 130
; scale = 1
; nozzle_diameter = 0.5
; filament_diameter = 3
; extrusion_multiplier = 1
; perimeters extrusion width = 0.80mm
; infill extrusion width = 0.80mm
; first layer extrusion width = 0.50mm

M107
M104 S210 ; set temperature
G28 ; home all axes
M109 S210 ; wait for temperature to be reached
G90 ; use absolute coordinates
G21 ; set units to millimeters
G92 E0
M82 ; use absolute distances for extrusion
G1 Z0.250 F7800.000
G1 X144.782 Y136.002
G1 X144.762 Y136.552 F900.000 E0.00973
G1 X144.652 Y137.372 E0.02436
G1 X144.522 Y137.902 E0.03401
G1 X144.252 Y138.682 E0.04861
G1 X144.022 Y139.182 E0.05834
G1 X143.602 Y139.892 E0.07293
G1 X143.102 Y140.552 E0.08757
G1 X142.732 Y140.952 E0.09721
G1 X142.332 Y141.322 E0.10684
G1 X141.672 Y141.822 E0.12149
G1 X140.962 Y142.242 E0.13607
G1 X140.462 Y142.472 E0.14581
G1 X139.682 Y142.742 E0.16040
G1 X139.152 Y142.872 E0.17005
G1 X138.332 Y142.982 E0.18468
G1 X137.782 Y143.002 E0.19442
G1 X62.212 Y143.002 E1.53079
G1 X61.662 Y142.982 E1.54052
G1 X60.842 Y142.872 E1.55515
G1 X60.312 Y142.742 E1.56480
G1 X59.532 Y142.472 E1.57940
G1 X59.032 Y142.242 E1.58913
G1 X58.552 Y141.972 E1.59887
G1 X57.882 Y141.502 E1.61334
G1 X57.462 Y141.142 E1.62312
G1 X57.072 Y140.752 E1.63288
G1 X56.712 Y140.332 E1.64266
G1 X56.242 Y139.662 E1.65713
G1 X55.972 Y139.182 E1.66687
G1 X55.742 Y138.682 E1.67660
G1 X55.472 Y137.902 E1.69120
G1 X55.342 Y137.372 E1.70085
G1 X55.232 Y136.552 E1.71548
G1 X55.212 Y136.002 E1.72521
G1 X55.212 Y76.682 E2.77422
G1 X55.232 Y76.132 E2.78395
G1 X55.342 Y75.312 E2.79859
G1 X55.472 Y74.782 E2.80824
G1 X55.742 Y74.002 E2.82283
G1 X55.972 Y73.502 E2.83256
G1 X56.242 Y73.022 E2.84230
G1 X56.712 Y72.352 E2.85678
G1 X57.072 Y71.932 E2.86656
G1 X57.462 Y71.542 E2.87631
G1 X57.882 Y71.182 E2.88609
G1 X58.552 Y70.712 E2.90057
G1 X59.032 Y70.442 E2.91031
G1 X59.532 Y70.212 E2.92004
G1 X60.312 Y69.942 E2.93464
G1 X60.842 Y69.812 E2.94429
G1 X61.662 Y69.702 E2.95892
G1 X62.212 Y69.682 E2.96865
G1 X137.782 Y69.682 E4.30502
G1 X138.332 Y69.702 E4.31475
G1 X139.152 Y69.812 E4.32938
G1 X139.682 Y69.942 E4.33903
G1 X140.202 Y70.112 E4.34871
G1 X140.712 Y70.322 E4.35846
G1 X141.202 Y70.572 E4.36819
G1 X141.672 Y70.862 E4.37796
G1 X142.112 Y71.182 E4.38758
G1 X142.732 Y71.732 E4.40223
G1 X143.102 Y72.132 E4.41187
G1 X143.602 Y72.792 E4.42651
G1 X144.022 Y73.502 E4.44110
G1 X144.252 Y74.002 E4.45083
G1 X144.522 Y74.782 E4.46543
G1 X144.652 Y75.312 E4.47508
G1 X144.762 Y76.132 E4.48971
G1 X144.782 Y76.682 E4.49944
G1 X144.782 Y135.927 E5.54712
G1 X144.782 Y136.002 E5.54845
G1 X144.282 Y136.002 F7800.000
G1 X144.262 Y136.522 F900.000 E5.55765
G1 X144.202 Y137.042 E5.56691
G1 X144.152 Y137.302 E5.57159
G1 X143.952 Y138.062 E5.58549
G1 X143.762 Y138.552 E5.59478
G1 X143.542 Y139.022 E5.60396
G1 X143.132 Y139.692 E5.61785
G1 X142.652 Y140.312 E5.63171
G1 X142.472 Y140.502 E5.63634
G1 X142.092 Y140.872 E5.64572
G1 X141.472 Y141.352 E5.65959
G1 X140.802 Y141.762 E5.67348
G1 X140.332 Y141.982 E5.68266
G1 X139.842 Y142.172 E5.69195
G1 X139.082 Y142.372 E5.70585
G1 X138.822 Y142.422 E5.71053
G1 X138.302 Y142.482 E5.71978
G1 X137.782 Y142.502 E5.72899
G1 X62.212 Y142.502 E7.06536
G1 X61.692 Y142.482 E7.07456
G1 X61.172 Y142.422 E7.08382
G1 X60.912 Y142.372 E7.08850
G1 X60.152 Y142.172 E7.10240
G1 X59.662 Y141.982 E7.11169
G1 X59.192 Y141.762 E7.12087
G1 X58.962 Y141.632 E7.12554
G1 X58.312 Y141.202 E7.13932
G1 X57.902 Y140.872 E7.14863
G1 X57.342 Y140.312 E7.16263
G1 X57.012 Y139.902 E7.17194
G1 X56.582 Y139.252 E7.18572
G1 X56.342 Y138.792 E7.19490
G1 X56.132 Y138.302 E7.20433
G1 X56.042 Y138.062 E7.20886
G1 X55.902 Y137.562 E7.21804
G1 X55.792 Y137.042 E7.22744
G1 X55.732 Y136.522 E7.23670
G1 X55.712 Y136.002 E7.24590
G1 X55.712 Y76.682 E8.29491
G1 X55.732 Y76.162 E8.30411
G1 X55.792 Y75.642 E8.31337
G1 X55.842 Y75.382 E8.31805
G1 X56.042 Y74.622 E8.33194
G1 X56.232 Y74.132 E8.34124
G1 X56.452 Y73.662 E8.35042
G1 X56.582 Y73.432 E8.35509
G1 X57.012 Y72.782 E8.36887
G1 X57.342 Y72.372 E8.37818
G1 X57.902 Y71.812 E8.39218
G1 X58.312 Y71.482 E8.40149
G1 X58.962 Y71.052 E8.41527
G1 X59.422 Y70.812 E8.42445
G1 X59.912 Y70.602 E8.43387
G1 X60.152 Y70.512 E8.43841
G1 X60.652 Y70.372 E8.44759
G1 X61.172 Y70.262 E8.45699
G1 X61.692 Y70.202 E8.46624
G1 X62.212 Y70.182 E8.47545
G1 X137.782 Y70.182 E9.81182
G1 X138.302 Y70.202 E9.82102
G1 X138.822 Y70.262 E9.83028
G1 X139.342 Y70.372 E9.83968
G1 X139.842 Y70.512 E9.84886
G1 X140.332 Y70.702 E9.85815
G1 X140.802 Y70.922 E9.86733
G1 X141.032 Y71.052 E9.87200
G1 X141.682 Y71.482 E9.88578
G1 X142.092 Y71.812 E9.89509
G1 X142.652 Y72.372 E9.90909
G1 X143.132 Y72.992 E9.92296
G1 X143.542 Y73.662 E9.93685
G1 X143.762 Y74.132 E9.94603
G1 X143.952 Y74.622 E9.95532
G1 X144.152 Y75.382 E9.96922
G1 X144.202 Y75.642 E9.97390
G1 X144.262 Y76.162 E9.98316
G1 X144.282 Y76.682 E9.99236
G1 X144.282 Y135.927 E11.04004
G1 X144.282 Y136.002 E11.04137
G1 X76.163 Y129.778 F7800.000
G1 X76.068 Y130.489 F300.000 E11.05405
G1 X75.795 Y131.148 E11.06667
G1 X75.359 Y131.716 E11.07933
G1 X74.793 Y132.153 E11.09199
G1 X74.130 Y132.427 E11.10467
G1 X73.422 Y132.521 E11.11729
G1 X72.712 Y132.427 E11.12996
G1 X72.052 Y132.153 E11.14260
G1 X71.483 Y131.717 E11.15527
G1 X71.047 Y131.148 E11.16795
G1 X70.774 Y130.488 E11.18058
G1 X70.752 Y130.323 E11.18352
G1 X70.679 Y129.778 E11.19325
G1 X70.773 Y129.070 E11.20587
G1 X71.047 Y128.407 E11.21855
G1 X71.484 Y127.841 E11.23121
G1 X72.052 Y127.405 E11.24387
G1 X72.712 Y127.131 E11.25650
G1 X73.422 Y127.037 E11.26917
G1 X74.130 Y127.131 E11.28179
G1 X74.793 Y127.405 E11.29448
G1 X75.359 Y127.841 E11.30712
G1 X75.795 Y128.407 E11.31976
G1 X76.069 Y129.070 E11.33244
G1 X76.153 Y129.703 E11.34373
G1 X76.163 Y129.778 E11.34506
G1 X75.658 Y129.778 F7800.000
G1 X75.581 Y130.358 F300.000 E11.35540
G1 X75.358 Y130.896 E11.36571
G1 X75.002 Y131.360 E11.37605
G1 X74.540 Y131.716 E11.38637
G1 X73.999 Y131.939 E11.39672
G1 X73.422 Y132.016 E11.40701
G1 X72.843 Y131.939 E11.41735
G1 X72.304 Y131.716 E11.42766
G1 X71.840 Y131.360 E11.43801
G1 X71.484 Y130.896 E11.44835
G1 X71.261 Y130.357 E11.45866
G1 X71.247 Y130.258 E11.46044
G1 X71.184 Y129.778 E11.46900
G1 X71.260 Y129.201 E11.47930
G1 X71.484 Y128.660 E11.48964
G1 X71.840 Y128.198 E11.49996
G1 X72.304 Y127.842 E11.51031
G1 X72.843 Y127.618 E11.52062
G1 X73.422 Y127.542 E11.53095
G1 X73.999 Y127.618 E11.54125
G1 X74.540 Y127.842 E11.55160
G1 X75.002 Y128.198 E11.56191
G1 X75.358 Y128.660 E11.57223
G1 X75.581 Y129.201 E11.58258
G1 X75.648 Y129.704 E11.59155
G1 X75.658 Y129.778 E11.59287
G1 X76.080 Y130.047 F7800.000
G1 X77.882 Y124.308
G1 X77.882 Y88.392 F900.000 E12.22801
G1 X117.376 Y88.392 E12.92641
G1 X117.378 Y124.308 E13.56155
G1 X77.957 Y124.308 E14.25866
G1 X77.882 Y124.308 E14.25999
G1 X78.382 Y123.808 F7800.000
G1 X78.382 Y88.892 F900.000 E14.87744
G1 X116.876 Y88.892 E15.55816
G1 X116.878 Y123.808 E16.17561
G1 X78.457 Y123.808 E16.85504
G1 X78.382 Y123.808 E16.85637
G1 X77.882 Y123.808 F7800.000
G1 X71.006 Y85.285
G1 X70.298 Y85.379 F300.000 E16.86899
G1 X69.588 Y85.285 E16.88166
G1 X68.928 Y85.011 E16.89429
G1 X68.359 Y84.575 E16.90697
G1 X67.923 Y84.006 E16.91965
G1 X67.649 Y83.346 E16.93228
G1 X67.555 Y82.636 E16.94495
G1 X67.649 Y81.928 E16.95757
G1 X67.923 Y81.265 E16.97025
G1 X68.360 Y80.698 E16.98291
G1 X68.928 Y80.263 E16.99557
G1 X69.588 Y79.989 E17.00820
G1 X70.298 Y79.895 E17.02087
G1 X71.006 Y79.989 E17.03349
G1 X71.669 Y80.263 E17.04617
G1 X72.235 Y80.699 E17.05882
G1 X72.671 Y81.265 E17.07146
G1 X72.945 Y81.928 E17.08414
G1 X73.039 Y82.636 E17.09676
G1 X72.945 Y83.346 E17.10943
G1 X72.671 Y84.006 E17.12206
G1 X72.235 Y84.574 E17.13472
G1 X71.669 Y85.011 E17.14738
G1 X71.075 Y85.256 E17.15874
G1 X71.006 Y85.285 E17.16006
G1 X70.875 Y84.798 F7800.000
G1 X70.298 Y84.874 F300.000 E17.17036
G1 X69.719 Y84.798 E17.18069
G1 X69.180 Y84.574 E17.19100
G1 X68.716 Y84.218 E17.20135
G1 X68.360 Y83.754 E17.21170
G1 X68.136 Y83.215 E17.22201
G1 X68.060 Y82.636 E17.23234
G1 X68.136 Y82.059 E17.24264
G1 X68.360 Y81.518 E17.25299
G1 X68.716 Y81.055 E17.26331
G1 X69.180 Y80.700 E17.27365
G1 X69.719 Y80.476 E17.28396
G1 X70.298 Y80.400 E17.29430
G1 X70.875 Y80.476 E17.30459
G1 X71.416 Y80.700 E17.31494
G1 X71.878 Y81.056 E17.32526
G1 X72.234 Y81.518 E17.33558
G1 X72.458 Y82.059 E17.34592
G1 X72.534 Y82.636 E17.35622
G1 X72.458 Y83.215 E17.36656
G1 X72.234 Y83.754 E17.37687
G1 X71.878 Y84.218 E17.38721
G1 X71.416 Y84.574 E17.39753
G1 X70.945 Y84.769 E17.40655
G1 X70.875 Y84.798 E17.40788
G1 X70.725 Y85.274 F7800.000
G1 X126.992 Y82.577
G1 X127.141 Y81.878 F300.000 E17.42053
G1 X127.465 Y81.239 E17.43319
G1 X127.946 Y80.708 E17.44586
G1 X128.544 Y80.319 E17.45848
G1 X129.223 Y80.098 E17.47111
G1 X129.939 Y80.060 E17.48378
G1 X130.639 Y80.209 E17.49644
G1 X131.276 Y80.534 E17.50909
G1 X131.809 Y81.012 E17.52174
G1 X132.201 Y81.616 E17.53447
G1 X132.421 Y82.296 E17.54711
G1 X132.456 Y83.009 E17.55974
G1 X132.400 Y83.278 E17.56460
G1 X132.307 Y83.709 E17.57240
G1 X131.983 Y84.347 E17.58504
G1 X131.502 Y84.878 E17.59771
G1 X130.904 Y85.267 E17.61034
G1 X130.204 Y85.494 E17.62334
G1 X129.909 Y85.494 E17.62856
G1 X129.521 Y85.526 E17.63545
G1 X128.810 Y85.377 E17.64830
G1 X128.172 Y85.052 E17.66097
G1 X127.639 Y84.574 E17.67363
G1 X127.249 Y83.971 E17.68632
G1 X127.028 Y83.291 E17.69896
G1 X126.996 Y82.652 E17.71028
G1 X126.992 Y82.577 E17.71160
G1 X127.495 Y82.617 F7800.000
G1 X127.616 Y82.046 F300.000 E17.72192
G1 X127.880 Y81.525 E17.73224
G1 X128.273 Y81.092 E17.74258
G1 X128.761 Y80.774 E17.75289
G1 X129.316 Y80.594 E17.76320
G1 X129.900 Y80.563 E17.77354
G1 X130.470 Y80.684 E17.78386
G1 X130.991 Y80.950 E17.79419
G1 X131.426 Y81.340 E17.80452
G1 X131.744 Y81.831 E17.81486
G1 X131.924 Y82.387 E17.82520
G1 X131.953 Y82.968 E17.83550
G1 X131.910 Y83.179 E17.83930
G1 X131.831 Y83.540 E17.84584
G1 X131.568 Y84.061 E17.85616
G1 X131.175 Y84.494 E17.86649
G1 X130.687 Y84.812 E17.87680
G1 X130.125 Y84.994 E17.88724
G1 X129.552 Y85.022 E17.89738
G1 X128.978 Y84.902 E17.90776
G1 X128.457 Y84.636 E17.91810
G1 X128.022 Y84.246 E17.92843
G1 X127.704 Y83.754 E17.93878
G1 X127.524 Y83.200 E17.94910
G1 X127.498 Y82.691 E17.95810
G1 X127.495 Y82.617 E17.95942
G1 X127.096 Y82.315 F7800.000
G1 X129.223 Y127.240
G1 X129.939 Y127.202 F300.000 E17.97210
G1 X130.639 Y127.351 E17.98476
G1 X131.276 Y127.676 E17.99740
G1 X131.809 Y128.154 E18.01005
G1 X132.199 Y128.755 E18.02272
G1 X132.420 Y129.437 E18.03541
G1 X132.456 Y130.150 E18.04803
G1 X132.307 Y130.850 E18.06068
G1 X131.983 Y131.489 E18.07335
G1 X131.502 Y132.020 E18.08602
G1 X130.904 Y132.409 E18.09864
G1 X130.205 Y132.636 E18.11164
G1 X129.911 Y132.636 E18.11683
G1 X129.521 Y132.668 E18.12375
G1 X128.810 Y132.520 E18.13660
G1 X128.172 Y132.194 E18.14927
G1 X127.639 Y131.715 E18.16194
G1 X127.249 Y131.113 E18.17463
G1 X127.028 Y130.433 E18.18727
G1 X126.992 Y129.717 E18.19994
G1 X127.141 Y129.020 E18.21255
G1 X127.465 Y128.381 E18.22522
G1 X127.946 Y127.850 E18.23789
G1 X128.544 Y127.461 E18.25051
G1 X129.152 Y127.264 E18.26182
G1 X129.223 Y127.240 E18.26314
G1 X129.316 Y127.736 F7800.000
G1 X129.900 Y127.705 F300.000 E18.27348
G1 X130.470 Y127.826 E18.28380
G1 X130.991 Y128.092 E18.29413
G1 X131.426 Y128.482 E18.30446
G1 X131.744 Y128.972 E18.31479
G1 X131.924 Y129.528 E18.32514
G1 X131.953 Y130.110 E18.33544
G1 X131.832 Y130.682 E18.34578
G1 X131.568 Y131.203 E18.35610
G1 X131.175 Y131.636 E18.36644
G1 X130.687 Y131.954 E18.37675
G1 X130.126 Y132.136 E18.38718
G1 X129.552 Y132.164 E18.39733
G1 X128.978 Y132.044 E18.40770
G1 X128.457 Y131.778 E18.41804
G1 X128.022 Y131.388 E18.42838
G1 X127.704 Y130.896 E18.43873
G1 X127.524 Y130.342 E18.44904
G1 X127.495 Y129.758 E18.45938
G1 X127.616 Y129.188 E18.46968
G1 X127.880 Y128.667 E18.48001
G1 X128.273 Y128.234 E18.49034
G1 X128.761 Y127.916 E18.50065
G1 X129.245 Y127.759 E18.50964
G1 X129.316 Y127.736 E18.51096
G1 X129.503 Y127.272 F7800.000
G1 X137.288 Y135.508
G1 X62.714 Y135.508 F900.000 E19.82972
G1 X62.712 Y77.192 E20.86097
G1 X137.288 Y77.192 E22.17977
G1 X137.288 Y135.433 E23.20969
G1 X137.288 Y135.508 E23.21102
G1 X137.788 Y136.008 F7800.000
G1 X62.214 Y136.008 F900.000 E24.54746
G1 X62.212 Y76.692 E25.59640
G1 X137.788 Y76.692 E26.93288
G1 X137.788 Y135.933 E27.98049
G1 X137.788 Y136.008 E27.98181
G1 X137.355 Y135.758 F7800.000
G1 X137.013 Y135.008
G1 X62.989 Y135.008 F1500.000 E29.29811
G1 X62.989 Y134.505 E29.30705
G1 X137.013 Y134.505 E30.62334
G1 X137.013 Y134.002 E30.63228
G1 X62.989 Y134.002 E31.94857
G1 X62.989 Y133.500 E31.95751
G1 X137.013 Y133.500 E33.27381
G1 X137.013 Y132.997 E33.28275
G1 X130.486 Y132.997 E33.39881
G1 X131.465 Y132.494 E33.41838
G1 X137.013 Y132.494 E33.51704
G1 X137.013 Y131.991 E33.52597
G1 X131.978 Y131.991 E33.61551
G1 X132.319 Y131.489 E33.62631
G1 X137.013 Y131.489 E33.70978
G1 X137.013 Y130.986 E33.71872
G1 X132.564 Y130.986 E33.79783
G1 X132.671 Y130.483 E33.80697
G1 X137.013 Y130.483 E33.88418
G1 X137.013 Y129.980 E33.89312
G1 X132.723 Y129.980 E33.96940
G1 X132.698 Y129.477 E33.97836
G1 X137.013 Y129.477 E34.05508
G1 X137.013 Y128.975 E34.06403
G1 X132.571 Y128.975 E34.14301
G1 X132.386 Y128.472 E34.15254
G1 X137.013 Y128.472 E34.23481
G1 X137.013 Y127.969 E34.24376
G1 X132.060 Y127.969 E34.33183
G1 X131.566 Y127.466 E34.34436
G1 X137.013 Y127.466 E34.44122
G1 X137.013 Y126.964 E34.45016
G1 X130.754 Y126.964 E34.56146
G1 X128.683 Y126.964 F7800.000
G1 X74.809 Y126.964 F1500.000 E35.51944
G1 X75.466 Y127.466 E35.53416
G1 X127.844 Y127.466 E36.46554
G1 X127.388 Y127.969 E36.47761
G1 X75.863 Y127.969 E37.39381
G1 X76.137 Y128.472 E37.40400
G1 X127.083 Y128.472 E38.30991
G1 X126.864 Y128.975 E38.31966
G1 X76.335 Y128.975 E39.21816
G1 X76.402 Y129.477 E39.22718
G1 X126.757 Y129.477 E40.12259
G1 X126.730 Y129.980 F7800.000
G1 X76.415 Y129.980 F1500.000 E41.01729
G1 X76.348 Y130.483 E41.02631
G1 X126.755 Y130.483 E41.92264
G1 X126.907 Y130.986 E41.93198
G1 X76.178 Y130.986 E42.83403
G1 X75.939 Y131.489 E42.84393
G1 X127.121 Y131.489 E43.75405
G1 X127.447 Y131.991 E43.76470
G1 X75.553 Y131.991 E44.68747
G1 X74.944 Y132.494 E44.70152
G1 X127.983 Y132.494 E45.64466
G1 X128.876 Y132.997 E45.66288
G1 X73.408 Y132.997 E46.64922
G1 X73.436 Y132.997 F7800.000
G1 X62.989 Y132.997 F1500.000 E46.83499
G1 X62.989 Y132.494 E46.84393
G1 X71.900 Y132.494 E47.00239
G1 X71.289 Y131.991 E47.01647
G1 X62.989 Y131.991 E47.16405
G1 X62.989 Y131.489 E47.17299
G1 X70.903 Y131.489 E47.31372
G1 X70.663 Y130.986 E47.32362
G1 X62.989 Y130.986 E47.46010
G1 X62.989 Y130.483 E47.46903
G1 X70.494 Y130.483 E47.60249
G1 X70.427 Y129.980 E47.61151
G1 X62.989 Y129.980 E47.74377
G1 X62.989 Y129.477 E47.75271
G1 X70.440 Y129.477 E47.88521
G1 X70.507 Y128.975 E47.89423
G1 X62.989 Y128.975 E48.02792
G1 X62.989 Y128.472 E48.03686
G1 X70.704 Y128.472 E48.17406
G1 X70.978 Y127.969 E48.18424
G1 X62.989 Y127.969 E48.32632
G1 X62.989 Y127.466 E48.33526
G1 X71.375 Y127.466 E48.48439
G1 X72.036 Y126.964 E48.49915
G1 X62.989 Y126.964 E48.66002
G1 X62.989 Y126.461 E48.66896
G1 X137.013 Y126.461 E49.98526
G1 X137.013 Y125.958 E49.99420
G1 X62.989 Y125.958 E51.31050
G1 X62.989 Y125.455 E51.31944
G1 X137.013 Y125.455 E52.63574
G1 X137.013 Y124.953 E52.64468
G1 X62.988 Y124.953 E53.96098
G1 X62.988 Y124.450 E53.96992
G1 X77.607 Y124.450 E54.22986
G1 X77.607 Y123.947 E54.23880
