; generated by Slic3r 0.9.8 on 2013-05-25 at 08:04:57

; layer_height = .25
; perimeters = 1
; top_solid_layers = 4
; bottom_solid_layers = 4
; fill_density = .9
; perimeter_speed = 30
; infill_speed = 40
; travel_speed = 130
; scale = 1
; nozzle_diameter = 0.5
; filament_diameter = 3
; extrusion_multiplier = 1
; perimeters extrusion width = 0.80mm
; infill extrusion width = 0.80mm
; first layer extrusion width = 0.50mm

M107
M104 S210 ; set temperature
G28 ; home all axes
M109 S210 ; wait for temperature to be reached
G90 ; use absolute coordinates
G21 ; set units to millimeters
G92 E0
M82 ; use absolute distances for extrusion
G1 Z0.250 F7800.000
G1 X120.955 Y128.765
G1 X120.675 Y128.795 F900.000 E0.00498
G1 X120.125 Y128.815 E0.01471
G1 X75.105 Y128.825 E0.81084
G1 X74.545 Y128.805 E0.82075
G1 X73.715 Y128.685 E0.83558
G1 X73.175 Y128.555 E0.84540
G1 X72.905 Y128.475 E0.85038
G1 X72.135 Y128.165 E0.86506
G1 X71.395 Y127.765 E0.87994
G1 X70.935 Y127.445 E0.88985
G1 X70.495 Y127.095 E0.89979
G1 X70.095 Y126.715 E0.90954
G1 X69.545 Y126.075 E0.92447
G1 X69.225 Y125.625 E0.93423
G1 X69.075 Y125.385 E0.93924
G1 X68.815 Y124.895 E0.94905
G1 X68.585 Y124.385 E0.95894
G1 X55.915 Y87.875 E1.64235
G1 X55.835 Y87.605 E1.64733
G1 X55.715 Y87.055 E1.65728
G1 X55.425 Y84.845 E1.69670
G1 X55.405 Y84.485 E1.70308
G1 X55.425 Y83.755 E1.71599
G1 X55.705 Y81.505 E1.75609
G1 X55.835 Y80.895 E1.76712
G1 X56.025 Y80.305 E1.77808
G1 X56.745 Y78.545 E1.81170
G1 X57.065 Y77.885 E1.82468
G1 X57.435 Y77.265 E1.83744
G1 X58.625 Y75.705 E1.87214
G1 X58.815 Y75.465 E1.87755
G1 X59.235 Y75.005 E1.88857
G1 X59.695 Y74.585 E1.89958
G1 X61.205 Y73.425 E1.93326
G1 X61.715 Y73.065 E1.94430
G1 X61.975 Y72.905 E1.94969
G1 X62.525 Y72.625 E1.96061
G1 X62.805 Y72.505 E1.96600
G1 X64.615 Y71.775 E2.00051
G1 X65.305 Y71.575 E2.01321
G1 X66.005 Y71.445 E2.02580
G1 X67.595 Y71.235 E2.05416
G1 X68.515 Y71.175 E2.07047
G1 X75.065 Y71.175 E2.18630
G1 X137.825 Y73.335 E3.29680
G1 X138.375 Y73.375 E3.30655
G1 X139.195 Y73.525 E3.32129
G1 X139.725 Y73.665 E3.33098
G1 X140.495 Y73.965 E3.34560
G1 X140.985 Y74.215 E3.35532
G1 X141.685 Y74.655 E3.36995
G1 X142.115 Y74.995 E3.37964
G1 X142.525 Y75.375 E3.38952
G1 X143.075 Y75.985 E3.40405
G1 X143.545 Y76.665 E3.41867
G1 X143.815 Y77.145 E3.42841
G1 X144.045 Y77.645 E3.43814
G1 X144.245 Y78.165 E3.44799
G1 X144.325 Y78.425 E3.45280
G1 X144.395 Y78.695 E3.45773
G1 X144.535 Y79.505 E3.47227
G1 X144.565 Y79.785 E3.47725
G1 X144.585 Y80.335 E3.48698
G1 X144.585 Y83.495 E3.54286
G1 X144.555 Y84.095 E3.55349
G1 X144.485 Y84.685 E3.56399
G1 X144.355 Y85.275 E3.57468
G1 X144.075 Y86.125 E3.59050
G1 X126.495 Y124.715 E4.34040
G1 X126.245 Y125.215 E4.35029
G1 X125.965 Y125.685 E4.35996
G1 X125.285 Y126.555 E4.37949
G1 X124.895 Y126.945 E4.38924
G1 X124.475 Y127.305 E4.39902
G1 X124.025 Y127.625 E4.40879
G1 X123.315 Y128.045 E4.42338
G1 X122.555 Y128.375 E4.43803
G1 X122.035 Y128.555 E4.44776
G1 X121.765 Y128.625 E4.45269
G1 X121.029 Y128.754 E4.46590
G1 X120.955 Y128.765 E4.46723
G1 X120.915 Y128.265 F7800.000
G1 X120.655 Y128.295 F900.000 E4.47186
G1 X120.125 Y128.315 E4.48124
G1 X75.105 Y128.325 E5.27736
G1 X74.575 Y128.305 E5.28674
G1 X74.035 Y128.235 E5.29637
G1 X73.255 Y128.055 E5.31053
G1 X72.745 Y127.885 E5.32004
G1 X72.015 Y127.545 E5.33428
G1 X71.555 Y127.275 E5.34371
G1 X71.125 Y126.965 E5.35308
G1 X70.515 Y126.435 E5.36737
G1 X69.985 Y125.835 E5.38153
G1 X69.675 Y125.395 E5.39105
G1 X69.395 Y124.935 E5.40057
G1 X69.275 Y124.695 E5.40532
G1 X69.055 Y124.205 E5.41481
G1 X68.965 Y123.955 E5.41951
G1 X56.475 Y87.975 E6.09303
G1 X56.325 Y87.475 E6.10226
G1 X56.215 Y86.965 E6.11148
G1 X55.925 Y84.805 E6.15002
G1 X55.905 Y84.465 E6.15605
G1 X55.925 Y83.795 E6.16790
G1 X56.155 Y81.875 E6.20209
G1 X56.205 Y81.535 E6.20817
G1 X56.365 Y80.855 E6.22053
G1 X56.475 Y80.525 E6.22668
G1 X57.345 Y78.425 E6.26687
G1 X57.665 Y77.835 E6.27874
G1 X58.045 Y77.275 E6.29071
G1 X59.015 Y76.005 E6.31897
G1 X59.465 Y75.485 E6.33113
G1 X59.715 Y75.235 E6.33738
G1 X60.235 Y74.785 E6.34954
G1 X61.505 Y73.815 E6.37780
G1 X62.075 Y73.435 E6.38992
G1 X62.685 Y73.105 E6.40218
G1 X62.995 Y72.965 E6.40820
G1 X64.785 Y72.245 E6.44232
G1 X65.415 Y72.065 E6.45390
G1 X66.075 Y71.945 E6.46577
G1 X67.665 Y71.735 E6.49413
G1 X68.515 Y71.675 E6.50920
G1 X75.045 Y71.675 E6.62467
G1 X137.805 Y73.835 E7.73517
G1 X138.335 Y73.875 E7.74457
G1 X138.855 Y73.955 E7.75387
G1 X139.615 Y74.155 E7.76777
G1 X140.105 Y74.345 E7.77706
G1 X140.585 Y74.565 E7.78640
G1 X140.815 Y74.695 E7.79107
G1 X141.475 Y75.125 E7.80500
G1 X141.875 Y75.455 E7.81417
G1 X142.255 Y75.815 E7.82343
G1 X142.775 Y76.415 E7.83747
G1 X143.075 Y76.845 E7.84674
G1 X143.455 Y77.535 E7.86067
G1 X143.565 Y77.775 E7.86534
G1 X143.825 Y78.515 E7.87921
G1 X144.005 Y79.285 E7.89320
G1 X144.065 Y79.805 E7.90245
G1 X144.085 Y80.335 E7.91183
G1 X144.075 Y83.805 E7.97319
G1 X144.015 Y84.415 E7.98403
G1 X143.905 Y85.025 E7.99499
G1 X143.825 Y85.325 E8.00049
G1 X143.625 Y85.905 E8.01133
G1 X126.035 Y124.515 E8.76163
G1 X125.805 Y124.985 E8.77088
G1 X125.375 Y125.655 E8.78496
G1 X124.865 Y126.265 E8.79902
G1 X124.285 Y126.815 E8.81315
G1 X123.645 Y127.285 E8.82720
G1 X123.185 Y127.555 E8.83663
G1 X122.465 Y127.885 E8.85063
G1 X121.705 Y128.125 E8.86473
G1 X121.445 Y128.185 E8.86945
G1 X120.989 Y128.254 E8.87760
G1 X120.915 Y128.265 E8.87893
G1 X70.163 Y85.932 F7800.000
G1 X69.677 Y86.305 F300.000 E8.88975
G1 X69.112 Y86.539 E8.90057
G1 X68.505 Y86.619 E8.91139
G1 X67.898 Y86.539 E8.92221
G1 X67.333 Y86.305 E8.93303
G1 X66.848 Y85.933 E8.94385
G1 X66.475 Y85.447 E8.95467
G1 X66.241 Y84.882 E8.96549
G1 X66.161 Y84.275 E8.97631
G1 X66.241 Y83.669 E8.98713
G1 X66.475 Y83.103 E8.99795
G1 X66.847 Y82.618 E9.00878
G1 X67.333 Y82.245 E9.01960
G1 X67.898 Y82.011 E9.03042
G1 X68.505 Y81.931 E9.04124
G1 X69.112 Y82.011 E9.05206
G1 X69.677 Y82.245 E9.06288
G1 X70.162 Y82.618 E9.07370
G1 X70.535 Y83.103 E9.08452
G1 X70.769 Y83.668 E9.09534
G1 X70.849 Y84.275 E9.10616
G1 X70.769 Y84.882 E9.11698
G1 X70.535 Y85.447 E9.12780
G1 X70.208 Y85.873 E9.13730
G1 X70.163 Y85.932 E9.13862
G1 X69.806 Y85.576 F7800.000
G1 X69.425 Y85.868 F300.000 E9.14712
G1 X68.981 Y86.052 E9.15561
G1 X68.505 Y86.115 E9.16410
G1 X68.029 Y86.052 E9.17259
G1 X67.585 Y85.868 E9.18109
G1 X67.204 Y85.576 E9.18958
G1 X66.912 Y85.195 E9.19807
G1 X66.728 Y84.751 E9.20657
G1 X66.665 Y84.275 E9.21506
G1 X66.728 Y83.799 E9.22355
G1 X66.912 Y83.355 E9.23204
G1 X67.204 Y82.974 E9.24054
G1 X67.585 Y82.682 E9.24903
G1 X68.029 Y82.498 E9.25752
G1 X68.505 Y82.435 E9.26601
G1 X68.981 Y82.498 E9.27451
G1 X69.425 Y82.682 E9.28300
G1 X69.806 Y82.974 E9.29149
G1 X70.098 Y83.355 E9.29998
G1 X70.282 Y83.799 E9.30848
G1 X70.345 Y84.275 E9.31697
G1 X70.282 Y84.751 E9.32546
G1 X70.098 Y85.195 E9.33395
G1 X69.852 Y85.516 E9.34112
G1 X69.806 Y85.576 E9.34245
G1 X69.914 Y86.064 F7800.000
G1 X80.682 Y85.587
G1 X80.745 Y85.111 F300.000 E9.35094
G1 X80.928 Y84.667 E9.35943
G1 X81.221 Y84.286 E9.36793
G1 X81.602 Y83.994 E9.37642
G1 X82.045 Y83.810 E9.38491
G1 X82.522 Y83.747 E9.39340
G1 X82.998 Y83.810 E9.40190
G1 X83.441 Y83.994 E9.41039
G1 X83.822 Y84.286 E9.41888
G1 X84.115 Y84.667 E9.42737
G1 X84.299 Y85.111 E9.43587
G1 X84.361 Y85.587 E9.44436
G1 X84.299 Y86.063 E9.45285
G1 X84.115 Y86.507 E9.46134
G1 X83.823 Y86.888 E9.46984
G1 X83.442 Y87.180 E9.47833
G1 X82.998 Y87.364 E9.48682
G1 X82.522 Y87.427 E9.49531
G1 X82.046 Y87.364 E9.50381
G1 X81.602 Y87.180 E9.51230
G1 X81.221 Y86.888 E9.52079
G1 X80.929 Y86.507 E9.52929
G1 X80.745 Y86.063 E9.53778
G1 X80.692 Y85.662 E9.54494
G1 X80.682 Y85.587 E9.54627
G1 X80.260 Y85.319 F7800.000
G1 X111.166 Y85.585
G1 X111.246 Y84.979 F300.000 E9.55709
G1 X111.480 Y84.413 E9.56791
G1 X111.852 Y83.928 E9.57873
G1 X112.338 Y83.555 E9.58955
G1 X112.903 Y83.321 E9.60037
G1 X113.510 Y83.241 E9.61119
G1 X114.116 Y83.321 E9.62202
G1 X114.682 Y83.555 E9.63284
G1 X115.167 Y83.928 E9.64366
G1 X115.540 Y84.413 E9.65448
G1 X115.774 Y84.979 E9.66530
G1 X115.854 Y85.585 E9.67612
G1 X115.774 Y86.192 E9.68694
G1 X115.540 Y86.757 E9.69776
G1 X115.167 Y87.243 E9.70858
G1 X114.682 Y87.615 E9.71940
G1 X114.117 Y87.849 E9.73022
G1 X113.510 Y87.929 E9.74104
G1 X112.903 Y87.849 E9.75186
G1 X112.338 Y87.615 E9.76269
G1 X111.852 Y87.243 E9.77351
G1 X111.480 Y86.757 E9.78433
G1 X111.246 Y86.192 E9.79515
G1 X111.176 Y85.660 E9.80464
G1 X111.166 Y85.585 E9.80597
G1 X111.670 Y85.585 F7800.000
G1 X111.733 Y85.109 F300.000 E9.81446
G1 X111.916 Y84.666 E9.82295
G1 X112.209 Y84.285 E9.83145
G1 X112.590 Y83.992 E9.83994
G1 X113.033 Y83.808 E9.84843
G1 X113.510 Y83.746 E9.85692
G1 X113.986 Y83.808 E9.86542
G1 X114.429 Y83.992 E9.87391
G1 X114.810 Y84.284 E9.88240
G1 X115.103 Y84.665 E9.89089
G1 X115.287 Y85.109 E9.89939
G1 X115.349 Y85.585 E9.90788
G1 X115.287 Y86.061 E9.91637
G1 X115.103 Y86.505 E9.92487
G1 X114.811 Y86.886 E9.93336
G1 X114.430 Y87.178 E9.94185
G1 X113.986 Y87.362 E9.95034
G1 X113.510 Y87.425 E9.95884
G1 X113.034 Y87.362 E9.96733
G1 X112.590 Y87.179 E9.97582
G1 X112.209 Y86.886 E9.98431
G1 X111.917 Y86.505 E9.99281
G1 X111.733 Y86.062 E10.00130
G1 X111.680 Y85.660 E10.00847
G1 X111.670 Y85.585 E10.00979
G1 X111.248 Y85.317 F7800.000
G1 X113.511 Y114.229
G1 X114.118 Y114.309 F300.000 E10.02061
G1 X114.683 Y114.543 E10.03143
G1 X115.168 Y114.916 E10.04225
G1 X115.541 Y115.401 E10.05307
G1 X115.775 Y115.967 E10.06390
G1 X115.855 Y116.573 E10.07472
G1 X115.775 Y117.180 E10.08554
G1 X115.541 Y117.745 E10.09636
G1 X115.169 Y118.231 E10.10718
G1 X114.683 Y118.603 E10.11800
G1 X114.118 Y118.837 E10.12882
G1 X113.511 Y118.917 E10.13964
G1 X112.904 Y118.837 E10.15046
G1 X112.339 Y118.603 E10.16128
G1 X111.854 Y118.231 E10.17210
G1 X111.481 Y117.745 E10.18292
G1 X111.247 Y117.180 E10.19374
G1 X111.167 Y116.573 E10.20457
G1 X111.247 Y115.967 E10.21539
G1 X111.481 Y115.401 E10.22621
G1 X111.853 Y114.916 E10.23703
G1 X112.339 Y114.543 E10.24785
G1 X112.904 Y114.309 E10.25867
G1 X113.437 Y114.239 E10.26816
G1 X113.511 Y114.229 E10.26949
G1 X113.511 Y114.734 F7800.000
G1 X113.987 Y114.796 F300.000 E10.27798
G1 X114.431 Y114.980 E10.28648
G1 X114.812 Y115.272 E10.29497
G1 X115.104 Y115.653 E10.30346
G1 X115.288 Y116.097 E10.31195
G1 X115.351 Y116.573 E10.32045
G1 X115.288 Y117.049 E10.32894
G1 X115.104 Y117.493 E10.33743
G1 X114.812 Y117.874 E10.34592
G1 X114.431 Y118.166 E10.35442
G1 X113.987 Y118.350 E10.36291
G1 X113.511 Y118.413 E10.37140
G1 X113.035 Y118.350 E10.37989
G1 X112.591 Y118.167 E10.38839
G1 X112.210 Y117.874 E10.39688
G1 X111.918 Y117.493 E10.40537
G1 X111.734 Y117.050 E10.41386
G1 X111.671 Y116.573 E10.42236
G1 X111.734 Y116.097 E10.43085
G1 X111.918 Y115.654 E10.43934
G1 X112.210 Y115.273 E10.44784
G1 X112.591 Y114.980 E10.45633
G1 X113.035 Y114.796 E10.46482
G1 X113.437 Y114.743 E10.47199
G1 X113.511 Y114.734 E10.47331
G1 X113.780 Y114.312 F7800.000
G1 X84.866 Y116.516
G1 X84.802 Y117.125 F300.000 E10.48413
G1 X84.582 Y117.696 E10.49495
G1 X84.221 Y118.190 E10.50578
G1 X83.745 Y118.575 E10.51660
G1 X83.186 Y118.823 E10.52742
G1 X82.581 Y118.918 E10.53824
G1 X81.973 Y118.853 E10.54906
G1 X81.402 Y118.633 E10.55988
G1 X80.907 Y118.273 E10.57070
G1 X80.523 Y117.797 E10.58152
G1 X80.275 Y117.238 E10.59234
G1 X80.180 Y116.633 E10.60316
G1 X80.245 Y116.025 E10.61398
G1 X80.465 Y115.454 E10.62480
G1 X80.825 Y114.959 E10.63562
G1 X81.301 Y114.575 E10.64645
G1 X81.860 Y114.326 E10.65727
G1 X82.465 Y114.231 E10.66809
G1 X83.073 Y114.296 E10.67891
G1 X83.644 Y114.516 E10.68973
G1 X84.139 Y114.877 E10.70055
G1 X84.523 Y115.353 E10.71137
G1 X84.771 Y115.912 E10.72219
G1 X84.855 Y116.442 E10.73168
G1 X84.866 Y116.516 E10.73301
G1 X84.362 Y116.529 F7800.000
G1 X84.311 Y117.006 F300.000 E10.74150
G1 X84.139 Y117.455 E10.75000
G1 X83.856 Y117.843 E10.75849
G1 X83.482 Y118.145 E10.76698
G1 X83.043 Y118.339 E10.77547
G1 X82.569 Y118.414 E10.78397
G1 X82.091 Y118.363 E10.79246
G1 X81.643 Y118.190 E10.80095
G1 X81.255 Y117.908 E10.80944
G1 X80.953 Y117.534 E10.81794
G1 X80.758 Y117.095 E10.82643
G1 X80.684 Y116.621 E10.83492
G1 X80.735 Y116.143 E10.84342
G1 X80.907 Y115.695 E10.85191
G1 X81.190 Y115.307 E10.86040
G1 X81.564 Y115.005 E10.86889
G1 X82.003 Y114.810 E10.87739
G1 X82.477 Y114.736 E10.88588
G1 X82.955 Y114.786 E10.89437
G1 X83.403 Y114.959 E10.90286
G1 X83.791 Y115.242 E10.91136
G1 X84.093 Y115.616 E10.91985
G1 X84.288 Y116.054 E10.92834
G1 X84.350 Y116.455 E10.93551
G1 X84.362 Y116.529 E10.93683
G1 X84.790 Y116.787 F7800.000
G1 X86.506 Y112.201
G1 X88.347 Y113.143 F900.000 E10.97340
G1 X90.272 Y113.900 E11.00999
G1 X92.265 Y114.460 E11.04659
G1 X94.303 Y114.819 E11.08319
G1 X96.365 Y114.972 E11.11976
G1 X98.434 Y114.920 E11.15636
G1 X100.486 Y114.663 E11.19293
G1 X102.503 Y114.202 E11.22951
G1 X104.464 Y113.544 E11.26609
G1 X106.348 Y112.694 E11.30265
G1 X108.128 Y111.668 E11.33897
G1 X108.833 Y111.202 E11.35392
G1 X110.615 Y110.295 E11.38929
G1 X112.871 Y107.911 E11.44732
G1 X112.871 Y91.414 E11.73907
G1 X112.361 Y90.418 E11.75886
G1 X110.773 Y90.418 E11.78693
G1 X108.457 Y85.904 E11.87665
G1 X108.457 Y84.584 E11.89999
G1 X110.378 Y80.837 E11.97446
G1 X137.095 Y80.836 E12.44691
G1 X137.095 Y82.997 E12.48513
G1 X135.420 Y82.997 E12.51475
G1 X135.420 Y81.708 E12.53755
G1 X127.570 Y81.708 E12.67637
G1 X127.570 Y88.017 E12.78793
G1 X119.311 Y88.018 E12.93398
G1 X116.992 Y108.362 E13.29608
G1 X119.634 Y108.362 E13.34280
G1 X119.635 Y121.323 E13.57199
G1 X75.607 Y121.325 E14.35057
G1 X75.605 Y89.875 E14.90673
G1 X68.554 Y89.875 E15.03141
G1 X67.058 Y89.678 E15.05811
G1 X65.708 Y89.119 E15.08393
G1 X64.550 Y88.230 E15.10976
G1 X63.661 Y87.072 E15.13558
G1 X63.102 Y85.723 E15.16140
G1 X62.911 Y84.275 E15.18722
G1 X63.102 Y82.828 E15.21304
G1 X63.661 Y81.479 E15.23887
G1 X64.550 Y80.320 E15.26469
G1 X65.708 Y79.431 E15.29051
G1 X67.057 Y78.872 E15.31633
G1 X68.554 Y78.675 E15.34303
G1 X74.768 Y78.675 E15.45291
G1 X85.216 Y81.146 E15.64278
G1 X85.216 Y85.379 E15.71763
G1 X84.971 Y85.427 E15.72205
G1 X84.552 Y84.415 E15.74143
G1 X84.179 Y83.930 E15.75225
G1 X83.694 Y83.557 E15.76307
G1 X83.128 Y83.323 E15.77389
G1 X82.522 Y83.243 E15.78471
G1 X81.915 Y83.323 E15.79553
G1 X81.350 Y83.557 E15.80635
G1 X80.864 Y83.930 E15.81718
G1 X80.492 Y84.415 E15.82800
G1 X80.258 Y84.981 E15.83882
G1 X80.178 Y85.587 E15.84964
G1 X80.258 Y86.194 E15.86046
G1 X80.492 Y86.759 E15.87128
G1 X80.864 Y87.245 E15.88210
G1 X81.350 Y87.617 E15.89292
G1 X81.915 Y87.851 E15.90374
G1 X82.522 Y87.931 E15.91456
G1 X83.128 Y87.851 E15.92538
G1 X83.694 Y87.617 E15.93620
G1 X84.179 Y87.244 E15.94702
G1 X84.552 Y86.759 E15.95784
G1 X84.971 Y85.747 E15.97722
G1 X85.216 Y85.795 E15.98165
G1 X85.217 Y89.401 E16.04542
G1 X83.465 Y93.876 E16.13038
G1 X82.905 Y95.868 E16.16698
G1 X82.548 Y97.905 E16.20356
G1 X82.392 Y99.968 E16.24013
G1 X82.444 Y102.037 E16.27673
G1 X82.702 Y104.089 E16.31331
G1 X83.162 Y106.106 E16.34990
G1 X83.822 Y108.067 E16.38649
G1 X84.673 Y109.951 E16.42304
G1 X85.652 Y111.648 E16.45768
G1 X86.443 Y112.160 E16.47434
G1 X86.506 Y112.201 E16.47567
G1 X86.756 Y111.767 F7800.000
G1 X88.553 Y112.686 F900.000 E16.51136
G1 X90.432 Y113.425 E16.54706
G1 X92.376 Y113.972 E16.58278
G1 X94.365 Y114.322 E16.61849
G1 X96.377 Y114.472 E16.65418
G1 X98.396 Y114.421 E16.68989
G1 X100.399 Y114.170 E16.72559
G1 X102.367 Y113.720 E16.76129
G1 X104.281 Y113.078 E16.79698
G1 X106.120 Y112.248 E16.83266
G1 X107.865 Y111.242 E16.86828
G1 X108.581 Y110.770 E16.88346
G1 X110.311 Y109.888 E16.91779
G1 X112.371 Y107.712 E16.97079
G1 X112.371 Y91.534 E17.25687
