; generated by Slic3r 0.9.8 on 2013-05-25 at 11:43:03

; layer_height = .25
; perimeters = 1
; top_solid_layers = 4
; bottom_solid_layers = 4
; fill_density = .9
; perimeter_speed = 30
; infill_speed = 40
; travel_speed = 130
; scale = 1
; nozzle_diameter = 0.5
; filament_diameter = 3
; extrusion_multiplier = 1
; perimeters extrusion width = 0.80mm
; infill extrusion width = 0.80mm
; first layer extrusion width = 0.50mm

M107
M104 S210 ; set temperature
G28 ; home all axes
M109 S210 ; wait for temperature to be reached
G90 ; use absolute coordinates
G21 ; set units to millimeters
G92 E0
M82 ; use absolute distances for extrusion
G1 Z0.250 F7800.000
G1 X123.285 Y118.880
G1 X122.815 Y119.170 F900.000 E0.00977
G1 X122.325 Y119.420 E0.01949
G1 X121.815 Y119.630 E0.02925
G1 X121.295 Y119.800 E0.03892
G1 X120.765 Y119.930 E0.04857
G1 X120.215 Y120.010 E0.05840
G1 X119.945 Y120.040 E0.06320
G1 X119.395 Y120.060 E0.07294
G1 X80.605 Y120.060 E0.75890
G1 X80.055 Y120.040 E0.76863
G1 X79.235 Y119.930 E0.78326
G1 X78.705 Y119.800 E0.79291
G1 X78.185 Y119.630 E0.80258
G1 X77.675 Y119.420 E0.81234
G1 X77.185 Y119.170 E0.82206
G1 X76.715 Y118.880 E0.83183
G1 X76.275 Y118.560 E0.84145
G1 X75.655 Y118.010 E0.85611
G1 X75.285 Y117.610 E0.86574
G1 X74.785 Y116.950 E0.88039
G1 X74.365 Y116.240 E0.89497
G1 X74.035 Y115.480 E0.90963
G1 X73.795 Y114.690 E0.92423
G1 X73.735 Y114.430 E0.92895
G1 X73.655 Y113.880 E0.93877
G1 X73.625 Y113.610 E0.94358
G1 X73.605 Y113.060 E0.95331
G1 X73.605 Y86.940 E1.41521
G1 X73.625 Y86.390 E1.42495
G1 X73.735 Y85.570 E1.43958
G1 X73.865 Y85.040 E1.44923
G1 X74.135 Y84.260 E1.46382
G1 X74.365 Y83.760 E1.47356
G1 X74.785 Y83.050 E1.48814
G1 X75.285 Y82.390 E1.50279
G1 X75.655 Y81.990 E1.51242
G1 X76.275 Y81.440 E1.52708
G1 X76.715 Y81.120 E1.53670
G1 X77.185 Y80.830 E1.54647
G1 X77.675 Y80.580 E1.55619
G1 X78.185 Y80.370 E1.56595
G1 X78.705 Y80.200 E1.57562
G1 X79.235 Y80.070 E1.58527
G1 X80.055 Y79.960 E1.59990
G1 X80.605 Y79.940 E1.60963
G1 X119.395 Y79.940 E2.29559
G1 X119.945 Y79.960 E2.30533
G1 X120.765 Y80.070 E2.31996
G1 X121.295 Y80.200 E2.32961
G1 X121.815 Y80.370 E2.33928
G1 X122.325 Y80.580 E2.34903
G1 X122.815 Y80.830 E2.35876
G1 X123.285 Y81.120 E2.36853
G1 X123.725 Y81.440 E2.37815
G1 X124.345 Y81.990 E2.39281
G1 X124.715 Y82.390 E2.40244
G1 X125.215 Y83.050 E2.41708
G1 X125.635 Y83.760 E2.43167
G1 X125.865 Y84.260 E2.44140
G1 X126.135 Y85.040 E2.45600
G1 X126.265 Y85.570 E2.46565
G1 X126.375 Y86.390 E2.48028
G1 X126.395 Y86.940 E2.49001
G1 X126.395 Y113.060 E2.95192
G1 X126.375 Y113.610 E2.96165
G1 X126.345 Y113.880 E2.96645
G1 X126.265 Y114.430 E2.97628
G1 X126.205 Y114.690 E2.98100
G1 X125.965 Y115.480 E2.99560
G1 X125.635 Y116.240 E3.01025
G1 X125.215 Y116.950 E3.02484
G1 X124.715 Y117.610 E3.03948
G1 X124.345 Y118.010 E3.04912
G1 X123.945 Y118.380 E3.05876
G1 X123.345 Y118.836 E3.07207
G1 X123.285 Y118.880 E3.07340
G1 X123.085 Y118.410 F7800.000
G1 X122.415 Y118.820 F900.000 E3.08729
G1 X121.945 Y119.040 E3.09647
G1 X121.455 Y119.230 E3.10576
G1 X120.955 Y119.370 E3.11494
G1 X120.435 Y119.480 E3.12434
G1 X119.915 Y119.540 E3.13360
G1 X119.395 Y119.560 E3.14280
G1 X80.605 Y119.560 E3.82876
G1 X80.085 Y119.540 E3.83796
G1 X79.565 Y119.480 E3.84722
G1 X79.045 Y119.370 E3.85662
G1 X78.545 Y119.230 E3.86580
G1 X78.055 Y119.040 E3.87509
G1 X77.585 Y118.820 E3.88427
G1 X77.355 Y118.690 E3.88894
G1 X76.705 Y118.260 E3.90272
G1 X76.295 Y117.930 E3.91203
G1 X75.735 Y117.370 E3.92603
G1 X75.255 Y116.750 E3.93990
G1 X74.845 Y116.080 E3.95379
G1 X74.525 Y115.360 E3.96772
G1 X74.435 Y115.120 E3.97226
G1 X74.295 Y114.620 E3.98144
G1 X74.185 Y114.100 E3.99084
G1 X74.125 Y113.580 E4.00009
G1 X74.105 Y113.060 E4.00930
G1 X74.105 Y86.940 E4.47120
G1 X74.125 Y86.420 E4.48040
G1 X74.185 Y85.900 E4.48966
G1 X74.235 Y85.640 E4.49434
G1 X74.435 Y84.880 E4.50824
G1 X74.625 Y84.390 E4.51753
G1 X74.845 Y83.920 E4.52671
G1 X75.255 Y83.250 E4.54060
G1 X75.735 Y82.630 E4.55446
G1 X76.295 Y82.070 E4.56847
G1 X76.705 Y81.740 E4.57778
G1 X76.915 Y81.590 E4.58234
G1 X77.585 Y81.180 E4.59623
G1 X78.055 Y80.960 E4.60541
G1 X78.545 Y80.770 E4.61470
G1 X79.045 Y80.630 E4.62388
G1 X79.565 Y80.520 E4.63328
G1 X80.085 Y80.460 E4.64254
G1 X80.605 Y80.440 E4.65174
G1 X119.395 Y80.440 E5.33770
G1 X119.915 Y80.460 E5.34690
G1 X120.435 Y80.520 E5.35616
G1 X120.955 Y80.630 E5.36556
G1 X121.455 Y80.770 E5.37474
G1 X121.945 Y80.960 E5.38403
G1 X122.415 Y81.180 E5.39321
G1 X122.645 Y81.310 E5.39788
G1 X123.295 Y81.740 E5.41166
G1 X123.705 Y82.070 E5.42097
G1 X124.265 Y82.630 E5.43498
G1 X124.745 Y83.250 E5.44884
G1 X125.155 Y83.920 E5.46273
G1 X125.375 Y84.390 E5.47191
G1 X125.565 Y84.880 E5.48120
G1 X125.765 Y85.640 E5.49510
G1 X125.815 Y85.900 E5.49978
G1 X125.875 Y86.420 E5.50904
G1 X125.895 Y86.940 E5.51824
G1 X125.895 Y113.060 E5.98015
G1 X125.875 Y113.580 E5.98935
G1 X125.815 Y114.100 E5.99860
G1 X125.705 Y114.620 E6.00800
G1 X125.565 Y115.120 E6.01719
G1 X125.475 Y115.360 E6.02172
G1 X125.155 Y116.080 E6.03565
G1 X124.745 Y116.750 E6.04954
G1 X124.265 Y117.370 E6.06341
G1 X123.705 Y117.930 E6.07741
G1 X123.146 Y118.366 E6.08995
G1 X123.085 Y118.410 E6.09128
G1 X114.414 Y101.939 F7800.000
G1 X113.875 Y102.162 F300.000 E6.10161
G1 X113.295 Y102.239 E6.11194
G1 X112.716 Y102.162 E6.12228
G1 X112.176 Y101.939 E6.13261
G1 X112.128 Y101.902 E6.13367
G1 X111.713 Y101.583 E6.14294
G1 X111.357 Y101.120 E6.15328
G1 X111.133 Y100.580 E6.16361
G1 X111.057 Y100.000 E6.17394
G1 X111.133 Y99.421 E6.18427
G1 X111.357 Y98.881 E6.19461
G1 X111.713 Y98.418 E6.20494
G1 X112.176 Y98.062 E6.21527
G1 X112.716 Y97.838 E6.22560
G1 X113.295 Y97.762 E6.23594
G1 X113.875 Y97.838 E6.24627
G1 X114.414 Y98.062 E6.25660
G1 X114.878 Y98.418 E6.26694
G1 X115.234 Y98.881 E6.27727
G1 X115.457 Y99.421 E6.28760
G1 X115.534 Y100.000 E6.29793
G1 X115.457 Y100.580 E6.30827
G1 X115.234 Y101.120 E6.31860
G1 X114.878 Y101.583 E6.32893
G1 X114.474 Y101.893 E6.33794
G1 X114.414 Y101.939 E6.33926
G1 X114.393 Y102.438 F7800.000
G1 X114.667 Y102.376
G1 X115.235 Y101.940 F900.000 E6.35192
G1 X115.670 Y101.372 E6.36459
G1 X115.944 Y100.710 E6.37725
G1 X116.038 Y100.000 E6.38991
G1 X115.944 Y99.291 E6.40257
G1 X115.670 Y98.629 E6.41523
G1 X115.235 Y98.061 E6.42789
G1 X114.667 Y97.625 E6.44055
G1 X114.005 Y97.351 E6.45321
G1 X113.295 Y97.258 E6.46587
G1 X112.585 Y97.351 E6.47853
G1 X111.924 Y97.625 E6.49119
G1 X111.119 Y98.243 E6.50915
G1 X111.119 Y87.441 E6.70018
G1 X118.895 Y87.441 E6.83770
G1 X118.895 Y112.560 E7.28190
G1 X111.119 Y112.560 E7.41943
G1 X111.119 Y101.758 E7.61046
G1 X111.924 Y102.376 E7.62841
G1 X112.585 Y102.650 E7.64107
G1 X113.295 Y102.743 E7.65373
G1 X114.005 Y102.650 E7.66639
G1 X114.597 Y102.404 E7.67773
G1 X114.667 Y102.376 E7.67905
G1 X110.619 Y100.219 F7800.000
G1 X110.619 Y86.941 F900.000 E7.91386
G1 X119.395 Y86.941 E8.06907
G1 X119.395 Y113.060 E8.53096
G1 X110.619 Y113.060 E8.68616
G1 X110.619 Y100.294 E8.91192
G1 X110.619 Y100.219 E8.91324
G1 X111.052 Y99.969 F7800.000
G1 X89.447 Y100.000
G1 X89.354 Y100.710 F300.000 E8.92590
G1 X89.080 Y101.372 E8.93856
G1 X88.644 Y101.940 E8.95123
G1 X88.076 Y102.376 E8.96389
G1 X87.415 Y102.650 E8.97655
G1 X86.705 Y102.743 E8.98921
G1 X85.995 Y102.650 E9.00187
G1 X85.333 Y102.376 E9.01453
G1 X84.765 Y101.940 E9.02719
G1 X84.330 Y101.372 E9.03985
G1 X84.056 Y100.710 E9.05251
G1 X83.962 Y100.000 E9.06517
G1 X84.056 Y99.291 E9.07783
G1 X84.330 Y98.629 E9.09049
G1 X84.765 Y98.061 E9.10315
G1 X85.333 Y97.625 E9.11582
G1 X85.995 Y97.351 E9.12848
G1 X86.705 Y97.258 E9.14114
G1 X87.415 Y97.351 E9.15380
G1 X88.076 Y97.625 E9.16646
G1 X88.644 Y98.061 E9.17912
G1 X89.080 Y98.629 E9.19178
G1 X89.354 Y99.291 E9.20444
G1 X89.437 Y99.926 E9.21578
G1 X89.447 Y100.000 E9.21710
G1 X88.943 Y100.000 F7800.000
G1 X88.867 Y100.580 F300.000 E9.22743
G1 X88.643 Y101.120 E9.23777
G1 X88.287 Y101.583 E9.24810
G1 X87.824 Y101.939 E9.25843
G1 X87.284 Y102.162 E9.26877
G1 X86.705 Y102.239 E9.27910
G1 X86.125 Y102.162 E9.28943
G1 X85.586 Y101.939 E9.29976
G1 X85.122 Y101.583 E9.31010
G1 X84.766 Y101.120 E9.32043
G1 X84.543 Y100.580 E9.33076
G1 X84.466 Y100.000 E9.34109
G1 X84.543 Y99.421 E9.35143
G1 X84.766 Y98.881 E9.36176
G1 X85.122 Y98.418 E9.37209
G1 X85.586 Y98.062 E9.38242
G1 X86.125 Y97.838 E9.39276
G1 X86.705 Y97.762 E9.40309
G1 X87.284 Y97.838 E9.41342
G1 X87.824 Y98.062 E9.42376
G1 X88.287 Y98.418 E9.43409
G1 X88.643 Y98.881 E9.44442
G1 X88.867 Y99.421 E9.45475
G1 X88.933 Y99.926 E9.46376
G1 X88.943 Y100.000 E9.46509
G1 X89.365 Y100.269 F7800.000
G1 X81.105 Y112.085
G1 X81.105 Y87.441 F900.000 E9.90089
G1 X106.157 Y87.441 E10.34391
G1 X106.157 Y112.560 E10.78811
G1 X81.105 Y112.560 E11.23113
G1 X81.105 Y112.160 E11.23820
G1 X81.105 Y112.085 E11.23953
G1 X80.605 Y112.085 F7800.000
G1 X80.605 Y86.941 F900.000 E11.68418
G1 X106.657 Y86.941 E12.14488
G1 X106.657 Y113.060 E12.60676
G1 X80.605 Y113.060 E13.06746
G1 X80.605 Y112.160 E13.08338
G1 X80.605 Y112.085 E13.08470
G1 X81.038 Y111.835 F7800.000
G1 X81.380 Y103.015
G1 X85.797 Y103.015 F1500.000 E13.16320
G1 X84.916 Y102.513 E13.18122
G1 X81.380 Y102.513 E13.24407
G1 X81.380 Y102.010 E13.25300
G1 X84.415 Y102.010 E13.30693
G1 X84.070 Y101.508 E13.31776
G1 X81.380 Y101.508 E13.36557
G1 X81.380 Y101.005 E13.37450
G1 X83.862 Y101.005 E13.41861
G1 X83.749 Y100.503 E13.42776
G1 X81.380 Y100.503 E13.46987
G1 X81.380 Y100.000 E13.47880
G1 X83.683 Y100.000 E13.51974
G1 X83.749 Y99.498 E13.52874
G1 X81.380 Y99.498 E13.57085
G1 X81.380 Y98.995 E13.57978
G1 X83.862 Y98.995 E13.62389
G1 X84.070 Y98.493 E13.63356
G1 X81.380 Y98.493 E13.68137
G1 X81.380 Y97.990 E13.69030
G1 X84.415 Y97.990 E13.74423
G1 X84.916 Y97.488 E13.75685
G1 X81.380 Y97.488 E13.81970
G1 X81.380 Y96.986 E13.82863
G1 X85.797 Y96.986 E13.90713
G1 X87.613 Y96.986 F7800.000
G1 X105.882 Y96.986 F1500.000 E14.23180
G1 X105.882 Y97.488 E14.24073
G1 X88.493 Y97.488 E14.54976
G1 X88.995 Y97.990 E14.56237
G1 X105.882 Y97.990 E14.86248
G1 X105.882 Y98.493 E14.87141
G1 X89.339 Y98.493 E15.16539
G1 X89.548 Y98.995 E15.17506
G1 X105.882 Y98.995 E15.46534
G1 X105.882 Y99.498 E15.47427
G1 X89.660 Y99.498 E15.76255
G1 X89.726 Y100.000 E15.77156
G1 X105.882 Y100.000 E16.05866
G1 X105.882 Y100.503 E16.06759
G1 X89.660 Y100.503 E16.35587
G1 X89.548 Y101.005 E16.36503
G1 X105.882 Y101.005 E16.65531
G1 X105.882 Y101.508 E16.66424
G1 X89.339 Y101.508 E16.95822
G1 X88.995 Y102.010 E16.96905
G1 X105.882 Y102.010 E17.26915
G1 X105.882 Y102.513 E17.27808
G1 X88.493 Y102.513 E17.58710
G1 X87.613 Y103.015 E17.60512
G1 X105.882 Y103.015 E17.92979
G1 X105.882 Y103.518 E17.93872
G1 X81.380 Y103.518 E18.37416
G1 X81.380 Y104.020 E18.38309
G1 X105.882 Y104.020 E18.81853
G1 X105.882 Y104.523 E18.82746
G1 X81.380 Y104.523 E19.26290
G1 X81.380 Y105.025 E19.27183
G1 X105.882 Y105.025 E19.70727
G1 X105.882 Y105.528 E19.71620
G1 X81.380 Y105.528 E20.15164
G1 X81.380 Y106.030 E20.16057
G1 X105.882 Y106.030 E20.59602
G1 X105.882 Y106.533 E20.60495
G1 X81.380 Y106.533 E21.04039
G1 X81.380 Y107.035 E21.04932
G1 X105.882 Y107.035 E21.48476
G1 X105.882 Y107.538 E21.49369
G1 X81.380 Y107.538 E21.92913
G1 X81.380 Y108.040 E21.93806
G1 X105.882 Y108.040 E22.37350
G1 X105.882 Y108.543 E22.38243
G1 X81.380 Y108.543 E22.81787
G1 X81.380 Y109.045 E22.82680
G1 X105.882 Y109.045 E23.26224
G1 X105.882 Y109.548 E23.27117
G1 X81.380 Y109.548 E23.70662
G1 X81.380 Y110.050 E23.71555
G1 X105.882 Y110.050 E24.15099
G1 X105.882 Y110.553 E24.15992
G1 X81.380 Y110.553 E24.59536
G1 X81.380 Y111.055 E24.60429
G1 X105.882 Y111.055 E25.03973
G1 X105.882 Y111.558 E25.04866
G1 X81.380 Y111.558 E25.48410
G1 X81.380 Y112.060 E25.49303
G1 X105.882 Y112.060 E25.92847
G1 X81.380 Y96.483 F7800.000
G1 X105.882 Y96.483 F1500.000 E26.36391
G1 X105.882 Y95.981 E26.37284
G1 X81.380 Y95.981 E26.80828
G1 X81.380 Y95.478 E26.81721
G1 X105.882 Y95.478 E27.25266
G1 X105.882 Y94.976 E27.26159
G1 X81.380 Y94.976 E27.69703
G1 X81.380 Y94.473 E27.70596
G1 X105.882 Y94.473 E28.14140
G1 X105.882 Y93.971 E28.15033
G1 X81.380 Y93.971 E28.58577
G1 X81.380 Y93.468 E28.59470
G1 X105.882 Y93.468 E29.03014
G1 X105.882 Y92.966 E29.03907
G1 X81.380 Y92.966 E29.47451
G1 X81.380 Y92.463 E29.48344
G1 X105.882 Y92.463 E29.91888
G1 X105.882 Y91.961 E29.92781
G1 X81.380 Y91.961 E30.36326
G1 X81.380 Y91.458 E30.37218
G1 X105.882 Y91.458 E30.80763
G1 X105.882 Y90.956 E30.81656
G1 X81.380 Y90.956 E31.25200
G1 X81.380 Y90.453 E31.26093
G1 X105.882 Y90.453 E31.69637
G1 X105.882 Y89.951 E31.70530
G1 X81.380 Y89.951 E32.14074
G1 X81.380 Y89.448 E32.14967
G1 X105.882 Y89.448 E32.58511
G1 X105.882 Y88.946 E32.59404
G1 X81.380 Y88.946 E33.02948
G1 X81.380 Y88.443 E33.03841
G1 X105.882 Y88.443 E33.47385
G1 X105.882 Y87.941 E33.48278
G1 X81.380 Y87.941 E33.91823
G1 X111.394 Y87.941 F7800.000
G1 X118.620 Y87.941 F1500.000 E34.04666
G1 X118.620 Y88.443 E34.05559
G1 X111.394 Y88.443 E34.18402
G1 X111.394 Y88.946 E34.19295
G1 X118.620 Y88.946 E34.32138
G1 X118.620 Y89.448 E34.33031
G1 X111.394 Y89.448 E34.45875
G1 X111.394 Y89.951 E34.46768
G1 X118.620 Y89.951 E34.59611
G1 X118.620 Y90.453 E34.60504
G1 X111.394 Y90.453 E34.73347
G1 X111.394 Y90.956 E34.74240
G1 X118.620 Y90.956 E34.87083
G1 X118.620 Y91.458 E34.87976
G1 X111.394 Y91.458 E35.00820
G1 X111.394 Y91.961 E35.01713
G1 X118.620 Y91.961 E35.14556
G1 X118.620 Y92.463 E35.15449
G1 X111.394 Y92.463 E35.28292
G1 X111.394 Y92.966 E35.29185
G1 X118.620 Y92.966 E35.42028
G1 X118.620 Y93.468 E35.42921
G1 X111.394 Y93.468 E35.55765
G1 X111.394 Y93.971 E35.56658
G1 X118.620 Y93.971 E35.69501
G1 X118.620 Y94.473 E35.70394
G1 X111.394 Y94.473 E35.83237
G1 X111.394 Y94.976 E35.84130
G1 X118.620 Y94.976 E35.96974
G1 X118.620 Y95.478 E35.97867
G1 X111.394 Y95.478 E36.10710
G1 X111.394 Y95.981 E36.11603
G1 X118.620 Y95.981 E36.24446
G1 X118.620 Y96.483 E36.25339
G1 X111.394 Y96.483 E36.38182
G1 X111.394 Y96.986 E36.39075
G1 X112.387 Y96.986 E36.40842
G1 X114.203 Y96.986 F7800.000
G1 X118.620 Y96.986 F1500.000 E36.48692
G1 X118.620 Y97.488 E36.49585
G1 X115.084 Y97.488 E36.55870
G1 X115.585 Y97.991 E36.57132
G1 X118.620 Y97.991 E36.62525
G1 X118.620 Y98.493 E36.63418
G1 X115.930 Y98.493 E36.68199
G1 X116.138 Y98.995 E36.69166
G1 X118.620 Y98.995 E36.73577
G1 X118.620 Y99.498 E36.74470
G1 X116.251 Y99.498 E36.78681
G1 X116.317 Y100.000 E36.79582
G1 X118.620 Y100.000 E36.83675
G1 X118.620 Y100.503 E36.84568
G1 X116.251 Y100.503 E36.88779
G1 X116.138 Y101.005 E36.89694
G1 X118.620 Y101.005 E36.94106
G1 X118.620 Y101.508 E36.94999
G1 X115.930 Y101.508 E36.99780
G1 X115.585 Y102.010 E37.00863
G1 X118.620 Y102.010 E37.06256
G1 X118.620 Y102.513 E37.07149
G1 X115.084 Y102.513 E37.13434
G1 X114.203 Y103.015 E37.15236
G1 X118.620 Y103.015 E37.23086
G1 X118.620 Y103.518 E37.23979
G1 X111.394 Y103.518 E37.36822
G1 X111.394 Y104.020 E37.37715
G1 X118.620 Y104.020 E37.50558
G1 X118.620 Y104.523 E37.51451
G1 X111.394 Y104.523 E37.64294
G1 X111.394 Y105.025 E37.65187
G1 X118.620 Y105.025 E37.78031
G1 X118.620 Y105.528 E37.78924
G1 X111.394 Y105.528 E37.91767
G1 X111.394 Y106.030 E37.92660
G1 X118.620 Y106.030 E38.05503
G1 X118.620 Y106.533 E38.06396
G1 X111.394 Y106.533 E38.19240
G1 X111.394 Y107.035 E38.20133
G1 X118.620 Y107.035 E38.32976
G1 X118.620 Y107.538 E38.33869
G1 X111.394 Y107.538 E38.46712
G1 X111.394 Y108.040 E38.47605
G1 X118.620 Y108.040 E38.60448
G1 X118.620 Y108.543 E38.61341
G1 X111.394 Y108.543 E38.74185
G1 X111.394 Y109.045 E38.75078
G1 X118.620 Y109.045 E38.87921
G1 X118.620 Y109.548 E38.88814
G1 X111.394 Y109.548 E39.01657
G1 X111.394 Y110.050 E39.02550
