; generated by Slic3r 0.9.8 on 2013-05-25 at 12:33:10

; layer_height = .25
; perimeters = 1
; top_solid_layers = 4
; bottom_solid_layers = 4
; fill_density = .9
; perimeter_speed = 30
; infill_speed = 40
; travel_speed = 130
; scale = 1
; nozzle_diameter = 0.5
; filament_diameter = 3
; extrusion_multiplier = 1
; perimeters extrusion width = 0.80mm
; infill extrusion width = 0.80mm
; first layer extrusion width = 0.50mm

M107
M104 S210 ; set temperature
G28 ; home all axes
M109 S210 ; wait for temperature to be reached
G90 ; use absolute coordinates
G21 ; set units to millimeters
G92 E0
M82 ; use absolute distances for extrusion
G1 Z0.250 F7800.000
G1 X114.785 Y33.169
G1 X114.785 Y166.829 F900.000 E2.36363
G1 X114.765 Y167.379 E2.37336
G1 X114.655 Y168.199 E2.38799
G1 X114.525 Y168.729 E2.39764
G1 X114.355 Y169.249 E2.40732
G1 X114.025 Y170.009 E2.42197
G1 X113.755 Y170.489 E2.43171
G1 X113.285 Y171.159 E2.44618
G1 X112.735 Y171.779 E2.46084
G1 X112.115 Y172.329 E2.47549
G1 X111.675 Y172.649 E2.48511
G1 X111.205 Y172.939 E2.49488
G1 X110.465 Y173.299 E2.50943
G1 X109.945 Y173.489 E2.51922
G1 X109.415 Y173.639 E2.52896
G1 X109.155 Y173.699 E2.53368
G1 X108.605 Y173.779 E2.54351
G1 X108.335 Y173.809 E2.54831
G1 X107.785 Y173.829 E2.55805
G1 X92.205 Y173.829 E2.83356
G1 X91.655 Y173.809 E2.84329
G1 X90.835 Y173.699 E2.85792
G1 X90.305 Y173.569 E2.86757
G1 X89.525 Y173.299 E2.88217
G1 X89.025 Y173.069 E2.89190
G1 X88.545 Y172.799 E2.90164
G1 X87.875 Y172.329 E2.91612
G1 X87.455 Y171.969 E2.92590
G1 X87.065 Y171.579 E2.93565
G1 X86.705 Y171.159 E2.94543
G1 X86.235 Y170.489 E2.95991
G1 X85.965 Y170.009 E2.96965
G1 X85.735 Y169.509 E2.97938
G1 X85.465 Y168.729 E2.99397
G1 X85.335 Y168.199 E3.00362
G1 X85.225 Y167.379 E3.01826
G1 X85.205 Y166.829 E3.02799
G1 X85.205 Y33.169 E5.39162
G1 X85.225 Y32.619 E5.40135
G1 X85.335 Y31.799 E5.41598
G1 X85.465 Y31.269 E5.42563
G1 X85.635 Y30.749 E5.43530
G1 X85.965 Y29.989 E5.44996
G1 X86.235 Y29.509 E5.45969
G1 X86.705 Y28.839 E5.47417
G1 X87.255 Y28.219 E5.48882
G1 X87.875 Y27.669 E5.50348
G1 X88.315 Y27.349 E5.51310
G1 X88.785 Y27.059 E5.52287
G1 X89.525 Y26.699 E5.53742
G1 X90.045 Y26.509 E5.54721
G1 X90.575 Y26.359 E5.55695
G1 X90.835 Y26.299 E5.56167
G1 X91.385 Y26.219 E5.57150
G1 X91.655 Y26.189 E5.57630
G1 X92.205 Y26.169 E5.58603
G1 X107.785 Y26.169 E5.86155
G1 X108.335 Y26.189 E5.87128
G1 X109.155 Y26.299 E5.88591
G1 X109.685 Y26.429 E5.89556
G1 X110.465 Y26.699 E5.91016
G1 X110.965 Y26.929 E5.91989
G1 X111.445 Y27.199 E5.92963
G1 X112.115 Y27.669 E5.94410
G1 X112.535 Y28.029 E5.95389
G1 X112.925 Y28.419 E5.96364
G1 X113.285 Y28.839 E5.97342
G1 X113.755 Y29.509 E5.98789
G1 X114.025 Y29.989 E5.99763
G1 X114.255 Y30.489 E6.00737
G1 X114.525 Y31.269 E6.02196
G1 X114.655 Y31.799 E6.03161
G1 X114.765 Y32.619 E6.04624
G1 X114.783 Y33.094 E6.05465
G1 X114.785 Y33.169 E6.05598
G1 X114.285 Y33.169 F7800.000
G1 X114.285 Y166.829 F900.000 E8.41960
G1 X114.265 Y167.349 E8.42881
G1 X114.205 Y167.869 E8.43806
G1 X114.155 Y168.129 E8.44274
G1 X113.955 Y168.889 E8.45664
G1 X113.765 Y169.379 E8.46594
G1 X113.545 Y169.849 E8.47511
G1 X113.415 Y170.079 E8.47978
G1 X112.985 Y170.729 E8.49357
G1 X112.655 Y171.139 E8.50287
G1 X112.475 Y171.329 E8.50750
G1 X112.095 Y171.699 E8.51688
G1 X111.685 Y172.029 E8.52619
G1 X111.035 Y172.459 E8.53997
G1 X110.805 Y172.589 E8.54464
G1 X110.335 Y172.809 E8.55382
G1 X109.845 Y172.999 E8.56311
G1 X109.345 Y173.139 E8.57229
G1 X108.825 Y173.249 E8.58169
G1 X108.305 Y173.309 E8.59095
G1 X107.785 Y173.329 E8.60015
G1 X92.205 Y173.329 E8.87567
G1 X91.685 Y173.309 E8.88487
G1 X91.165 Y173.249 E8.89413
G1 X90.645 Y173.139 E8.90353
G1 X90.145 Y172.999 E8.91271
G1 X89.905 Y172.909 E8.91724
G1 X89.415 Y172.699 E8.92667
G1 X88.955 Y172.459 E8.93584
G1 X88.305 Y172.029 E8.94963
G1 X87.895 Y171.699 E8.95893
G1 X87.335 Y171.139 E8.97294
G1 X87.005 Y170.729 E8.98224
G1 X86.855 Y170.519 E8.98681
G1 X86.445 Y169.849 E9.00070
G1 X86.225 Y169.379 E9.00988
G1 X86.035 Y168.889 E9.01917
G1 X85.835 Y168.129 E9.03307
G1 X85.785 Y167.869 E9.03775
G1 X85.725 Y167.349 E9.04701
G1 X85.705 Y166.829 E9.05621
G1 X85.705 Y33.169 E11.41984
G1 X85.725 Y32.649 E11.42904
G1 X85.785 Y32.129 E11.43829
G1 X85.835 Y31.869 E11.44298
G1 X86.035 Y31.109 E11.45687
G1 X86.225 Y30.619 E11.46617
G1 X86.445 Y30.149 E11.47534
G1 X86.575 Y29.919 E11.48002
G1 X87.005 Y29.269 E11.49380
G1 X87.335 Y28.859 E11.50311
G1 X87.515 Y28.669 E11.50773
G1 X87.895 Y28.299 E11.51711
G1 X88.305 Y27.969 E11.52642
G1 X88.515 Y27.819 E11.53098
G1 X89.185 Y27.409 E11.54487
G1 X89.655 Y27.189 E11.55405
G1 X90.145 Y26.999 E11.56335
G1 X90.905 Y26.799 E11.57724
G1 X91.165 Y26.749 E11.58192
G1 X91.685 Y26.689 E11.59118
G1 X92.205 Y26.669 E11.60038
G1 X107.785 Y26.669 E11.87590
G1 X108.305 Y26.689 E11.88510
G1 X108.825 Y26.749 E11.89436
G1 X109.085 Y26.799 E11.89904
G1 X109.845 Y26.999 E11.91294
G1 X110.335 Y27.189 E11.92223
G1 X110.805 Y27.409 E11.93141
G1 X111.035 Y27.539 E11.93608
G1 X111.685 Y27.969 E11.94986
G1 X112.095 Y28.299 E11.95917
G1 X112.655 Y28.859 E11.97317
G1 X112.985 Y29.269 E11.98248
G1 X113.415 Y29.919 E11.99626
G1 X113.655 Y30.379 E12.00544
G1 X113.865 Y30.869 E12.01487
G1 X113.955 Y31.109 E12.01940
G1 X114.095 Y31.609 E12.02858
G1 X114.205 Y32.129 E12.03798
G1 X114.265 Y32.649 E12.04724
G1 X114.282 Y33.094 E12.05511
G1 X114.285 Y33.169 E12.05644
G1 X105.613 Y38.042 F7800.000
G1 X105.616 Y99.983 F900.000 E13.15180
G1 X95.971 Y99.984 E13.32236
G1 X95.971 Y91.664 E13.46948
G1 X96.235 Y89.912 E13.50082
G1 X94.383 Y89.773 E13.53366
G1 X94.380 Y35.345 E14.49616
G1 X104.147 Y35.344 E14.66887
G1 X103.761 Y37.903 E14.71463
G1 X105.538 Y38.036 E14.74614
G1 X105.613 Y38.042 E14.74747
G1 X103.566 Y35.844 F7800.000
G1 X95.503 Y89.356 F900.000 E15.70443
G1 X94.883 Y89.309 E15.71543
G1 X94.881 Y35.845 E16.66088
G1 X103.491 Y35.844 E16.81314
G1 X103.566 Y35.844 E16.81447
G1 X104.063 Y35.894 F7800.000
G1 X104.493 Y38.460
G1 X105.113 Y38.506 F900.000 E16.82547
G1 X105.116 Y99.483 E17.90378
G1 X96.471 Y99.484 E18.05666
G1 X96.471 Y91.702 E18.19427
G1 X104.482 Y38.534 E19.14510
G1 X104.493 Y38.460 E19.14643
G1 X104.543 Y37.962 F7800.000
G1 X98.309 Y101.680
G1 X99.018 Y101.773 F300.000 E19.15908
G1 X99.679 Y102.047 E19.17174
G1 X100.247 Y102.482 E19.18439
G1 X100.683 Y103.050 E19.19704
G1 X100.957 Y103.711 E19.20969
G1 X101.050 Y104.420 E19.22235
G1 X100.957 Y105.130 E19.23500
G1 X100.683 Y105.791 E19.24765
G1 X100.247 Y106.359 E19.26031
G1 X99.680 Y106.794 E19.27296
G1 X99.019 Y107.068 E19.28561
G1 X98.309 Y107.161 E19.29827
G1 X97.600 Y107.068 E19.31092
G1 X96.939 Y106.794 E19.32357
G1 X96.371 Y106.359 E19.33622
G1 X95.936 Y105.791 E19.34888
G1 X95.662 Y105.130 E19.36153
G1 X95.568 Y104.421 E19.37418
G1 X95.662 Y103.711 E19.38684
G1 X95.935 Y103.050 E19.39949
G1 X96.371 Y102.483 E19.41214
G1 X96.939 Y102.047 E19.42479
G1 X97.600 Y101.773 E19.43745
G1 X98.235 Y101.690 E19.44877
G1 X98.309 Y101.680 E19.45010
G1 X98.309 Y102.184 F7800.000
G1 X98.888 Y102.260 F300.000 E19.46042
G1 X99.427 Y102.484 E19.47075
G1 X99.891 Y102.839 E19.48107
G1 X100.246 Y103.302 E19.49140
G1 X100.469 Y103.842 E19.50172
G1 X100.546 Y104.420 E19.51205
G1 X100.469 Y104.999 E19.52237
G1 X100.246 Y105.539 E19.53270
G1 X99.891 Y106.002 E19.54302
G1 X99.428 Y106.357 E19.55335
G1 X98.888 Y106.581 E19.56367
G1 X98.309 Y106.657 E19.57400
G1 X97.730 Y106.581 E19.58432
G1 X97.191 Y106.358 E19.59465
G1 X96.728 Y106.002 E19.60497
G1 X96.372 Y105.539 E19.61530
G1 X96.149 Y105.000 E19.62562
G1 X96.073 Y104.421 E19.63595
G1 X96.149 Y103.842 E19.64627
G1 X96.372 Y103.302 E19.65660
G1 X96.728 Y102.839 E19.66692
G1 X97.191 Y102.484 E19.67724
G1 X97.730 Y102.260 E19.68757
G1 X98.235 Y102.194 E19.69657
G1 X98.309 Y102.184 E19.69789
G1 X98.578 Y101.762 F7800.000
G1 X95.972 Y108.875
G1 X105.617 Y108.878 F900.000 E19.86845
G1 X105.619 Y150.807 E20.60993
G1 X103.749 Y151.011 E20.64318
G1 X104.031 Y152.286 E20.66628
G1 X104.032 Y157.457 E20.75771
G1 X94.387 Y157.457 E20.92826
G1 X94.385 Y115.507 E21.67010
G1 X96.254 Y115.303 E21.70336
G1 X95.972 Y114.028 E21.72645
G1 X95.972 Y108.950 E21.81624
G1 X95.972 Y108.875 E21.81757
G1 X96.472 Y109.375 F7800.000
G1 X105.117 Y109.376 F900.000 E21.97044
G1 X105.119 Y150.359 E22.69517
G1 X104.534 Y150.422 E22.70558
G1 X96.472 Y113.973 E23.36573
G1 X96.472 Y109.450 E23.44571
G1 X96.472 Y109.375 E23.44703
G1 X96.472 Y108.875 F7800.000
G1 X95.470 Y115.892
G1 X103.531 Y152.341 F900.000 E24.10718
G1 X103.532 Y156.957 E24.18880
G1 X94.887 Y156.957 E24.34167
G1 X94.885 Y115.955 E25.06674
G1 X95.395 Y115.900 E25.07582
G1 X95.470 Y115.892 E25.07715
G1 X95.962 Y115.801 F7800.000
G1 X98.312 Y159.153
G1 X99.021 Y159.246 F300.000 E25.08980
G1 X99.682 Y159.520 E25.10245
G1 X100.250 Y159.955 E25.11511
G1 X100.686 Y160.523 E25.12776
G1 X100.960 Y161.184 E25.14041
G1 X101.053 Y161.894 E25.15307
G1 X100.960 Y162.603 E25.16572
G1 X100.686 Y163.264 E25.17837
G1 X100.250 Y163.832 E25.19103
G1 X99.683 Y164.267 E25.20368
G1 X99.022 Y164.541 E25.21633
G1 X98.312 Y164.634 E25.22898
G1 X97.603 Y164.541 E25.24164
G1 X96.942 Y164.267 E25.25429
G1 X96.374 Y163.832 E25.26694
G1 X95.939 Y163.264 E25.27960
G1 X95.665 Y162.603 E25.29225
G1 X95.571 Y161.894 E25.30490
G1 X95.665 Y161.184 E25.31755
G1 X95.938 Y160.523 E25.33021
G1 X96.374 Y159.956 E25.34286
G1 X96.942 Y159.520 E25.35551
G1 X97.603 Y159.246 E25.36817
G1 X98.238 Y159.163 E25.37949
G1 X98.312 Y159.153 E25.38082
G1 X98.312 Y159.657 F7800.000
G1 X98.891 Y159.733 F300.000 E25.39114
G1 X99.430 Y159.957 E25.40147
G1 X99.894 Y160.312 E25.41179
G1 X100.249 Y160.775 E25.42212
G1 X100.472 Y161.315 E25.43244
G1 X100.549 Y161.894 E25.44277
G1 X100.473 Y162.472 E25.45309
G1 X100.249 Y163.012 E25.46342
G1 X99.894 Y163.475 E25.47374
G1 X99.431 Y163.830 E25.48407
G1 X98.891 Y164.054 E25.49439
G1 X98.312 Y164.130 E25.50472
G1 X97.733 Y164.054 E25.51504
G1 X97.194 Y163.831 E25.52537
G1 X96.731 Y163.475 E25.53569
G1 X96.375 Y163.012 E25.54602
G1 X96.152 Y162.473 E25.55634
G1 X96.076 Y161.894 E25.56666
G1 X96.152 Y161.315 E25.57699
G1 X96.375 Y160.775 E25.58731
G1 X96.731 Y160.312 E25.59764
G1 X97.194 Y159.957 E25.60796
G1 X97.733 Y159.733 E25.61829
G1 X98.238 Y159.667 E25.62729
G1 X98.312 Y159.657 E25.62861
G1 X98.581 Y159.235 F7800.000
G1 X92.712 Y161.807
G1 X92.705 Y33.670 F900.000 E27.89456
G1 X107.288 Y33.669 E28.15244
G1 X107.295 Y166.330 E30.49839
G1 X92.712 Y166.331 E30.75626
G1 X92.712 Y161.882 E30.83494
G1 X92.712 Y161.807 E30.83627
G1 X92.212 Y161.807 F7800.000
G1 X92.205 Y33.170 F900.000 E33.11106
G1 X107.788 Y33.169 E33.38662
G1 X107.794 Y161.850 E35.66219
G1 X107.795 Y166.830 E35.75026
G1 X92.212 Y166.831 E36.02581
G1 X92.212 Y161.882 E36.11333
G1 X92.212 Y161.807 E36.11466
G1 X92.645 Y161.557 F7800.000
G1 X92.987 Y158.322
G1 X107.020 Y158.322 F1500.000 E36.36312
G1 X107.020 Y157.821 E36.37198
G1 X104.307 Y157.821 E36.42002
G1 X104.307 Y157.320 E36.42888
G1 X107.020 Y157.320 E36.47692
G1 X107.020 Y156.820 E36.48578
G1 X104.307 Y156.820 E36.53382
G1 X104.307 Y156.319 E36.54268
G1 X107.020 Y156.319 E36.59072
G1 X107.020 Y155.818 E36.59958
G1 X104.307 Y155.818 E36.64761
G1 X104.307 Y155.318 E36.65648
G1 X107.020 Y155.318 E36.70451
G1 X107.020 Y154.817 E36.71338
G1 X104.307 Y154.817 E36.76141
G1 X104.307 Y154.317 E36.77028
G1 X107.020 Y154.317 E36.81831
G1 X107.020 Y153.816 E36.82718
G1 X104.307 Y153.816 E36.87521
G1 X104.307 Y153.315 E36.88407
G1 X107.020 Y153.315 E36.93211
G1 X107.020 Y152.815 E36.94097
G1 X104.307 Y152.815 E36.98901
G1 X104.307 Y152.314 E36.99787
G1 X107.020 Y152.314 E37.04591
G1 X107.019 Y151.814 E37.05477
G1 X104.214 Y151.814 E37.10443
G1 X105.365 Y151.313 E37.12666
G1 X107.019 Y151.313 E37.15594
G1 X107.019 Y150.812 E37.16481
G1 X105.894 Y150.812 E37.18472
G1 X105.894 Y150.312 E37.19359
G1 X107.019 Y150.312 E37.21351
G1 X107.019 Y149.811 E37.22237
G1 X105.894 Y149.811 E37.24229
G1 X105.894 Y149.310 E37.25115
G1 X107.019 Y149.310 E37.27107
G1 X107.019 Y148.810 E37.27994
G1 X105.894 Y148.810 E37.29986
G1 X105.894 Y148.309 E37.30872
G1 X107.019 Y148.309 E37.32864
G1 X107.019 Y147.809 E37.33750
G1 X105.894 Y147.809 E37.35742
G1 X105.894 Y147.308 E37.36628
G1 X107.019 Y147.308 E37.38620
G1 X107.019 Y146.807 E37.39507
G1 X105.894 Y146.807 E37.41498
G1 X105.894 Y146.307 E37.42385
G1 X107.019 Y146.307 E37.44377
G1 X107.019 Y145.806 E37.45263
G1 X105.894 Y145.806 E37.47255
G1 X105.894 Y145.306 E37.48141
G1 X107.019 Y145.306 E37.50133
G1 X107.019 Y144.805 E37.51020
G1 X105.894 Y144.805 E37.53011
G1 X105.894 Y144.304 E37.53898
G1 X107.019 Y144.304 E37.55890
G1 X107.019 Y143.804 E37.56776
G1 X105.894 Y143.804 E37.58768
G1 X105.894 Y143.303 E37.59654
G1 X107.019 Y143.303 E37.61646
G1 X107.019 Y142.802 E37.62533
G1 X105.894 Y142.802 E37.64525
G1 X105.894 Y142.302 E37.65411
G1 X107.019 Y142.302 E37.67403
G1 X107.019 Y141.801 E37.68289
G1 X105.894 Y141.801 E37.70281
G1 X105.894 Y141.301 E37.71167
G1 X107.019 Y141.301 E37.73159
G1 X107.019 Y140.800 E37.74046
G1 X105.894 Y140.800 E37.76037
G1 X105.894 Y140.299 E37.76924
G1 X107.019 Y140.299 E37.78916
G1 X107.019 Y139.799 E37.79802
G1 X105.894 Y139.799 E37.81794
G1 X105.894 Y139.298 E37.82680
G1 X107.019 Y139.298 E37.84672
G1 X107.019 Y138.798 E37.85559
G1 X105.894 Y138.798 E37.87550
G1 X105.894 Y138.297 E37.88437
G1 X107.019 Y138.297 E37.90429
G1 X107.019 Y137.796 E37.91315
G1 X105.894 Y137.796 E37.93307
G1 X105.894 Y137.296 E37.94193
G1 X107.019 Y137.296 E37.96185
G1 X107.019 Y136.795 E37.97071
G1 X105.893 Y136.795 E37.99065
G1 X105.893 Y136.295 E37.99951
G1 X107.019 Y136.295 E38.01945
G1 X107.019 Y135.794 E38.02831
G1 X105.893 Y135.794 E38.04825
G1 X105.893 Y135.293 E38.05712
G1 X107.019 Y135.293 E38.07705
G1 X107.019 Y134.793 E38.08592
G1 X105.893 Y134.793 E38.10585
G1 X105.893 Y134.292 E38.11472
G1 X107.019 Y134.292 E38.13465
G1 X107.019 Y133.791 E38.14352
G1 X105.893 Y133.791 E38.16345
G1 X105.893 Y133.291 E38.17232
G1 X107.019 Y133.291 E38.19225
G1 X107.018 Y132.790 E38.20112
G1 X105.893 Y132.790 E38.22103
G1 X105.893 Y132.290 E38.22990
G1 X107.018 Y132.290 E38.24982
G1 X107.018 Y131.789 E38.25868
G1 X105.893 Y131.789 E38.27860
G1 X105.893 Y131.288 E38.28746
G1 X107.018 Y131.288 E38.30738
G1 X107.018 Y130.788 E38.31625
G1 X105.893 Y130.788 E38.33617
G1 X105.893 Y130.287 E38.34503
G1 X107.018 Y130.287 E38.36495
G1 X107.018 Y129.787 E38.37381
G1 X105.893 Y129.787 E38.39373
G1 X105.893 Y129.286 E38.40259
G1 X107.018 Y129.286 E38.42251
G1 X107.018 Y128.785 E38.43138
G1 X105.893 Y128.785 E38.45129
G1 X105.893 Y128.285 E38.46016
G1 X107.018 Y128.285 E38.48008
G1 X107.018 Y127.784 E38.48894
G1 X105.893 Y127.784 E38.50886
G1 X105.893 Y127.283 E38.51772
G1 X107.018 Y127.283 E38.53764
G1 X107.018 Y126.783 E38.54651
G1 X105.893 Y126.783 E38.56642
G1 X105.893 Y126.282 E38.57529
G1 X107.018 Y126.282 E38.59521
G1 X107.018 Y125.782 E38.60407
G1 X105.893 Y125.782 E38.62399
G1 X105.893 Y125.281 E38.63285
G1 X107.018 Y125.281 E38.65277
G1 X107.018 Y124.780 E38.66164
G1 X105.893 Y124.780 E38.68155
G1 X105.893 Y124.280 E38.69042
G1 X107.018 Y124.280 E38.71034
G1 X107.018 Y123.779 E38.71920
G1 X105.893 Y123.779 E38.73912
G1 X105.893 Y123.279 E38.74798
G1 X107.018 Y123.279 E38.76790
G1 X107.018 Y122.778 E38.77677
G1 X105.893 Y122.778 E38.79668
G1 X105.893 Y122.277 E38.80555
G1 X107.018 Y122.277 E38.82547
G1 X107.018 Y121.777 E38.83433
G1 X105.893 Y121.777 E38.85425
G1 X105.893 Y121.276 E38.86311
G1 X107.018 Y121.276 E38.88303
G1 X107.018 Y120.775 E38.89190
G1 X105.893 Y120.775 E38.91181
G1 X105.893 Y120.275 E38.92068
G1 X107.018 Y120.275 E38.94060
