; generated by Slic3r 0.9.8 on 2013-06-06 at 19:24:39

; layer_height = .25
; perimeters = 1
; top_solid_layers = 4
; bottom_solid_layers = 4
; fill_density = .9
; perimeter_speed = 30
; infill_speed = 40
; travel_speed = 130
; scale = 1
; nozzle_diameter = 0.5
; filament_diameter = 3
; extrusion_multiplier = 1
; perimeters extrusion width = 0.80mm
; infill extrusion width = 0.80mm
; first layer extrusion width = 0.50mm

M107
M104 S220 ; set temperature
G28 ; home all axes
M109 S220 ; wait for temperature to be reached
G90 ; use absolute coordinates
G21 ; set units to millimeters
G92 E0
M82 ; use absolute distances for extrusion
G1 Z0.250 F7800.000
G1 X128.266 Y100.880
G1 X128.196 Y101.470 F900.000 E0.01051
G1 X128.136 Y101.760 E0.01574
G1 X127.896 Y102.620 E0.03153
G1 X110.996 Y150.310 E0.92626
G1 X110.666 Y151.080 E0.94108
G1 X110.546 Y151.320 E0.94582
G1 X110.256 Y151.800 E0.95574
G1 X109.936 Y152.250 E0.96551
G1 X109.386 Y152.880 E0.98030
G1 X108.986 Y153.260 E0.99005
G1 X108.326 Y153.770 E1.00480
G1 X107.606 Y154.190 E1.01954
G1 X107.106 Y154.430 E1.02935
G1 X106.586 Y154.620 E1.03914
G1 X105.776 Y154.830 E1.05394
G1 X104.956 Y154.950 E1.06859
G1 X104.396 Y154.970 E1.07850
G1 X78.296 Y154.970 E1.54005
G1 X77.746 Y154.950 E1.54978
G1 X76.926 Y154.840 E1.56441
G1 X76.666 Y154.780 E1.56913
G1 X76.136 Y154.630 E1.57887
G1 X75.616 Y154.440 E1.58866
G1 X75.116 Y154.210 E1.59840
G1 X74.636 Y153.940 E1.60814
G1 X73.966 Y153.470 E1.62261
G1 X73.746 Y153.290 E1.62764
G1 X73.346 Y152.920 E1.63727
G1 X72.796 Y152.300 E1.65193
G1 X72.326 Y151.630 E1.66640
G1 X71.936 Y150.900 E1.68104
G1 X71.636 Y150.130 E1.69565
G1 X71.426 Y149.340 E1.71010
G1 X71.316 Y148.520 E1.72474
G1 X71.296 Y147.970 E1.73447
G1 X71.296 Y52.020 E3.43124
G1 X71.316 Y51.470 E3.44097
G1 X71.426 Y50.650 E3.45560
G1 X71.556 Y50.120 E3.46525
G1 X71.726 Y49.600 E3.47492
G1 X71.936 Y49.090 E3.48468
G1 X72.186 Y48.600 E3.49441
G1 X72.476 Y48.130 E3.50417
G1 X72.976 Y47.470 E3.51881
G1 X73.346 Y47.070 E3.52845
G1 X73.966 Y46.520 E3.54311
G1 X74.636 Y46.050 E3.55758
G1 X75.116 Y45.780 E3.56732
G1 X75.616 Y45.550 E3.57705
G1 X76.396 Y45.280 E3.59165
G1 X76.926 Y45.150 E3.60130
G1 X77.476 Y45.070 E3.61113
G1 X77.746 Y45.040 E3.61593
G1 X78.296 Y45.020 E3.62566
G1 X104.396 Y45.020 E4.08721
G1 X104.956 Y45.040 E4.09712
G1 X105.506 Y45.110 E4.10693
G1 X106.046 Y45.220 E4.11667
G1 X106.586 Y45.370 E4.12658
G1 X107.106 Y45.560 E4.13637
G1 X107.606 Y45.800 E4.14618
G1 X108.086 Y46.070 E4.15592
G1 X108.546 Y46.380 E4.16573
G1 X108.986 Y46.730 E4.17567
G1 X109.576 Y47.310 E4.19030
G1 X109.936 Y47.740 E4.20022
G1 X110.256 Y48.190 E4.20998
G1 X110.546 Y48.670 E4.21990
G1 X110.786 Y49.170 E4.22971
G1 X110.996 Y49.680 E4.23946
G1 X127.896 Y97.400 E5.13469
G1 X128.136 Y98.260 E5.15048
G1 X128.236 Y98.850 E5.16107
G1 X128.296 Y99.740 E5.17684
G1 X128.296 Y100.280 E5.18639
G1 X128.271 Y100.805 E5.19569
G1 X128.266 Y100.880 E5.19701
G1 X127.766 Y100.910 F7800.000
G1 X127.676 Y101.540 F900.000 E5.20827
G1 X127.526 Y102.150 E5.21938
G1 X127.426 Y102.450 E5.22497
G1 X110.526 Y150.140 E6.11970
G1 X110.326 Y150.640 E6.12922
G1 X109.956 Y151.340 E6.14322
G1 X109.496 Y152.000 E6.15745
G1 X109.326 Y152.210 E6.16223
G1 X108.966 Y152.590 E6.17149
G1 X108.366 Y153.120 E6.18564
G1 X107.926 Y153.430 E6.19516
G1 X107.466 Y153.700 E6.20459
G1 X106.986 Y153.930 E6.21401
G1 X106.236 Y154.200 E6.22810
G1 X105.716 Y154.330 E6.23758
G1 X104.926 Y154.450 E6.25171
G1 X104.396 Y154.470 E6.26109
G1 X78.296 Y154.470 E6.72264
G1 X77.776 Y154.450 E6.73184
G1 X77.256 Y154.390 E6.74110
G1 X76.736 Y154.280 E6.75050
G1 X76.236 Y154.140 E6.75968
G1 X75.746 Y153.950 E6.76897
G1 X75.276 Y153.730 E6.77815
G1 X75.046 Y153.600 E6.78282
G1 X74.396 Y153.170 E6.79660
G1 X73.986 Y152.840 E6.80591
G1 X73.426 Y152.280 E6.81992
G1 X73.096 Y151.870 E6.82922
G1 X72.666 Y151.220 E6.84301
G1 X72.536 Y150.990 E6.84768
G1 X72.316 Y150.520 E6.85685
G1 X72.126 Y150.030 E6.86615
G1 X71.926 Y149.270 E6.88005
G1 X71.876 Y149.010 E6.88473
G1 X71.816 Y148.490 E6.89398
G1 X71.796 Y147.970 E6.90319
G1 X71.796 Y52.020 E8.59995
G1 X71.816 Y51.500 E8.60916
G1 X71.876 Y50.980 E8.61841
G1 X71.986 Y50.460 E8.62781
G1 X72.126 Y49.960 E8.63700
G1 X72.316 Y49.470 E8.64629
G1 X72.536 Y49.000 E8.65547
G1 X72.666 Y48.770 E8.66014
G1 X73.096 Y48.120 E8.67392
G1 X73.426 Y47.710 E8.68323
G1 X73.986 Y47.150 E8.69723
G1 X74.396 Y46.820 E8.70654
G1 X74.606 Y46.670 E8.71110
G1 X75.276 Y46.260 E8.72499
G1 X75.746 Y46.040 E8.73417
G1 X76.236 Y45.850 E8.74346
G1 X76.736 Y45.710 E8.75265
G1 X77.256 Y45.600 E8.76205
G1 X77.776 Y45.540 E8.77130
G1 X78.296 Y45.520 E8.78050
G1 X104.396 Y45.520 E9.24205
G1 X104.926 Y45.540 E9.25143
G1 X105.456 Y45.610 E9.26089
G1 X105.976 Y45.720 E9.27029
G1 X106.486 Y45.870 E9.27969
G1 X106.986 Y46.060 E9.28915
G1 X107.466 Y46.290 E9.29856
G1 X107.926 Y46.560 E9.30799
G1 X108.366 Y46.870 E9.31751
G1 X108.766 Y47.210 E9.32679
G1 X109.326 Y47.790 E9.34105
G1 X109.496 Y47.990 E9.34569
G1 X109.806 Y48.420 E9.35506
G1 X109.956 Y48.650 E9.35992
G1 X110.206 Y49.110 E9.36918
G1 X110.526 Y49.850 E9.38344
G1 X127.426 Y97.570 E10.27867
G1 X127.526 Y97.870 E10.28426
G1 X127.676 Y98.480 E10.29537
G1 X127.766 Y99.110 E10.30662
G1 X127.796 Y99.740 E10.31778
G1 X127.770 Y100.835 E10.33715
G1 X127.766 Y100.910 E10.33847
G1 X86.557 Y60.602 F7800.000
G1 X85.907 Y61.101 F300.000 E10.35296
G1 X85.151 Y61.415 E10.36744
G1 X84.338 Y61.521 E10.38193
G1 X83.526 Y61.415 E10.39641
G1 X82.770 Y61.101 E10.41090
G1 X82.120 Y60.602 E10.42538
G1 X81.621 Y59.953 E10.43987
G1 X81.308 Y59.196 E10.45435
G1 X81.201 Y58.384 E10.46884
G1 X81.308 Y57.572 E10.48332
G1 X81.621 Y56.815 E10.49781
G1 X82.120 Y56.165 E10.51229
G1 X82.770 Y55.666 E10.52678
G1 X83.526 Y55.353 E10.54126
G1 X84.338 Y55.246 E10.55575
G1 X85.151 Y55.353 E10.57024
G1 X85.907 Y55.666 E10.58472
G1 X86.557 Y56.165 E10.59921
G1 X87.056 Y56.815 E10.61369
G1 X87.369 Y57.572 E10.62818
G1 X87.476 Y58.384 E10.64266
G1 X87.369 Y59.196 E10.65715
G1 X87.056 Y59.953 E10.67163
G1 X86.603 Y60.543 E10.68479
G1 X86.557 Y60.602 E10.68612
G1 X86.201 Y60.246 F7800.000
G1 X85.655 Y60.664 F300.000 E10.69827
G1 X85.020 Y60.927 E10.71043
G1 X84.338 Y61.017 E10.72259
G1 X83.657 Y60.927 E10.73474
G1 X83.022 Y60.664 E10.74690
G1 X82.476 Y60.246 E10.75906
G1 X82.058 Y59.700 E10.77121
G1 X81.795 Y59.065 E10.78337
G1 X81.705 Y58.384 E10.79553
G1 X81.795 Y57.702 E10.80768
G1 X82.058 Y57.067 E10.81984
G1 X82.476 Y56.522 E10.83200
G1 X83.022 Y56.103 E10.84416
G1 X83.657 Y55.840 E10.85631
G1 X84.338 Y55.750 E10.86847
G1 X85.020 Y55.840 E10.88063
G1 X85.655 Y56.103 E10.89278
G1 X86.201 Y56.522 E10.90494
G1 X86.619 Y57.067 E10.91710
G1 X86.882 Y57.702 E10.92925
G1 X86.972 Y58.384 E10.94141
G1 X86.882 Y59.065 E10.95357
G1 X86.619 Y59.700 E10.96572
G1 X86.246 Y60.186 E10.97656
G1 X86.201 Y60.246 E10.97788
G1 X86.309 Y60.734 F7800.000
G1 X85.151 Y68.053
G1 X85.907 Y68.366 F300.000 E10.99237
G1 X86.557 Y68.865 E11.00685
G1 X87.056 Y69.515 E11.02134
G1 X87.369 Y70.272 E11.03582
G1 X87.476 Y71.084 E11.05031
G1 X87.369 Y71.896 E11.06479
G1 X87.056 Y72.653 E11.07928
G1 X86.557 Y73.302 E11.09376
G1 X85.907 Y73.801 E11.10825
G1 X85.151 Y74.115 E11.12273
G1 X84.338 Y74.221 E11.13722
G1 X83.526 Y74.115 E11.15170
G1 X82.770 Y73.801 E11.16619
G1 X82.120 Y73.302 E11.18067
G1 X81.621 Y72.653 E11.19516
G1 X81.308 Y71.896 E11.20964
G1 X81.201 Y71.084 E11.22413
G1 X81.308 Y70.272 E11.23861
G1 X81.621 Y69.515 E11.25310
G1 X82.120 Y68.865 E11.26758
G1 X82.770 Y68.366 E11.28207
G1 X83.526 Y68.053 E11.29655
G1 X84.338 Y67.946 E11.31104
G1 X85.076 Y68.043 E11.32420
G1 X85.151 Y68.053 E11.32552
G1 X85.020 Y68.540 F7800.000
G1 X85.655 Y68.803 F300.000 E11.33768
G1 X86.201 Y69.222 E11.34984
G1 X86.619 Y69.767 E11.36199
G1 X86.882 Y70.402 E11.37415
G1 X86.972 Y71.084 E11.38631
G1 X86.882 Y71.765 E11.39846
G1 X86.619 Y72.400 E11.41062
G1 X86.201 Y72.946 E11.42278
G1 X85.655 Y73.364 E11.43493
G1 X85.020 Y73.627 E11.44709
G1 X84.338 Y73.717 E11.45925
G1 X83.657 Y73.627 E11.47141
G1 X83.022 Y73.364 E11.48356
G1 X82.476 Y72.946 E11.49572
G1 X82.058 Y72.400 E11.50788
G1 X81.795 Y71.765 E11.52003
G1 X81.705 Y71.084 E11.53219
G1 X81.795 Y70.402 E11.54435
G1 X82.058 Y69.767 E11.55650
G1 X82.476 Y69.222 E11.56866
G1 X83.022 Y68.803 E11.58082
G1 X83.657 Y68.540 E11.59297
G1 X84.338 Y68.450 E11.60513
G1 X84.946 Y68.530 E11.61596
G1 X85.020 Y68.540 E11.61729
G1 X85.389 Y68.202 F7800.000
G1 X84.338 Y125.807
G1 X85.151 Y125.914 F300.000 E11.63177
G1 X85.907 Y126.228 E11.64626
G1 X86.557 Y126.726 E11.66074
G1 X87.056 Y127.376 E11.67523
G1 X87.369 Y128.133 E11.68971
G1 X87.476 Y128.945 E11.70420
G1 X87.369 Y129.757 E11.71868
G1 X87.056 Y130.514 E11.73317
G1 X86.557 Y131.164 E11.74765
G1 X85.907 Y131.662 E11.76214
G1 X85.151 Y131.976 E11.77662
G1 X84.338 Y132.083 E11.79111
G1 X83.526 Y131.976 E11.80559
G1 X82.770 Y131.662 E11.82008
G1 X82.120 Y131.164 E11.83456
G1 X81.621 Y130.514 E11.84905
G1 X81.308 Y129.757 E11.86353
G1 X81.201 Y128.945 E11.87802
G1 X81.308 Y128.133 E11.89250
G1 X81.621 Y127.376 E11.90699
G1 X82.120 Y126.726 E11.92147
G1 X82.770 Y126.228 E11.93596
G1 X83.526 Y125.914 E11.95044
G1 X84.264 Y125.817 E11.96360
G1 X84.338 Y125.807 E11.96493
G1 X84.338 Y126.312 F7800.000
G1 X85.020 Y126.401 F300.000 E11.97709
G1 X85.655 Y126.664 E11.98924
G1 X86.201 Y127.083 E12.00140
G1 X86.619 Y127.628 E12.01356
G1 X86.882 Y128.263 E12.02571
G1 X86.972 Y128.945 E12.03787
G1 X86.882 Y129.627 E12.05003
G1 X86.619 Y130.262 E12.06218
G1 X86.201 Y130.807 E12.07434
G1 X85.655 Y131.226 E12.08650
G1 X85.020 Y131.489 E12.09865
G1 X84.338 Y131.578 E12.11081
G1 X83.657 Y131.489 E12.12297
G1 X83.022 Y131.226 E12.13513
G1 X82.476 Y130.807 E12.14728
G1 X82.058 Y130.262 E12.15944
G1 X81.795 Y129.627 E12.17160
G1 X81.705 Y128.945 E12.18375
G1 X81.795 Y128.263 E12.19591
G1 X82.058 Y127.628 E12.20807
G1 X82.476 Y127.083 E12.22022
G1 X83.022 Y126.664 E12.23238
G1 X83.657 Y126.401 E12.24454
G1 X84.264 Y126.321 E12.25537
G1 X84.338 Y126.312 E12.25670
G1 X84.607 Y125.890 F7800.000
G1 X84.338 Y138.507
G1 X85.151 Y138.614 F300.000 E12.27118
G1 X85.907 Y138.928 E12.28567
G1 X86.557 Y139.426 E12.30015
G1 X87.056 Y140.076 E12.31463
G1 X87.369 Y140.833 E12.32912
G1 X87.476 Y141.645 E12.34361
G1 X87.369 Y142.457 E12.35809
G1 X87.056 Y143.214 E12.37258
G1 X86.557 Y143.864 E12.38706
G1 X85.907 Y144.362 E12.40155
G1 X85.151 Y144.676 E12.41603
G1 X84.338 Y144.783 E12.43052
G1 X83.526 Y144.676 E12.44500
G1 X82.770 Y144.362 E12.45949
G1 X82.120 Y143.864 E12.47397
G1 X81.621 Y143.214 E12.48846
G1 X81.308 Y142.457 E12.50294
G1 X81.201 Y141.645 E12.51743
G1 X81.308 Y140.833 E12.53191
G1 X81.621 Y140.076 E12.54640
G1 X82.120 Y139.426 E12.56088
G1 X82.770 Y138.928 E12.57537
G1 X83.526 Y138.614 E12.58985
G1 X84.264 Y138.517 E12.60301
G1 X84.338 Y138.507 E12.60434
G1 X84.338 Y139.012 F7800.000
G1 X85.020 Y139.101 F300.000 E12.61649
G1 X85.655 Y139.364 E12.62865
G1 X86.201 Y139.783 E12.64081
G1 X86.619 Y140.328 E12.65296
G1 X86.882 Y140.963 E12.66512
G1 X86.972 Y141.645 E12.67728
G1 X86.882 Y142.327 E12.68943
G1 X86.619 Y142.962 E12.70159
G1 X86.201 Y143.507 E12.71375
G1 X85.655 Y143.926 E12.72591
G1 X85.020 Y144.189 E12.73806
G1 X84.338 Y144.278 E12.75022
G1 X83.657 Y144.189 E12.76238
G1 X83.022 Y143.926 E12.77453
G1 X82.476 Y143.507 E12.78669
G1 X82.058 Y142.962 E12.79885
G1 X81.795 Y142.327 E12.81100
G1 X81.705 Y141.645 E12.82316
G1 X81.795 Y140.963 E12.83532
G1 X82.058 Y140.328 E12.84747
G1 X82.476 Y139.783 E12.85963
G1 X83.022 Y139.364 E12.87179
G1 X83.657 Y139.101 E12.88394
G1 X84.264 Y139.021 E12.89478
G1 X84.338 Y139.012 E12.89610
G1 X84.607 Y138.590 F7800.000
G1 X78.806 Y147.470
G1 X78.806 Y52.530 F900.000 E14.57502
G1 X103.896 Y52.530 E15.01872
G1 X103.896 Y147.470 E16.69764
G1 X78.881 Y147.470 E17.14001
G1 X78.806 Y147.470 E17.14134
G1 X78.306 Y147.970 F7800.000
G1 X78.306 Y52.030 F900.000 E18.83794
G1 X104.396 Y52.030 E19.29933
G1 X104.396 Y147.970 E20.99593
G1 X78.381 Y147.970 E21.45599
G1 X78.306 Y147.970 E21.45731
G1 X78.556 Y147.537 F7800.000
G1 X108.784 Y110.270
G1 X108.797 Y89.733 F900.000 E21.82049
G1 X120.853 Y100.014 E22.10068
G1 X108.841 Y110.221 E22.37944
G1 X108.784 Y110.270 E22.38076
G1 X108.284 Y111.351 F7800.000
G1 X108.298 Y88.650 F900.000 E22.78222
G1 X121.303 Y99.740 E23.08445
G1 X121.303 Y100.289 E23.09416
G1 X108.341 Y111.303 E23.39495
G1 X108.284 Y111.351 E23.39628
G1 X108.426 Y110.872 F7800.000
G1 X103.621 Y124.867
G1 X79.081 Y124.867 F1500.000 E23.83230
G1 X79.081 Y124.364 E23.84122
G1 X103.621 Y124.364 E24.27724
G1 X103.621 Y123.862 E24.28617
G1 X79.081 Y123.862 E24.72219
G1 X79.081 Y123.360 E24.73111
G1 X103.621 Y123.360 E25.16713
G1 X103.621 Y122.857 E25.17606
G1 X79.081 Y122.857 E25.61208
G1 X79.081 Y122.355 E25.62100
G1 X103.621 Y122.355 E26.05702
G1 X103.621 Y121.852 E26.06595
G1 X79.081 Y121.852 E26.50197
G1 X79.081 Y121.350 E26.51089
G1 X103.621 Y121.350 E26.94691
G1 X103.621 Y120.848 E26.95584
G1 X79.081 Y120.848 E27.39186
G1 X79.081 Y120.345 E27.40079
G1 X103.621 Y120.345 E27.83681
G1 X103.621 Y119.843 E27.84573
G1 X79.081 Y119.843 E28.28175
G1 X79.081 Y119.341 E28.29068
G1 X103.621 Y119.341 E28.72670
G1 X103.621 Y118.838 E28.73562
G1 X79.081 Y118.838 E29.17164
G1 X79.081 Y118.336 E29.18057
G1 X103.621 Y118.336 E29.61659
G1 X103.621 Y117.834 E29.62551
G1 X79.081 Y117.834 E30.06153
G1 X79.081 Y117.331 E30.07046
G1 X103.621 Y117.331 E30.50648
G1 X103.621 Y116.829 E30.51540
G1 X79.081 Y116.829 E30.95143
G1 X79.081 Y116.327 E30.96035
G1 X103.621 Y116.327 E31.39637
G1 X103.621 Y115.824 E31.40530
G1 X79.081 Y115.824 E31.84132
G1 X79.081 Y115.322 E31.85024
G1 X103.621 Y115.322 E32.28626
G1 X103.621 Y114.820 E32.29519
G1 X79.081 Y114.820 E32.73121
G1 X79.081 Y114.317 E32.74013
G1 X103.621 Y114.317 E33.17615
G1 X103.621 Y113.815 E33.18508
G1 X79.081 Y113.815 E33.62110
G1 X79.081 Y113.312 E33.63002
G1 X103.621 Y113.312 E34.06604
G1 X103.621 Y112.810 E34.07497
G1 X79.081 Y112.810 E34.51099
G1 X79.081 Y112.308 E34.51992
G1 X103.621 Y112.308 E34.95594
G1 X103.621 Y111.805 E34.96486
G1 X79.081 Y111.805 E35.40088
G1 X79.081 Y111.303 E35.40981
G1 X103.621 Y111.303 E35.84583
G1 X103.621 Y110.801 E35.85475
G1 X79.081 Y110.801 E36.29077
G1 X79.081 Y110.298 E36.29970
G1 X103.621 Y110.298 E36.73572
G1 X103.621 Y109.796 E36.74464
G1 X79.081 Y109.796 E37.18066
G1 X79.081 Y109.294 E37.18959
G1 X103.621 Y109.294 E37.62561
G1 X103.621 Y108.791 E37.63453
G1 X79.081 Y108.791 E38.07055
G1 X79.081 Y108.289 E38.07948
G1 X103.621 Y108.289 E38.51550
G1 X103.621 Y107.787 E38.52443
G1 X79.081 Y107.787 E38.96045
G1 X79.081 Y107.284 E38.96937
G1 X103.621 Y107.284 E39.40539
G1 X103.621 Y106.782 E39.41432
G1 X79.081 Y106.782 E39.85034
G1 X79.081 Y106.279 E39.85926
G1 X103.621 Y106.279 E40.29528
G1 X103.621 Y105.777 E40.30421
G1 X79.081 Y105.777 E40.74023
G1 X79.081 Y105.275 E40.74915
G1 X103.621 Y105.275 E41.18517
G1 X103.621 Y104.772 E41.19410
G1 X79.081 Y104.772 E41.63012
G1 X79.081 Y104.270 E41.63904
G1 X103.621 Y104.270 E42.07506
G1 X103.621 Y103.768 E42.08399
G1 X79.081 Y103.768 E42.52001
G1 X79.081 Y103.265 E42.52894
G1 X103.621 Y103.265 E42.96496
G1 X103.621 Y102.763 E42.97388
G1 X79.081 Y102.763 E43.40990
G1 X79.081 Y102.261 E43.41883
G1 X103.621 Y102.261 E43.85485
G1 X103.621 Y101.758 E43.86377
G1 X79.081 Y101.758 E44.29979
G1 X79.081 Y101.256 E44.30872
G1 X103.621 Y101.256 E44.74474
G1 X103.621 Y100.754 E44.75366
G1 X79.081 Y100.754 E45.18968
G1 X79.081 Y100.251 E45.19861
G1 X103.621 Y100.251 E45.63463
G1 X103.621 Y99.749 E45.64355
G1 X79.081 Y99.749 E46.07957
