; generated by Slic3r 0.9.8 on 2013-06-06 at 21:16:57

; layer_height = .25
; perimeters = 1
; top_solid_layers = 4
; bottom_solid_layers = 4
; fill_density = .9
; perimeter_speed = 30
; infill_speed = 40
; travel_speed = 130
; scale = 1
; nozzle_diameter = 0.5
; filament_diameter = 3
; extrusion_multiplier = 1
; perimeters extrusion width = 0.80mm
; infill extrusion width = 0.80mm
; first layer extrusion width = 0.50mm

M107
M104 S220 ; set temperature
G28 ; home all axes
M109 S220 ; wait for temperature to be reached
G90 ; use absolute coordinates
G21 ; set units to millimeters
G92 E0
M82 ; use absolute distances for extrusion
G1 Z0.250 F7800.000
G1 X128.208 Y101.493
G1 X128.078 Y102.093 F900.000 E0.01086
G1 X127.898 Y102.673 E0.02160
G1 X111.008 Y148.963 E0.89297
G1 X110.678 Y149.723 E0.90762
G1 X110.258 Y150.433 E0.92221
G1 X109.938 Y150.883 E0.93198
G1 X109.578 Y151.303 E0.94176
G1 X109.188 Y151.693 E0.95151
G1 X108.548 Y152.223 E0.96621
G1 X108.098 Y152.523 E0.97577
G1 X107.618 Y152.793 E0.98551
G1 X107.118 Y153.023 E0.99524
G1 X106.598 Y153.223 E1.00509
G1 X106.068 Y153.373 E1.01483
G1 X105.258 Y153.513 E1.02937
G1 X104.978 Y153.543 E1.03435
G1 X104.428 Y153.563 E1.04408
G1 X78.298 Y153.563 E1.50616
G1 X77.748 Y153.543 E1.51590
G1 X76.928 Y153.433 E1.53053
G1 X76.668 Y153.373 E1.53524
G1 X76.138 Y153.223 E1.54499
G1 X75.618 Y153.033 E1.55478
G1 X75.118 Y152.803 E1.56451
G1 X74.638 Y152.533 E1.57425
G1 X73.968 Y152.063 E1.58872
G1 X73.748 Y151.883 E1.59375
G1 X73.348 Y151.513 E1.60338
G1 X72.798 Y150.893 E1.61804
G1 X72.328 Y150.223 E1.63251
G1 X71.938 Y149.493 E1.64715
G1 X71.638 Y148.723 E1.66176
G1 X71.428 Y147.933 E1.67622
G1 X71.318 Y147.113 E1.69085
G1 X71.298 Y146.563 E1.70058
G1 X71.298 Y53.423 E3.34766
G1 X71.318 Y52.873 E3.35739
G1 X71.428 Y52.053 E3.37202
G1 X71.558 Y51.523 E3.38167
G1 X71.828 Y50.743 E3.39627
G1 X72.058 Y50.243 E3.40600
G1 X72.328 Y49.763 E3.41574
G1 X72.798 Y49.093 E3.43021
G1 X72.978 Y48.873 E3.43524
G1 X73.348 Y48.473 E3.44487
G1 X73.748 Y48.103 E3.45451
G1 X73.968 Y47.923 E3.45954
G1 X74.638 Y47.453 E3.47401
G1 X75.118 Y47.183 E3.48375
G1 X75.618 Y46.953 E3.49348
G1 X76.138 Y46.763 E3.50327
G1 X76.668 Y46.613 E3.51301
G1 X76.928 Y46.553 E3.51773
G1 X77.748 Y46.443 E3.53236
G1 X78.298 Y46.423 E3.54209
G1 X104.428 Y46.423 E4.00417
G1 X104.978 Y46.443 E4.01390
G1 X105.528 Y46.513 E4.02371
G1 X106.068 Y46.613 E4.03342
G1 X106.598 Y46.763 E4.04316
G1 X107.118 Y46.963 E4.05301
G1 X107.618 Y47.193 E4.06275
G1 X108.098 Y47.463 E4.07249
G1 X108.558 Y47.763 E4.08220
G1 X108.988 Y48.113 E4.09200
G1 X109.578 Y48.683 E4.10651
G1 X109.938 Y49.103 E4.11629
G1 X110.258 Y49.553 E4.12606
G1 X110.678 Y50.263 E4.14064
G1 X111.008 Y51.023 E4.15530
G1 X127.898 Y97.323 E5.02684
G1 X128.078 Y97.903 E5.03758
G1 X128.148 Y98.203 E5.04302
G1 X128.258 Y98.803 E5.05381
G1 X128.288 Y99.113 E5.05932
G1 X128.318 Y99.723 E5.07012
G1 X128.318 Y100.273 E5.07985
G1 X128.288 Y100.883 E5.09065
G1 X128.220 Y101.419 E5.10020
G1 X128.208 Y101.493 E5.10153
G1 X127.748 Y101.243 F7800.000
G1 X127.618 Y101.883 F900.000 E5.11307
G1 X127.428 Y102.503 E5.12454
G1 X110.538 Y148.793 E5.99592
G1 X110.218 Y149.523 E6.01001
G1 X109.818 Y150.203 E6.02396
G1 X109.328 Y150.833 E6.03808
G1 X108.778 Y151.393 E6.05196
G1 X108.578 Y151.573 E6.05672
G1 X108.158 Y151.893 E6.06605
G1 X107.938 Y152.033 E6.07066
G1 X107.478 Y152.303 E6.08010
G1 X106.758 Y152.633 E6.09410
G1 X106.258 Y152.803 E6.10344
G1 X105.738 Y152.933 E6.11292
G1 X104.958 Y153.043 E6.12685
G1 X104.428 Y153.063 E6.13623
G1 X78.298 Y153.063 E6.59831
G1 X77.778 Y153.043 E6.60751
G1 X77.258 Y152.983 E6.61677
G1 X76.738 Y152.873 E6.62617
G1 X76.238 Y152.733 E6.63535
G1 X75.748 Y152.543 E6.64464
G1 X75.278 Y152.323 E6.65382
G1 X75.048 Y152.193 E6.65849
G1 X74.398 Y151.763 E6.67227
G1 X73.988 Y151.433 E6.68158
G1 X73.428 Y150.873 E6.69559
G1 X73.098 Y150.463 E6.70489
G1 X72.668 Y149.813 E6.71868
G1 X72.538 Y149.583 E6.72335
G1 X72.318 Y149.113 E6.73252
G1 X72.128 Y148.623 E6.74182
G1 X71.928 Y147.863 E6.75572
G1 X71.878 Y147.603 E6.76040
G1 X71.818 Y147.083 E6.76965
G1 X71.798 Y146.563 E6.77886
G1 X71.798 Y53.423 E8.42593
G1 X71.818 Y52.903 E8.43514
G1 X71.878 Y52.383 E8.44439
G1 X71.988 Y51.863 E8.45379
G1 X72.128 Y51.363 E8.46297
G1 X72.318 Y50.873 E8.47227
G1 X72.538 Y50.403 E8.48144
G1 X72.668 Y50.173 E8.48612
G1 X73.098 Y49.523 E8.49990
G1 X73.428 Y49.113 E8.50921
G1 X73.988 Y48.553 E8.52321
G1 X74.398 Y48.223 E8.53252
G1 X75.048 Y47.793 E8.54630
G1 X75.278 Y47.663 E8.55097
G1 X75.748 Y47.443 E8.56015
G1 X76.238 Y47.253 E8.56944
G1 X76.738 Y47.113 E8.57862
G1 X77.258 Y47.003 E8.58802
G1 X77.778 Y46.943 E8.59728
G1 X78.298 Y46.923 E8.60648
G1 X104.428 Y46.923 E9.06856
G1 X104.958 Y46.943 E9.07794
G1 X105.738 Y47.053 E9.09187
G1 X106.258 Y47.183 E9.10135
G1 X106.758 Y47.353 E9.11069
G1 X107.238 Y47.563 E9.11995
G1 X107.708 Y47.813 E9.12937
G1 X108.158 Y48.093 E9.13874
G1 X108.578 Y48.413 E9.14808
G1 X109.158 Y48.963 E9.16221
G1 X109.498 Y49.363 E9.17150
G1 X109.818 Y49.783 E9.18083
G1 X109.958 Y50.003 E9.18545
G1 X110.338 Y50.703 E9.19953
G1 X110.538 Y51.193 E9.20889
G1 X127.428 Y97.493 E10.08043
G1 X127.618 Y98.113 E10.09190
G1 X127.748 Y98.753 E10.10345
G1 X127.788 Y99.073 E10.10915
G1 X127.818 Y99.723 E10.12066
G1 X127.818 Y100.273 E10.13038
G1 X127.788 Y100.923 E10.14189
G1 X127.757 Y101.169 E10.14627
G1 X127.748 Y101.243 E10.14759
G1 X86.294 Y60.309 F7800.000
G1 X85.728 Y60.744 F300.000 E10.16021
G1 X85.064 Y61.018 E10.17292
G1 X84.356 Y61.109 E10.18554
G1 X83.648 Y61.018 E10.19816
G1 X82.985 Y60.744 E10.21085
G1 X82.419 Y60.307 E10.22349
G1 X81.983 Y59.741 E10.23613
G1 X81.709 Y59.079 E10.24879
G1 X81.615 Y58.372 E10.26141
G1 X81.710 Y57.657 E10.27417
G1 X81.983 Y56.998 E10.28677
G1 X82.418 Y56.433 E10.29939
G1 X82.982 Y55.997 E10.31199
G1 X83.648 Y55.722 E10.32472
G1 X84.353 Y55.628 E10.33730
G1 X85.064 Y55.722 E10.34999
G1 X85.729 Y55.996 E10.36271
G1 X86.297 Y56.435 E10.37540
G1 X86.659 Y56.905 E10.38590
G1 X86.732 Y57.001 E10.38802
G1 X87.004 Y57.657 E10.40059
G1 X87.098 Y58.370 E10.41331
G1 X87.005 Y59.077 E10.42592
G1 X86.731 Y59.739 E10.43858
G1 X86.339 Y60.250 E10.44997
G1 X86.294 Y60.309 E10.45130
G1 X85.938 Y59.952 F7800.000
G1 X85.476 Y60.308 F300.000 E10.46161
G1 X84.934 Y60.531 E10.47196
G1 X84.356 Y60.605 E10.48228
G1 X83.779 Y60.531 E10.49257
G1 X83.238 Y60.307 E10.50292
G1 X82.776 Y59.951 E10.51323
G1 X82.420 Y59.488 E10.52357
G1 X82.196 Y58.948 E10.53389
G1 X82.120 Y58.370 E10.54420
G1 X82.197 Y57.789 E10.55458
G1 X82.420 Y57.251 E10.56488
G1 X82.775 Y56.789 E10.57518
G1 X83.237 Y56.433 E10.58548
G1 X83.779 Y56.209 E10.59585
G1 X84.355 Y56.133 E10.60613
G1 X84.934 Y56.209 E10.61647
G1 X85.476 Y56.433 E10.62684
G1 X85.939 Y56.790 E10.63717
G1 X86.262 Y57.209 E10.64654
G1 X86.517 Y57.789 E10.65774
G1 X86.594 Y58.369 E10.66809
G1 X86.518 Y58.948 E10.67841
G1 X86.294 Y59.487 E10.68873
G1 X85.983 Y59.892 E10.69776
G1 X85.938 Y59.952 E10.69909
G1 X86.047 Y60.440 F7800.000
G1 X85.064 Y68.422
G1 X85.729 Y68.696 F300.000 E10.71182
G1 X86.297 Y69.135 E10.72451
G1 X86.732 Y69.701 E10.73713
G1 X87.005 Y70.359 E10.74973
G1 X87.099 Y71.068 E10.76238
G1 X87.006 Y71.773 E10.77496
G1 X86.731 Y72.439 E10.78769
G1 X86.295 Y73.008 E10.80038
G1 X85.727 Y73.446 E10.81306
G1 X85.064 Y73.718 E10.82573
G1 X84.356 Y73.809 E10.83834
G1 X84.241 Y73.794 E10.84040
G1 X83.650 Y73.718 E10.85093
G1 X82.985 Y73.444 E10.86366
G1 X82.419 Y73.007 E10.87630
G1 X81.983 Y72.441 E10.88894
G1 X81.709 Y71.779 E10.90160
G1 X81.615 Y71.069 E10.91426
G1 X81.710 Y70.357 E10.92698
G1 X81.983 Y69.698 E10.93958
G1 X82.420 Y69.133 E10.95221
G1 X82.985 Y68.696 E10.96484
G1 X83.645 Y68.424 E10.97748
G1 X84.356 Y68.328 E10.99015
G1 X84.989 Y68.412 E11.00145
G1 X85.064 Y68.422 E11.00278
G1 X84.934 Y68.909 F7800.000
G1 X85.476 Y69.133 F300.000 E11.01315
G1 X85.939 Y69.490 E11.02348
G1 X86.295 Y69.952 E11.03380
G1 X86.517 Y70.490 E11.04409
G1 X86.594 Y71.069 E11.05442
G1 X86.518 Y71.646 E11.06472
G1 X86.294 Y72.187 E11.07507
G1 X85.938 Y72.651 E11.08542
G1 X85.475 Y73.008 E11.09575
G1 X84.934 Y73.231 E11.10610
G1 X84.356 Y73.305 E11.11640
G1 X83.779 Y73.231 E11.12669
G1 X83.238 Y73.007 E11.13705
G1 X82.776 Y72.651 E11.14737
G1 X82.420 Y72.188 E11.15770
G1 X82.196 Y71.648 E11.16802
G1 X82.120 Y71.069 E11.17836
G1 X82.197 Y70.489 E11.18871
G1 X82.420 Y69.951 E11.19901
G1 X82.776 Y69.489 E11.20932
G1 X83.238 Y69.133 E11.21963
G1 X83.778 Y68.910 E11.22996
G1 X84.356 Y68.833 E11.24028
G1 X84.860 Y68.899 E11.24927
G1 X84.934 Y68.909 E11.25060
G1 X85.303 Y68.571 F7800.000
G1 X84.355 Y126.190
G1 X85.064 Y126.284 F300.000 E11.26324
G1 X85.612 Y126.510 E11.27372
G1 X85.728 Y126.558 E11.27594
G1 X86.295 Y126.992 E11.28857
G1 X86.731 Y127.561 E11.30124
G1 X87.004 Y128.219 E11.31385
G1 X87.099 Y128.930 E11.32654
G1 X87.005 Y129.640 E11.33919
G1 X86.731 Y130.302 E11.35187
G1 X86.295 Y130.868 E11.36450
G1 X85.728 Y131.305 E11.37716
G1 X85.066 Y131.577 E11.38982
G1 X84.356 Y131.672 E11.40249
G1 X83.649 Y131.578 E11.41510
G1 X82.985 Y131.304 E11.42779
G1 X82.419 Y130.868 E11.44043
G1 X81.983 Y130.302 E11.45305
G1 X81.710 Y129.642 E11.46570
G1 X81.615 Y128.932 E11.47837
G1 X81.710 Y128.221 E11.49105
G1 X81.983 Y127.561 E11.50368
G1 X82.420 Y126.991 E11.51638
G1 X82.985 Y126.558 E11.52896
G1 X83.646 Y126.285 E11.54161
G1 X84.281 Y126.200 E11.55294
G1 X84.355 Y126.190 E11.55427
G1 X84.356 Y126.695 F7800.000
G1 X84.934 Y126.771 F300.000 E11.56459
G1 X85.421 Y126.972 E11.57389
G1 X85.476 Y126.995 E11.57495
G1 X85.938 Y127.349 E11.58525
G1 X86.294 Y127.813 E11.59559
G1 X86.517 Y128.351 E11.60589
G1 X86.594 Y128.931 E11.61623
G1 X86.518 Y129.510 E11.62657
G1 X86.294 Y130.049 E11.63689
G1 X85.938 Y130.511 E11.64721
G1 X85.476 Y130.868 E11.65753
G1 X84.935 Y131.090 E11.66787
G1 X84.356 Y131.167 E11.67820
G1 X83.779 Y131.091 E11.68850
G1 X83.238 Y130.867 E11.69885
G1 X82.776 Y130.511 E11.70916
G1 X82.420 Y130.049 E11.71947
G1 X82.197 Y129.511 E11.72979
G1 X82.120 Y128.931 E11.74013
G1 X82.197 Y128.352 E11.75047
G1 X82.420 Y127.813 E11.76078
G1 X82.776 Y127.348 E11.77113
G1 X83.237 Y126.995 E11.78141
G1 X83.777 Y126.772 E11.79174
G1 X84.281 Y126.705 E11.80073
G1 X84.356 Y126.695 E11.80206
G1 X84.624 Y126.273 F7800.000
G1 X84.356 Y138.890
G1 X85.064 Y138.984 F300.000 E11.81468
G1 X85.726 Y139.256 E11.82734
G1 X86.295 Y139.692 E11.84002
G1 X86.731 Y140.261 E11.85269
G1 X87.005 Y140.921 E11.86533
G1 X87.098 Y141.631 E11.87799
G1 X87.005 Y142.339 E11.89062
G1 X86.731 Y143.002 E11.90332
G1 X86.295 Y143.568 E11.91594
G1 X85.729 Y144.004 E11.92857
G1 X85.066 Y144.278 E11.94126
G1 X84.355 Y144.372 E11.95393
G1 X83.649 Y144.278 E11.96654
G1 X82.985 Y144.004 E11.97924
G1 X82.419 Y143.568 E11.99187
G1 X81.983 Y143.002 E12.00449
G1 X81.710 Y142.342 E12.01713
G1 X81.615 Y141.632 E12.02981
G1 X81.710 Y140.921 E12.04249
G1 X81.983 Y140.261 E12.05512
G1 X82.420 Y139.691 E12.06782
G1 X82.985 Y139.258 E12.08041
G1 X83.648 Y138.984 E12.09309
G1 X84.282 Y138.900 E12.10440
G1 X84.356 Y138.890 E12.10572
G1 X84.356 Y139.395 F7800.000
G1 X84.934 Y139.471 F300.000 E12.11604
G1 X85.475 Y139.694 E12.12638
G1 X85.938 Y140.049 E12.13670
G1 X86.294 Y140.513 E12.14705
G1 X86.518 Y141.052 E12.15736
G1 X86.594 Y141.631 E12.16769
G1 X86.518 Y142.209 E12.17801
G1 X86.294 Y142.750 E12.18835
G1 X85.938 Y143.211 E12.19865
G1 X85.477 Y143.567 E12.20896
G1 X84.884 Y143.797 E12.22021
G1 X84.356 Y143.867 E12.22962
G1 X83.779 Y143.791 E12.23992
G1 X83.238 Y143.567 E12.25027
G1 X82.776 Y143.211 E12.26059
G1 X82.420 Y142.749 E12.27089
G1 X82.197 Y142.211 E12.28120
G1 X82.120 Y141.631 E12.29155
G1 X82.197 Y141.052 E12.30189
G1 X82.420 Y140.513 E12.31220
G1 X82.776 Y140.048 E12.32255
G1 X83.237 Y139.695 E12.33283
G1 X83.778 Y139.472 E12.34318
G1 X84.282 Y139.405 E12.35216
G1 X84.356 Y139.395 E12.35348
G1 X84.625 Y138.973 F7800.000
G1 X78.802 Y142.909
G1 X78.802 Y53.933 F900.000 E13.92693
G1 X103.930 Y53.933 E14.37128
G1 X103.930 Y146.067 E16.00057
G1 X78.802 Y146.067 E16.44493
G1 X78.802 Y142.984 E16.49944
G1 X78.802 Y142.909 E16.50077
G1 X78.302 Y142.909 F7800.000
G1 X78.302 Y53.433 F900.000 E18.08305
G1 X104.430 Y53.433 E18.54509
G1 X104.430 Y146.567 E20.19206
G1 X78.302 Y146.567 E20.65411
G1 X78.302 Y142.984 E20.71747
G1 X78.302 Y142.909 E20.71879
G1 X78.735 Y142.659 F7800.000
G1 X110.496 Y106.650
G1 X110.496 Y93.350 F300.000 E20.95399
G1 X118.296 Y100.001 E21.13527
G1 X110.553 Y106.601 E21.31519
G1 X110.496 Y106.650 E21.31651
G1 X110.996 Y105.567 F7800.000
G1 X110.996 Y94.433 F300.000 E21.51340
G1 X117.525 Y100.001 E21.66514
G1 X111.053 Y105.518 E21.81553
G1 X110.996 Y105.567 E21.81686
G1 X110.510 Y105.683 F7800.000
G1 X108.818 Y110.281
G1 X108.818 Y89.719 F900.000 E22.18049
G1 X120.872 Y100.000 E22.46066
G1 X108.875 Y110.233 E22.73950
G1 X108.818 Y110.281 E22.74083
G1 X108.318 Y111.365 F7800.000
G1 X108.318 Y88.635 F900.000 E23.14279
G1 X121.320 Y99.725 E23.44500
G1 X121.320 Y100.275 E23.45471
G1 X108.375 Y111.316 E23.75560
G1 X108.318 Y111.365 E23.75692
G1 X108.460 Y110.886 F7800.000
G1 X103.655 Y125.538
G1 X79.077 Y125.538 F1500.000 E24.19220
G1 X79.077 Y125.037 E24.20106
G1 X103.655 Y125.037 E24.63634
G1 X103.655 Y124.536 E24.64521
G1 X79.077 Y124.536 E25.08048
G1 X79.077 Y124.035 E25.08935
G1 X103.655 Y124.035 E25.52462
G1 X103.655 Y123.535 E25.53349
G1 X79.077 Y123.535 E25.96877
G1 X79.077 Y123.034 E25.97764
G1 X103.655 Y123.034 E26.41291
G1 X103.655 Y122.533 E26.42178
G1 X79.077 Y122.533 E26.85705
G1 X79.077 Y122.032 E26.86592
G1 X103.655 Y122.032 E27.30120
G1 X103.655 Y121.532 E27.31006
G1 X79.077 Y121.532 E27.74534
G1 X79.077 Y121.031 E27.75421
G1 X103.655 Y121.031 E28.18948
G1 X103.655 Y120.530 E28.19835
G1 X79.077 Y120.530 E28.63362
G1 X79.077 Y120.029 E28.64249
G1 X103.655 Y120.029 E29.07777
G1 X103.655 Y119.529 E29.08663
G1 X79.077 Y119.529 E29.52191
G1 X79.077 Y119.028 E29.53078
G1 X103.655 Y119.028 E29.96605
G1 X103.655 Y118.527 E29.97492
G1 X79.077 Y118.527 E30.41019
G1 X79.077 Y118.027 E30.41906
G1 X103.655 Y118.027 E30.85434
G1 X103.655 Y117.526 E30.86320
G1 X79.077 Y117.526 E31.29848
G1 X79.077 Y117.025 E31.30735
G1 X103.655 Y117.025 E31.74262
G1 X103.655 Y116.524 E31.75149
G1 X79.077 Y116.524 E32.18676
G1 X79.077 Y116.024 E32.19563
G1 X103.655 Y116.024 E32.63091
G1 X103.655 Y115.523 E32.63977
G1 X79.077 Y115.523 E33.07505
G1 X79.077 Y115.022 E33.08392
G1 X103.655 Y115.022 E33.51919
G1 X103.655 Y114.521 E33.52806
G1 X79.077 Y114.521 E33.96333
G1 X79.077 Y114.021 E33.97220
G1 X103.655 Y114.021 E34.40748
G1 X103.655 Y113.520 E34.41635
G1 X79.077 Y113.520 E34.85162
G1 X79.077 Y113.019 E34.86049
G1 X103.655 Y113.019 E35.29576
G1 X103.655 Y112.518 E35.30463
G1 X79.077 Y112.518 E35.73991
G1 X79.077 Y112.018 E35.74877
G1 X103.655 Y112.018 E36.18405
G1 X103.655 Y111.517 E36.19292
G1 X79.077 Y111.517 E36.62819
G1 X79.077 Y111.016 E36.63706
G1 X103.655 Y111.016 E37.07233
G1 X103.655 Y110.515 E37.08120
G1 X79.077 Y110.515 E37.51648
G1 X79.077 Y110.015 E37.52534
G1 X103.655 Y110.015 E37.96062
G1 X103.655 Y109.514 E37.96949
G1 X79.077 Y109.514 E38.40476
G1 X79.077 Y109.013 E38.41363
G1 X103.655 Y109.013 E38.84890
G1 X103.655 Y108.513 E38.85777
G1 X79.077 Y108.513 E39.29305
G1 X79.077 Y108.012 E39.30191
G1 X103.655 Y108.012 E39.73719
G1 X103.655 Y107.511 E39.74606
G1 X79.077 Y107.511 E40.18133
G1 X79.077 Y107.010 E40.19020
G1 X103.655 Y107.010 E40.62547
G1 X103.655 Y106.510 E40.63434
G1 X79.077 Y106.510 E41.06962
G1 X79.077 Y106.009 E41.07848
G1 X103.655 Y106.009 E41.51376
G1 X103.655 Y105.508 E41.52263
G1 X79.077 Y105.508 E41.95790
