; generated by Slic3r 0.9.8 on 2013-05-25 at 22:20:34

; layer_height = .25
; perimeters = 1
; top_solid_layers = 4
; bottom_solid_layers = 4
; fill_density = .9
; perimeter_speed = 30
; infill_speed = 40
; travel_speed = 130
; scale = 1
; nozzle_diameter = 0.5
; filament_diameter = 3
; extrusion_multiplier = 1
; perimeters extrusion width = 0.80mm
; infill extrusion width = 0.80mm
; first layer extrusion width = 0.50mm

M107
M104 S210 ; set temperature
G28 ; home all axes
M109 S210 ; wait for temperature to be reached
G90 ; use absolute coordinates
G21 ; set units to millimeters
G92 E0
M82 ; use absolute distances for extrusion
G1 Z0.250 F7800.000
G1 X110.684 Y118.308
G1 X110.214 Y118.638 F900.000 E0.01016
G1 X109.724 Y118.928 E0.02022
G1 X108.944 Y119.278 E0.03534
G1 X108.394 Y119.468 E0.04563
G1 X108.124 Y119.538 E0.05057
G1 X107.564 Y119.658 E0.06069
G1 X106.994 Y119.728 E0.07085
G1 X106.424 Y119.748 E0.08093
G1 X93.564 Y119.748 E0.30835
G1 X92.994 Y119.728 E0.31844
G1 X92.424 Y119.658 E0.32859
G1 X91.594 Y119.468 E0.34365
G1 X91.044 Y119.278 E0.35394
G1 X90.264 Y118.928 E0.36906
G1 X89.774 Y118.638 E0.37913
G1 X89.304 Y118.308 E0.38928
G1 X88.364 Y117.588 E0.41022
G1 X87.814 Y117.108 E0.42313
G1 X87.304 Y116.578 E0.43614
G1 X87.074 Y116.298 E0.44254
G1 X71.304 Y95.678 E0.90160
G1 X70.824 Y94.968 E0.91676
G1 X70.434 Y94.208 E0.93186
G1 X70.234 Y93.668 E0.94205
G1 X70.074 Y93.128 E0.95201
G1 X69.954 Y92.568 E0.96214
G1 X69.884 Y91.998 E0.97229
G1 X69.864 Y91.428 E0.98238
G1 X69.864 Y87.158 E1.05789
G1 X69.884 Y86.608 E1.06762
G1 X69.994 Y85.788 E1.08225
G1 X70.124 Y85.258 E1.09190
G1 X70.394 Y84.478 E1.10650
G1 X70.624 Y83.978 E1.11623
G1 X70.894 Y83.498 E1.12597
G1 X71.364 Y82.828 E1.14044
G1 X71.544 Y82.608 E1.14547
G1 X71.914 Y82.208 E1.15510
G1 X72.534 Y81.658 E1.16976
G1 X72.974 Y81.338 E1.17938
G1 X73.444 Y81.048 E1.18915
G1 X73.934 Y80.798 E1.19887
G1 X74.444 Y80.588 E1.20863
G1 X74.964 Y80.418 E1.21830
G1 X75.494 Y80.288 E1.22795
G1 X76.314 Y80.178 E1.24258
G1 X76.864 Y80.158 E1.25232
G1 X123.124 Y80.158 E2.07037
G1 X123.674 Y80.178 E2.08011
G1 X124.494 Y80.288 E2.09474
G1 X125.024 Y80.418 E2.10439
G1 X125.804 Y80.688 E2.11898
G1 X126.304 Y80.918 E2.12872
G1 X127.014 Y81.338 E2.14330
G1 X127.674 Y81.838 E2.15795
G1 X128.074 Y82.208 E2.16758
G1 X128.444 Y82.608 E2.17722
G1 X128.944 Y83.268 E2.19186
G1 X129.234 Y83.738 E2.20163
G1 X129.484 Y84.228 E2.21135
G1 X129.694 Y84.738 E2.22111
G1 X129.864 Y85.258 E2.23078
G1 X129.994 Y85.788 E2.24043
G1 X130.104 Y86.608 E2.25506
G1 X130.124 Y87.158 E2.26479
G1 X130.124 Y91.428 E2.34031
G1 X130.104 Y91.998 E2.35039
G1 X130.034 Y92.568 E2.36055
G1 X129.844 Y93.398 E2.37560
G1 X129.554 Y94.208 E2.39082
G1 X129.434 Y94.468 E2.39588
G1 X129.164 Y94.968 E2.40593
G1 X128.684 Y95.678 E2.42109
G1 X112.914 Y116.298 E2.88014
G1 X112.434 Y116.848 E2.89305
G1 X111.904 Y117.358 E2.90606
G1 X110.743 Y118.262 E2.93208
G1 X110.684 Y118.308 E2.93340
G1 X110.374 Y117.908 F7800.000
G1 X110.144 Y118.078 F900.000 E2.93846
G1 X109.674 Y118.378 E2.94832
G1 X109.424 Y118.518 E2.95339
G1 X108.904 Y118.758 E2.96352
G1 X108.374 Y118.948 E2.97347
G1 X107.834 Y119.098 E2.98339
G1 X106.994 Y119.228 E2.99842
G1 X106.424 Y119.248 E3.00850
G1 X93.564 Y119.248 E3.23592
G1 X92.994 Y119.228 E3.24600
G1 X92.154 Y119.098 E3.26103
G1 X91.884 Y119.028 E3.26597
G1 X91.084 Y118.758 E3.28090
G1 X90.564 Y118.518 E3.29103
G1 X89.844 Y118.078 E3.30595
G1 X88.404 Y116.978 E3.33799
G1 X88.154 Y116.748 E3.34400
G1 X87.684 Y116.258 E3.35601
G1 X87.474 Y115.988 E3.36205
G1 X71.704 Y95.378 E3.82097
G1 X71.374 Y94.908 E3.83113
G1 X71.234 Y94.668 E3.83604
G1 X71.094 Y94.418 E3.84111
G1 X70.854 Y93.908 E3.85108
G1 X70.664 Y93.378 E3.86103
G1 X70.514 Y92.828 E3.87111
G1 X70.384 Y91.998 E3.88597
G1 X70.364 Y91.428 E3.89606
G1 X70.364 Y87.158 E3.97157
G1 X70.384 Y86.638 E3.98077
G1 X70.444 Y86.118 E3.99003
G1 X70.554 Y85.598 E3.99943
G1 X70.694 Y85.098 E4.00861
G1 X70.884 Y84.608 E4.01790
G1 X71.104 Y84.138 E4.02708
G1 X71.234 Y83.908 E4.03175
G1 X71.664 Y83.258 E4.04553
G1 X71.994 Y82.848 E4.05484
G1 X72.554 Y82.288 E4.06884
G1 X72.964 Y81.958 E4.07815
G1 X73.174 Y81.808 E4.08271
G1 X73.844 Y81.398 E4.09661
G1 X74.314 Y81.178 E4.10578
G1 X74.804 Y80.988 E4.11508
G1 X75.304 Y80.848 E4.12426
G1 X75.824 Y80.738 E4.13366
G1 X76.344 Y80.678 E4.14291
G1 X76.864 Y80.658 E4.15212
G1 X123.124 Y80.658 E4.97017
G1 X123.644 Y80.678 E4.97938
G1 X124.164 Y80.738 E4.98863
G1 X124.424 Y80.788 E4.99331
G1 X125.184 Y80.988 E5.00721
G1 X125.674 Y81.178 E5.01650
G1 X126.144 Y81.398 E5.02568
G1 X126.814 Y81.808 E5.03957
G1 X127.434 Y82.288 E5.05344
G1 X127.624 Y82.468 E5.05807
G1 X127.994 Y82.848 E5.06745
G1 X128.324 Y83.258 E5.07675
G1 X128.754 Y83.908 E5.09053
G1 X128.994 Y84.368 E5.09971
G1 X129.294 Y85.098 E5.11367
G1 X129.434 Y85.598 E5.12285
G1 X129.544 Y86.118 E5.13225
G1 X129.604 Y86.638 E5.14150
G1 X129.624 Y87.158 E5.15071
G1 X129.624 Y91.428 E5.22622
G1 X129.604 Y91.998 E5.23630
G1 X129.524 Y92.558 E5.24631
G1 X129.404 Y93.108 E5.25626
G1 X129.134 Y93.908 E5.27119
G1 X128.894 Y94.418 E5.28116
G1 X128.614 Y94.908 E5.29114
G1 X128.284 Y95.378 E5.30130
G1 X112.304 Y116.258 E5.76626
G1 X112.074 Y116.508 E5.77227
G1 X111.584 Y116.978 E5.78428
G1 X110.433 Y117.862 E5.80994
G1 X110.374 Y117.908 E5.81126
G1 X106.476 Y112.087 F7800.000
G1 X105.731 Y111.345 F900.000 E5.82985
G1 X105.731 Y110.536 E5.84416
G1 X106.810 Y108.966 E5.87783
G1 X107.867 Y108.966 E5.89653
G1 X107.867 Y104.583 E5.97404
G1 X107.582 Y103.154 E5.99982
G1 X107.582 Y95.365 E6.13755
G1 X104.943 Y95.365 E6.18422
G1 X104.943 Y99.864 E6.26378
G1 X95.057 Y99.864 E6.43861
G1 X95.057 Y95.365 E6.51817
G1 X92.418 Y95.365 E6.56483
G1 X92.418 Y103.154 E6.70257
G1 X92.133 Y104.583 E6.72834
G1 X92.133 Y108.966 E6.80586
G1 X93.190 Y108.966 E6.82455
G1 X94.269 Y110.536 E6.85823
G1 X94.269 Y111.345 E6.87253
G1 X93.524 Y112.087 E6.89112
G1 X92.985 Y111.673 E6.90314
G1 X91.408 Y109.618 E6.94896
G1 X90.416 Y107.226 E6.99475
G1 X90.074 Y104.608 E7.04144
G1 X90.074 Y90.930 E7.28332
G1 X77.374 Y90.930 E7.50791
G1 X77.374 Y87.668 E7.56560
G1 X122.626 Y87.668 E8.36584
G1 X122.626 Y90.930 E8.42353
G1 X109.926 Y90.930 E8.64812
G1 X109.926 Y104.608 E8.89000
G1 X109.584 Y107.226 E8.93669
G1 X108.592 Y109.618 E8.98247
G1 X107.015 Y111.673 E9.02829
G1 X106.535 Y112.042 E9.03899
G1 X106.476 Y112.087 E9.04031
G1 X106.432 Y112.751 F7800.000
G1 X105.231 Y111.552 F900.000 E9.07032
G1 X105.231 Y110.381 E9.09103
G1 X106.546 Y108.466 E9.13211
G1 X107.367 Y108.466 E9.14662
G1 X107.367 Y104.632 E9.21442
G1 X107.082 Y103.203 E9.24019
G1 X107.082 Y95.865 E9.36995
G1 X105.443 Y95.865 E9.39894
G1 X105.443 Y100.364 E9.47849
G1 X94.557 Y100.364 E9.67101
G1 X94.557 Y95.865 E9.75057
G1 X92.918 Y95.865 E9.77955
G1 X92.918 Y103.203 E9.90932
G1 X92.633 Y104.632 E9.93509
G1 X92.633 Y108.466 E10.00289
G1 X93.454 Y108.466 E10.01740
G1 X94.769 Y110.381 E10.05847
G1 X94.769 Y111.552 E10.07919
G1 X93.568 Y112.751 E10.10919
G1 X92.629 Y112.030 E10.13013
G1 X90.972 Y109.870 E10.17827
G1 X89.929 Y107.357 E10.22639
G1 X89.574 Y104.641 E10.27482
G1 X89.574 Y91.430 E10.50844
G1 X76.874 Y91.430 E10.73302
G1 X76.874 Y87.168 E10.80840
G1 X123.126 Y87.168 E11.62632
G1 X123.126 Y91.430 E11.70170
G1 X110.426 Y91.430 E11.92629
G1 X110.426 Y104.641 E12.15990
G1 X110.071 Y107.357 E12.20834
G1 X109.028 Y109.870 E12.25645
G1 X107.371 Y112.030 E12.30460
G1 X106.492 Y112.705 E12.32421
G1 X106.432 Y112.751 E12.32553
G1 X106.324 Y112.263 F7800.000
G1 X93.674 Y111.456
G1 X93.224 Y111.456 F1500.000 E12.33610
G1 X92.715 Y110.793 E12.35572
G1 X93.994 Y110.793 E12.38572
G1 X93.608 Y110.130 E12.40372
G1 X92.206 Y110.130 E12.43661
G1 X91.697 Y109.466 E12.45623
G1 X93.152 Y109.466 E12.49037
G1 X91.858 Y108.855 F7800.000
G1 X91.408 Y108.855 F600.000 E12.49833
G1 X106.776 Y111.456 F7800.000
G1 X106.326 Y111.456 F1500.000 E12.50890
G1 X106.006 Y110.793 E12.52617
G1 X107.285 Y110.793 E12.55617
G1 X107.794 Y110.130 E12.57579
G1 X106.392 Y110.130 E12.60869
G1 X106.848 Y109.466 E12.62757
G1 X108.303 Y109.466 E12.66171
G1 X108.592 Y108.855 F7800.000
G1 X108.142 Y108.855 F600.000 E12.66967
G1 X108.837 Y108.264 F7800.000
G1 X108.387 Y108.264 F1500.000 E12.67768
G1 X108.142 Y107.761 E12.68761
G1 X109.046 Y107.761 E12.70367
G1 X109.254 Y107.259 E12.71333
G1 X108.142 Y107.259 E12.73310
G1 X108.142 Y106.756 E12.74202
G1 X109.366 Y106.756 E12.76378
G1 X109.432 Y106.254 E12.77278
G1 X108.142 Y106.254 E12.79570
G1 X108.142 Y105.752 E12.80463
G1 X109.498 Y105.752 E12.82872
G1 X109.563 Y105.249 E12.83772
G1 X108.142 Y105.249 E12.86298
G1 X108.142 Y104.747 E12.87190
G1 X109.629 Y104.747 E12.89833
G1 X109.651 Y104.244 E12.90726
G1 X108.084 Y104.244 E12.93511
G1 X107.984 Y103.742 E12.94421
G1 X109.651 Y103.742 E12.97383
G1 X109.651 Y103.240 E12.98276
G1 X107.884 Y103.240 E13.01416
G1 X107.857 Y102.737 E13.02310
G1 X109.651 Y102.737 E13.05499
G1 X109.651 Y102.235 E13.06391
G1 X107.857 Y102.235 E13.09579
G1 X107.857 Y101.732 E13.10472
G1 X109.651 Y101.732 E13.13660
G1 X109.651 Y101.230 E13.14553
G1 X107.857 Y101.230 E13.17741
G1 X107.857 Y100.728 E13.18634
G1 X109.651 Y100.728 E13.21822
G1 X109.651 Y100.225 E13.22714
G1 X107.857 Y100.225 E13.25902
G1 X107.857 Y99.723 E13.26795
G1 X109.651 Y99.723 E13.29983
G1 X109.651 Y99.220 E13.30876
G1 X107.857 Y99.220 E13.34064
G1 X107.857 Y98.718 E13.34957
G1 X109.651 Y98.718 E13.38145
G1 X109.651 Y98.216 E13.39038
G1 X107.857 Y98.216 E13.42226
G1 X107.857 Y97.713 E13.43118
G1 X109.651 Y97.713 E13.46306
G1 X109.651 Y97.211 E13.47199
G1 X107.857 Y97.211 E13.50387
G1 X107.857 Y96.708 E13.51280
G1 X109.651 Y96.708 E13.54468
G1 X109.651 Y96.206 E13.55361
G1 X107.857 Y96.206 E13.58549
G1 X107.857 Y95.704 E13.59441
G1 X109.651 Y95.704 E13.62630
G1 X109.651 Y95.201 E13.63522
G1 X107.857 Y95.201 E13.66710
G1 X109.651 Y94.699 E13.70021
G1 X90.349 Y94.699 E14.04320
G1 X90.349 Y94.196 E14.05212
G1 X109.651 Y94.196 E14.39511
G1 X109.651 Y93.694 E14.40404
G1 X90.349 Y93.694 E14.74702
G1 X90.349 Y93.192 E14.75595
G1 X109.651 Y93.192 E15.09894
G1 X109.651 Y92.689 E15.10786
G1 X90.349 Y92.689 E15.45085
G1 X90.349 Y92.187 E15.45978
G1 X109.651 Y92.187 E15.80276
G1 X109.651 Y91.684 E15.81169
G1 X90.349 Y91.684 E16.15468
G1 X90.349 Y91.182 E16.16360
G1 X109.651 Y91.182 E16.50659
G1 X109.651 Y90.680 E16.51552
G1 X90.349 Y90.680 E16.85850
G1 X90.349 Y95.201 F7800.000
G1 X92.143 Y95.201 F1500.000 E16.89038
G1 X92.143 Y95.704 E16.89931
G1 X90.349 Y95.704 E16.93119
G1 X90.349 Y96.206 E16.94012
G1 X92.143 Y96.206 E16.97200
G1 X92.143 Y96.708 E16.98093
G1 X90.349 Y96.708 E17.01281
G1 X90.349 Y97.211 E17.02173
G1 X92.143 Y97.211 E17.05361
G1 X92.143 Y97.713 E17.06254
G1 X90.349 Y97.713 E17.09442
G1 X90.349 Y98.216 E17.10335
G1 X92.143 Y98.216 E17.13523
G1 X92.143 Y98.718 E17.14416
G1 X90.349 Y98.718 E17.17604
G1 X90.349 Y99.220 E17.18497
G1 X92.143 Y99.220 E17.21685
G1 X92.143 Y99.723 E17.22577
G1 X90.349 Y99.723 E17.25765
G1 X90.349 Y100.225 E17.26658
G1 X92.143 Y100.225 E17.29846
G1 X92.143 Y100.728 E17.30739
G1 X90.349 Y100.728 E17.33927
G1 X90.349 Y101.230 E17.34820
G1 X92.143 Y101.230 E17.38008
G1 X92.143 Y101.732 E17.38900
G1 X90.349 Y101.732 E17.42089
G1 X90.349 Y102.235 E17.42981
G1 X92.143 Y102.235 E17.46169
G1 X92.143 Y102.737 E17.47062
G1 X90.349 Y102.737 E17.50250
G1 X90.349 Y103.240 E17.51143
G1 X92.116 Y103.240 E17.54283
G1 X92.016 Y103.742 E17.55193
G1 X90.349 Y103.742 E17.58156
G1 X90.349 Y104.244 E17.59048
G1 X91.916 Y104.244 E17.61833
G1 X91.858 Y104.747 E17.62731
G1 X90.371 Y104.747 E17.65374
G1 X90.437 Y105.249 E17.66274
G1 X91.858 Y105.249 E17.68799
G1 X91.858 Y105.752 E17.69692
G1 X90.502 Y105.752 E17.72101
G1 X90.568 Y106.254 E17.73001
G1 X91.858 Y106.254 E17.75293
G1 X91.858 Y106.756 E17.76186
G1 X90.634 Y106.756 E17.78361
G1 X90.746 Y107.259 E17.79276
G1 X91.858 Y107.259 E17.81252
G1 X91.858 Y107.761 E17.82145
G1 X90.954 Y107.761 E17.83750
G1 X91.163 Y108.264 E17.84717
G1 X91.613 Y108.264 E17.85517
G1 X95.332 Y99.220 F7800.000
G1 X104.668 Y99.220 F1500.000 E18.02108
G1 X104.668 Y98.718 E18.03001
G1 X95.332 Y98.718 E18.19591
G1 X95.332 Y98.216 E18.20484
G1 X104.668 Y98.216 E18.37075
G1 X104.668 Y97.713 E18.37967
G1 X95.332 Y97.713 E18.54558
G1 X95.332 Y97.211 E18.55451
G1 X104.668 Y97.211 E18.72041
G1 X104.668 Y96.708 E18.72934
G1 X95.332 Y96.708 E18.89524
G1 X95.332 Y96.206 E18.90417
G1 X104.668 Y96.206 E19.07008
G1 X104.668 Y95.704 E19.07900
G1 X95.332 Y95.704 E19.24491
G1 X95.332 Y95.201 E19.25384
G1 X104.668 Y95.201 E19.41974
G1 X122.351 Y90.177 F7800.000
G1 X77.649 Y90.177 F1500.000 E20.21405
G1 X77.649 Y89.675 E20.22298
G1 X122.351 Y89.675 E21.01729
G1 X122.351 Y89.172 E21.02622
G1 X77.649 Y89.172 E21.82053
G1 X77.649 Y88.670 E21.82945
G1 X122.351 Y88.670 E22.62377
G1 X122.351 Y88.168 E22.63269
G1 X77.649 Y88.168 E23.42700
M106 S253
G1 Z0.500 F7800.000
G1 X77.024 Y87.318
G1 X122.976 Y87.318 F1800.000 E24.64000
G1 X122.976 Y91.280 E24.74459
G1 X110.276 Y91.280 E25.07983
G1 X110.276 Y104.631 E25.43225
G1 X109.925 Y107.317 E25.50377
G1 X108.897 Y109.794 E25.57455
G1 X107.264 Y111.923 E25.64537
G1 X106.445 Y112.552 E25.67263
G1 X105.381 Y111.490 E25.71230
G1 X105.381 Y110.427 E25.74035
G1 X106.625 Y108.616 E25.79835
G1 X107.517 Y108.616 E25.82189
G1 X107.517 Y104.618 E25.92744
G1 X107.232 Y103.188 E25.96591
G1 X107.232 Y95.715 E26.16318
G1 X105.293 Y95.715 E26.21436
G1 X105.293 Y100.214 E26.33312
G1 X94.707 Y100.214 E26.61257
G1 X94.707 Y95.715 E26.73133
G1 X92.768 Y95.715 E26.78251
G1 X92.768 Y103.188 E26.97978
G1 X92.483 Y104.618 E27.01825
G1 X92.483 Y108.616 E27.12380
G1 X93.375 Y108.616 E27.14734
G1 X94.619 Y110.427 E27.20534
G1 X94.619 Y111.490 E27.23338
G1 X93.555 Y112.552 E27.27306
G1 X92.736 Y111.923 E27.30032
G1 X91.103 Y109.794 E27.37114
G1 X90.075 Y107.317 E27.44192
G1 X89.724 Y104.631 E27.51344
G1 X89.724 Y91.280 E27.86586
G1 X77.024 Y91.280 E28.20110
G1 X77.024 Y87.430 E28.30274
G1 X77.024 Y87.318 E28.30569
G1 X91.712 Y109.699 F7800.000
G1 X91.712 Y109.027 F3000.000 E28.33136
G1 X92.792 Y109.027 E28.37261
G1 X92.792 Y111.107 E28.45206
G1 X93.872 Y111.516 E28.49619
G1 X93.872 Y110.323 E28.54177
G1 X106.128 Y110.323 F7800.000
G1 X106.128 Y111.516 F3000.000 E28.58736
G1 X107.208 Y111.107 E28.63148
G1 X107.208 Y109.027 E28.71093
G1 X108.288 Y109.699 E28.75952
G1 X108.288 Y109.027 E28.78518
G1 X104.145 Y99.803 F7800.000
G1 X104.145 Y87.728 F3000.000 E29.10701
G1 X103.391 Y87.728 E29.12710
G1 X103.391 Y99.803 E29.44893
G1 X102.637 Y99.803 E29.46901
G1 X102.637 Y87.728 E29.79084
G1 X101.884 Y87.728 E29.81092
G1 X101.884 Y99.803 E30.13275
G1 X101.130 Y99.803 E30.15283
G1 X101.130 Y87.728 E30.47466
G1 X100.377 Y87.728 E30.49475
G1 X100.377 Y99.803 E30.81658
G1 X99.623 Y99.803 E30.83666
G1 X99.623 Y87.728 E31.15849
G1 X98.870 Y87.728 E31.17857
G1 X98.870 Y99.803 E31.50040
G1 X98.116 Y99.803 E31.52048
G1 X98.116 Y87.728 E31.84231
G1 X97.363 Y87.728 E31.86240
G1 X97.363 Y99.803 E32.18423
G1 X96.609 Y99.803 E32.20431
G1 X96.609 Y87.728 E32.52614
G1 X95.855 Y87.728 E32.54622
G1 X95.855 Y99.803 E32.86805
G1 X95.102 Y95.305 F7800.000
G1 X95.102 Y87.728 F3000.000 E33.06998
G1 X94.348 Y87.728 E33.09006
G1 X94.348 Y95.305 E33.29198
G1 X93.595 Y95.305 E33.31207
G1 X93.595 Y87.728 E33.51400
G1 X92.841 Y87.728 E33.53408
G1 X92.841 Y95.305 E33.73600
G1 X92.088 Y95.305 E33.75609
G1 X92.088 Y87.728 E33.95801
G1 X91.334 Y87.728 E33.97810
G1 X91.334 Y108.741 E34.53812
G1 X90.581 Y105.763 E34.61998
G1 X90.581 Y87.728 E35.10065
G1 X89.827 Y87.728 E35.12073
G1 X89.827 Y90.870 E35.20446
G1 X89.073 Y90.870 E35.22454
