; generated by Slic3r 0.9.8 on 2013-05-25 at 22:23:15

; layer_height = .25
; perimeters = 1
; top_solid_layers = 4
; bottom_solid_layers = 4
; fill_density = .9
; perimeter_speed = 30
; infill_speed = 40
; travel_speed = 130
; scale = 1
; nozzle_diameter = 0.5
; filament_diameter = 3
; extrusion_multiplier = 1
; perimeters extrusion width = 0.80mm
; infill extrusion width = 0.80mm
; first layer extrusion width = 0.50mm

M107
M104 S210 ; set temperature
G28 ; home all axes
M109 S210 ; wait for temperature to be reached
G90 ; use absolute coordinates
G21 ; set units to millimeters
G92 E0
M82 ; use absolute distances for extrusion
G1 Z0.250 F7800.000
G1 X132.820 Y135.965
G1 X67.170 Y135.965 F900.000 E1.16095
G1 X66.600 Y135.945 E1.17103
G1 X66.030 Y135.875 E1.18119
G1 X65.200 Y135.685 E1.19625
G1 X64.650 Y135.495 E1.20654
G1 X63.870 Y135.145 E1.22165
G1 X63.140 Y134.695 E1.23682
G1 X61.970 Y133.805 E1.26282
G1 X61.420 Y133.325 E1.27572
G1 X60.910 Y132.795 E1.28873
G1 X59.020 Y130.355 E1.34331
G1 X44.910 Y111.895 E1.75419
G1 X44.430 Y111.185 E1.76935
G1 X44.040 Y110.425 E1.78446
G1 X43.750 Y109.615 E1.79967
G1 X43.560 Y108.785 E1.81473
G1 X43.490 Y108.215 E1.82488
G1 X43.470 Y107.645 E1.83497
G1 X43.470 Y103.305 E1.91172
G1 X43.600 Y92.265 E2.10696
G1 X43.630 Y91.665 E2.11758
G1 X43.780 Y90.785 E2.13337
G1 X43.850 Y90.495 E2.13865
G1 X44.030 Y89.925 E2.14922
G1 X44.260 Y89.375 E2.15976
G1 X44.400 Y89.105 E2.16514
G1 X44.540 Y88.845 E2.17036
G1 X44.860 Y88.335 E2.18101
G1 X59.140 Y69.635 E2.59709
G1 X61.030 Y67.195 E2.65167
G1 X61.540 Y66.665 E2.66467
G1 X62.090 Y66.185 E2.67758
G1 X63.260 Y65.295 E2.70358
G1 X63.990 Y64.845 E2.71875
G1 X64.770 Y64.495 E2.73386
G1 X65.320 Y64.305 E2.74415
G1 X66.150 Y64.115 E2.75921
G1 X66.720 Y64.045 E2.76937
G1 X67.000 Y64.035 E2.77432
G1 X80.190 Y64.025 E3.00757
G1 X133.130 Y64.255 E3.94377
G1 X133.700 Y64.305 E3.95388
G1 X134.540 Y64.455 E3.96897
G1 X135.350 Y64.715 E3.98402
G1 X136.120 Y65.075 E3.99905
G1 X136.850 Y65.515 E4.01412
G1 X138.020 Y66.405 E4.04012
G1 X138.570 Y66.885 E4.05303
G1 X139.080 Y67.415 E4.06603
G1 X140.970 Y69.855 E4.12061
G1 X155.080 Y88.315 E4.53150
G1 X155.560 Y89.025 E4.54665
G1 X155.950 Y89.785 E4.56176
G1 X156.240 Y90.595 E4.57697
G1 X156.430 Y91.425 E4.59203
G1 X156.500 Y91.995 E4.60219
G1 X156.520 Y92.565 E4.61227
G1 X156.520 Y107.645 E4.87894
G1 X156.500 Y108.215 E4.88903
G1 X156.430 Y108.785 E4.89919
G1 X156.310 Y109.345 E4.90931
G1 X156.150 Y109.885 E4.91927
G1 X155.950 Y110.425 E4.92946
G1 X155.830 Y110.685 E4.93452
G1 X155.560 Y111.185 E4.94457
G1 X155.250 Y111.665 E4.95467
G1 X140.970 Y130.355 E5.37062
G1 X139.080 Y132.795 E5.42519
G1 X138.570 Y133.325 E5.43820
G1 X138.020 Y133.805 E5.45111
G1 X136.850 Y134.695 E5.47711
G1 X136.120 Y135.145 E5.49227
G1 X135.340 Y135.495 E5.50739
G1 X134.790 Y135.685 E5.51768
G1 X134.520 Y135.755 E5.52261
G1 X133.960 Y135.875 E5.53274
G1 X133.680 Y135.915 E5.53774
G1 X132.895 Y135.962 E5.55165
G1 X132.820 Y135.965 E5.55298
G1 X132.820 Y135.465 F7800.000
G1 X67.170 Y135.465 F900.000 E6.71392
G1 X66.600 Y135.445 E6.72401
G1 X65.760 Y135.315 E6.73904
G1 X65.490 Y135.245 E6.74397
G1 X64.690 Y134.975 E6.75890
G1 X64.170 Y134.735 E6.76903
G1 X63.680 Y134.445 E6.77910
G1 X63.220 Y134.125 E6.78901
G1 X62.010 Y133.195 E6.81600
G1 X61.520 Y132.725 E6.82800
G1 X61.290 Y132.475 E6.83401
G1 X59.410 Y130.035 E6.88848
G1 X45.310 Y111.595 E7.29898
G1 X44.980 Y111.125 E7.30913
G1 X44.840 Y110.885 E7.31405
G1 X44.700 Y110.635 E7.31911
G1 X44.460 Y110.125 E7.32908
G1 X44.270 Y109.595 E7.33904
G1 X44.120 Y109.045 E7.34912
G1 X43.990 Y108.215 E7.36398
G1 X43.970 Y107.645 E7.37406
G1 X43.970 Y103.305 E7.45081
G1 X44.100 Y92.265 E7.64605
G1 X44.130 Y91.715 E7.65579
G1 X44.160 Y91.435 E7.66077
G1 X44.260 Y90.895 E7.67049
G1 X44.500 Y90.095 E7.68526
G1 X44.600 Y89.835 E7.69018
G1 X44.840 Y89.335 E7.69999
G1 X44.970 Y89.095 E7.70482
G1 X45.270 Y88.625 E7.71468
G1 X61.410 Y67.515 E8.18459
G1 X61.640 Y67.265 E8.19060
G1 X62.130 Y66.795 E8.20261
G1 X63.570 Y65.695 E8.23465
G1 X64.290 Y65.255 E8.24957
G1 X64.810 Y65.015 E8.25970
G1 X65.610 Y64.745 E8.27463
G1 X65.880 Y64.675 E8.27957
G1 X66.720 Y64.545 E8.29460
G1 X67.290 Y64.525 E8.30468
G1 X80.190 Y64.525 E8.53280
G1 X133.130 Y64.755 E9.46900
G1 X133.690 Y64.805 E9.47894
G1 X134.240 Y64.905 E9.48883
G1 X134.790 Y65.045 E9.49886
G1 X135.570 Y65.355 E9.51371
G1 X136.070 Y65.615 E9.52367
G1 X136.550 Y65.915 E9.53368
G1 X137.980 Y67.015 E9.56559
G1 X138.470 Y67.485 E9.57759
G1 X138.700 Y67.735 E9.58360
G1 X140.580 Y70.175 E9.63807
G1 X154.680 Y88.615 E10.04857
G1 X155.010 Y89.085 E10.05872
G1 X155.150 Y89.325 E10.06364
G1 X155.290 Y89.575 E10.06870
G1 X155.530 Y90.085 E10.07867
G1 X155.720 Y90.615 E10.08863
G1 X155.870 Y91.165 E10.09871
G1 X156.000 Y91.995 E10.11356
G1 X156.020 Y92.565 E10.12365
G1 X156.020 Y107.645 E10.39032
G1 X156.000 Y108.215 E10.40041
G1 X155.870 Y109.045 E10.41527
G1 X155.630 Y109.865 E10.43037
G1 X155.530 Y110.125 E10.43530
G1 X155.290 Y110.635 E10.44527
G1 X155.010 Y111.125 E10.45525
G1 X154.850 Y111.365 E10.46035
G1 X138.700 Y132.475 E10.93037
G1 X138.470 Y132.725 E10.93638
G1 X137.980 Y133.195 E10.94839
G1 X136.540 Y134.295 E10.98043
G1 X135.820 Y134.735 E10.99535
G1 X135.040 Y135.075 E11.01040
G1 X134.230 Y135.315 E11.02534
G1 X133.390 Y135.445 E11.04037
G1 X132.895 Y135.462 E11.04913
G1 X132.820 Y135.465 E11.05046
G1 X134.986 Y125.839 F7800.000
G1 X133.409 Y127.895 F900.000 E11.09628
G1 X132.870 Y128.309 E11.10830
G1 X132.126 Y127.566 E11.12689
G1 X132.126 Y126.757 E11.14119
G1 X133.204 Y125.188 E11.17487
G1 X134.261 Y125.188 E11.19357
G1 X134.261 Y120.804 E11.27108
G1 X133.976 Y119.375 E11.29685
G1 X133.976 Y111.586 E11.43459
G1 X131.337 Y111.586 E11.48125
G1 X131.337 Y116.085 E11.56081
G1 X121.451 Y116.085 E11.73565
G1 X121.451 Y111.586 E11.81520
G1 X118.812 Y111.586 E11.86187
G1 X118.812 Y119.375 E11.99960
G1 X118.527 Y120.804 E12.02538
G1 X118.527 Y125.188 E12.10289
G1 X119.584 Y125.188 E12.12159
G1 X120.663 Y126.757 E12.15526
G1 X120.663 Y127.566 E12.16957
G1 X119.919 Y128.309 E12.18816
G1 X119.379 Y127.895 E12.20018
G1 X117.802 Y125.839 E12.24600
G1 X116.810 Y123.448 E12.29178
G1 X116.468 Y120.830 E12.33847
G1 X116.468 Y107.151 E12.58035
G1 X103.768 Y107.151 E12.80494
G1 X103.768 Y103.889 E12.86263
G1 X149.020 Y103.889 E13.66287
G1 X149.020 Y107.151 E13.72057
G1 X136.320 Y107.151 E13.94515
G1 X136.320 Y120.830 E14.18703
G1 X135.978 Y123.448 E14.23372
G1 X135.015 Y125.770 E14.27818
G1 X134.986 Y125.839 E14.27951
G1 X135.423 Y126.091 F7800.000
G1 X133.766 Y128.251 F900.000 E14.32765
G1 X132.826 Y128.972 E14.34859
G1 X131.626 Y127.774 E14.37859
G1 X131.626 Y126.602 E14.39930
G1 X132.940 Y124.688 E14.44038
G1 X133.761 Y124.688 E14.45489
G1 X133.761 Y120.854 E14.52269
G1 X133.476 Y119.424 E14.54846
G1 X133.476 Y112.086 E14.67823
G1 X131.837 Y112.086 E14.70721
G1 X131.837 Y116.585 E14.78677
G1 X120.951 Y116.585 E14.97928
G1 X120.951 Y112.086 E15.05884
G1 X119.312 Y112.086 E15.08782
G1 X119.312 Y119.424 E15.21759
G1 X119.027 Y120.854 E15.24336
G1 X119.027 Y124.688 E15.31116
G1 X119.848 Y124.688 E15.32567
G1 X121.163 Y126.602 E15.36675
G1 X121.163 Y127.774 E15.38746
G1 X119.962 Y128.972 E15.41746
G1 X119.023 Y128.251 E15.43840
G1 X117.366 Y126.091 E15.48654
G1 X116.323 Y123.578 E15.53466
G1 X115.968 Y120.862 E15.58309
G1 X115.968 Y107.651 E15.81671
G1 X103.268 Y107.651 E16.04130
G1 X103.268 Y103.389 E16.11667
G1 X149.520 Y103.389 E16.93460
G1 X149.520 Y107.651 E17.00997
G1 X136.820 Y107.651 E17.23456
G1 X136.820 Y120.862 E17.46818
G1 X136.465 Y123.578 E17.51661
G1 X135.451 Y126.022 E17.56340
G1 X135.423 Y126.091 E17.56473
G1 X134.923 Y126.069 F7800.000
G1 X120.068 Y127.678
G1 X119.618 Y127.678 F1500.000 E17.57529
G1 X119.109 Y127.014 E17.59491
G1 X120.388 Y127.014 E17.62491
G1 X120.002 Y126.351 E17.64291
G1 X118.600 Y126.351 E17.67581
G1 X118.091 Y125.688 E17.69542
G1 X119.546 Y125.688 E17.72957
G1 X118.252 Y125.076 F7800.000
G1 X117.802 Y125.076 F600.000 E17.73753
G1 X133.170 Y127.678 F7800.000
G1 X132.720 Y127.678 F1500.000 E17.74809
G1 X132.400 Y127.014 E17.76537
G1 X133.679 Y127.014 E17.79537
G1 X134.188 Y126.351 E17.81499
G1 X132.786 Y126.351 E17.84788
G1 X133.242 Y125.688 E17.86677
G1 X134.697 Y125.688 E17.90091
G1 X134.986 Y125.076 F7800.000
G1 X134.536 Y125.076 F600.000 E17.90887
G1 X135.231 Y124.485 F7800.000
G1 X134.781 Y124.485 F1500.000 E17.91687
G1 X134.536 Y123.983 E17.92680
G1 X135.440 Y123.983 E17.94286
G1 X135.648 Y123.480 E17.95253
G1 X134.536 Y123.480 E17.97229
G1 X134.536 Y122.978 E17.98122
G1 X135.760 Y122.978 E18.00297
G1 X135.826 Y122.475 E18.01197
G1 X134.536 Y122.475 E18.03489
G1 X134.536 Y121.973 E18.04382
G1 X135.892 Y121.973 E18.06791
G1 X135.957 Y121.471 E18.07691
G1 X134.536 Y121.471 E18.10217
G1 X134.536 Y120.968 E18.11110
G1 X136.023 Y120.968 E18.13752
G1 X136.045 Y120.466 E18.14646
G1 X134.478 Y120.466 E18.17430
G1 X134.378 Y119.963 E18.18340
G1 X136.045 Y119.963 E18.21303
G1 X136.045 Y119.461 E18.22195
G1 X134.278 Y119.461 E18.25336
G1 X134.251 Y118.959 E18.26230
G1 X136.045 Y118.959 E18.29418
G1 X136.045 Y118.456 E18.30311
G1 X134.251 Y118.456 E18.33499
G1 X134.251 Y117.954 E18.34391
G1 X136.045 Y117.954 E18.37579
G1 X136.045 Y117.451 E18.38472
G1 X134.251 Y117.451 E18.41660
G1 X134.251 Y116.949 E18.42553
G1 X136.045 Y116.949 E18.45741
G1 X136.045 Y116.447 E18.46634
G1 X134.251 Y116.447 E18.49822
G1 X134.251 Y115.944 E18.50714
G1 X136.045 Y115.944 E18.53903
G1 X136.045 Y115.442 E18.54795
G1 X134.251 Y115.442 E18.57983
G1 X134.251 Y114.939 E18.58876
G1 X136.045 Y114.939 E18.62064
G1 X136.045 Y114.437 E18.62957
G1 X134.251 Y114.437 E18.66145
G1 X134.251 Y113.935 E18.67038
G1 X136.045 Y113.935 E18.70226
G1 X136.045 Y113.432 E18.71118
G1 X134.251 Y113.432 E18.74306
G1 X134.251 Y112.930 E18.75199
G1 X136.045 Y112.930 E18.78387
G1 X136.045 Y112.427 E18.79280
G1 X134.251 Y112.427 E18.82468
G1 X134.251 Y111.925 E18.83361
G1 X136.045 Y111.925 E18.86549
G1 X136.045 Y111.423 E18.87442
G1 X134.251 Y111.423 E18.90630
G1 X136.045 Y110.920 E18.93940
G1 X116.743 Y110.920 E19.28239
G1 X116.743 Y110.418 E19.29132
G1 X136.045 Y110.418 E19.63430
G1 X136.045 Y109.915 E19.64323
G1 X116.743 Y109.915 E19.98622
G1 X116.743 Y109.413 E19.99514
G1 X136.045 Y109.413 E20.33813
G1 X136.045 Y108.910 E20.34706
G1 X116.743 Y108.910 E20.69004
G1 X116.743 Y108.408 E20.69897
G1 X136.045 Y108.408 E21.04196
G1 X136.045 Y107.906 E21.05088
G1 X116.743 Y107.906 E21.39387
G1 X116.743 Y107.403 E21.40280
G1 X136.045 Y107.403 E21.74578
G1 X136.045 Y106.901 E21.75471
G1 X116.743 Y106.901 E22.09770
G1 X116.743 Y111.423 F7800.000
G1 X118.537 Y111.423 F1500.000 E22.12958
G1 X118.537 Y111.925 E22.13850
G1 X116.743 Y111.925 E22.17038
G1 X116.743 Y112.427 E22.17931
G1 X118.537 Y112.427 E22.21119
G1 X118.537 Y112.930 E22.22012
G1 X116.743 Y112.930 E22.25200
G1 X116.743 Y113.432 E22.26093
G1 X118.537 Y113.432 E22.29281
G1 X118.537 Y113.935 E22.30173
G1 X116.743 Y113.935 E22.33362
G1 X116.743 Y114.437 E22.34254
G1 X118.537 Y114.437 E22.37442
G1 X118.537 Y114.939 E22.38335
G1 X116.743 Y114.939 E22.41523
G1 X116.743 Y115.442 E22.42416
G1 X118.537 Y115.442 E22.45604
G1 X118.537 Y115.944 E22.46497
G1 X116.743 Y115.944 E22.49685
G1 X116.743 Y116.447 E22.50577
G1 X118.537 Y116.447 E22.53765
G1 X118.537 Y116.949 E22.54658
G1 X116.743 Y116.949 E22.57846
G1 X116.743 Y117.451 E22.58739
G1 X118.537 Y117.451 E22.61927
G1 X118.537 Y117.954 E22.62820
G1 X116.743 Y117.954 E22.66008
G1 X116.743 Y118.456 E22.66901
G1 X118.537 Y118.456 E22.70089
G1 X118.537 Y118.959 E22.70981
G1 X116.743 Y118.959 E22.74169
G1 X116.743 Y119.461 E22.75062
G1 X118.510 Y119.461 E22.78202
G1 X118.410 Y119.963 E22.79112
G1 X116.743 Y119.963 E22.82075
G1 X116.743 Y120.466 E22.82968
G1 X118.310 Y120.466 E22.85752
G1 X118.252 Y120.968 E22.86651
G1 X116.765 Y120.968 E22.89293
G1 X116.831 Y121.471 E22.90193
G1 X118.252 Y121.471 E22.92719
G1 X118.252 Y121.973 E22.93611
G1 X116.897 Y121.973 E22.96020
G1 X116.962 Y122.475 E22.96920
G1 X118.252 Y122.475 E22.99212
G1 X118.252 Y122.978 E23.00105
G1 X117.028 Y122.978 E23.02280
G1 X117.140 Y123.480 E23.03195
G1 X118.252 Y123.480 E23.05171
G1 X118.252 Y123.983 E23.06064
G1 X117.348 Y123.983 E23.07670
G1 X117.557 Y124.485 E23.08636
G1 X118.007 Y124.485 E23.09437
G1 X121.726 Y115.442 F7800.000
G1 X131.063 Y115.442 F1500.000 E23.26027
G1 X131.063 Y114.939 E23.26920
G1 X121.726 Y114.939 E23.43511
G1 X121.726 Y114.437 E23.44403
G1 X131.063 Y114.437 E23.60994
G1 X131.063 Y113.935 E23.61887
G1 X121.726 Y113.935 E23.78477
G1 X121.726 Y113.432 E23.79370
G1 X131.063 Y113.432 E23.95960
G1 X131.063 Y112.930 E23.96853
G1 X121.726 Y112.930 E24.13444
G1 X121.726 Y112.427 E24.14336
G1 X131.063 Y112.427 E24.30927
G1 X131.063 Y111.925 E24.31820
G1 X121.726 Y111.925 E24.48410
G1 X121.726 Y111.423 E24.49303
G1 X131.063 Y111.423 E24.65893
G1 X148.745 Y106.398 F7800.000
G1 X104.043 Y106.398 F1500.000 E25.45325
G1 X104.043 Y105.896 E25.46217
G1 X148.745 Y105.896 E26.25648
G1 X148.745 Y105.394 E26.26541
G1 X104.043 Y105.394 E27.05972
G1 X104.043 Y104.891 E27.06865
G1 X148.745 Y104.891 E27.86296
G1 X148.745 Y104.389 E27.87189
G1 X104.043 Y104.389 E28.66620
G1 X51.101 Y92.849 F7800.000
G1 X63.801 Y92.849 F900.000 E28.89078
G1 X63.801 Y79.170 E29.13266
G1 X64.144 Y76.552 E29.17935
G1 X65.136 Y74.161 E29.22514
G1 X66.713 Y72.105 E29.27096
G1 X67.252 Y71.691 E29.28298
G1 X67.996 Y72.434 E29.30157
G1 X67.996 Y73.243 E29.31587
G1 X66.918 Y74.812 E29.34955
G1 X65.860 Y74.812 E29.36825
G1 X65.860 Y79.196 E29.44576
G1 X66.145 Y80.625 E29.47153
G1 X66.145 Y88.414 E29.60927
G1 X68.784 Y88.414 E29.65593
G1 X68.784 Y83.915 E29.73549
G1 X78.671 Y83.915 E29.91033
G1 X78.671 Y88.414 E29.98988
G1 X81.310 Y88.414 E30.03655
G1 X81.310 Y80.625 E30.17428
G1 X81.594 Y79.196 E30.20006
G1 X81.594 Y74.812 E30.27757
G1 X80.537 Y74.812 E30.29627
G1 X79.459 Y73.243 E30.32995
G1 X79.459 Y72.434 E30.34425
G1 X80.203 Y71.691 E30.36284
G1 X80.742 Y72.105 E30.37486
G1 X82.319 Y74.161 E30.42068
G1 X83.311 Y76.552 E30.46646
G1 X83.654 Y79.170 E30.51315
G1 X83.654 Y92.849 E30.75503
G1 X96.354 Y92.849 E30.97962
G1 X96.354 Y96.111 E31.03731
G1 X51.101 Y96.111 E31.83755
G1 X51.101 Y92.924 E31.89392
G1 X51.101 Y92.849 E31.89525
G1 X50.601 Y92.349 F7800.000
G1 X63.301 Y92.349 F900.000 E32.11983
G1 X63.301 Y79.138 E32.35345
G1 X63.656 Y76.422 E32.40188
G1 X64.699 Y73.909 E32.45000
G1 X66.356 Y71.749 E32.49814
G1 X67.295 Y71.028 E32.51908
G1 X68.496 Y72.226 E32.54908
G1 X68.496 Y73.398 E32.56980
G1 X67.181 Y75.312 E32.61087
G1 X66.360 Y75.312 E32.62538
G1 X66.360 Y79.146 E32.69318
G1 X66.645 Y80.576 E32.71895
G1 X66.645 Y87.914 E32.84872
G1 X68.284 Y87.914 E32.87770
G1 X68.284 Y83.415 E32.95726
G1 X79.171 Y83.415 E33.14978
G1 X79.171 Y87.914 E33.22933
G1 X80.810 Y87.914 E33.25832
G1 X80.810 Y80.576 E33.38808
G1 X81.094 Y79.146 E33.41386
G1 X81.094 Y75.312 E33.48165
G1 X80.274 Y75.312 E33.49616
G1 X78.959 Y73.398 E33.53724
G1 X78.959 Y72.226 E33.55795
G1 X80.160 Y71.028 E33.58796
G1 X81.099 Y71.749 E33.60889
G1 X82.756 Y73.909 E33.65703
G1 X83.798 Y76.422 E33.70515
G1 X84.154 Y79.138 E33.75358
G1 X84.154 Y92.349 E33.98720
G1 X96.854 Y92.349 E34.21179
G1 X96.854 Y96.611 E34.28716
G1 X50.601 Y96.611 E35.10509
G1 X50.601 Y92.424 E35.17914
G1 X50.601 Y92.349 E35.18046
G1 X51.034 Y92.599 F7800.000
G1 X51.376 Y93.601
G1 X96.079 Y93.601 F1500.000 E35.97477
G1 X96.079 Y94.104 E35.98370
G1 X51.376 Y94.104 E36.77801
G1 X51.376 Y94.606 E36.78694
G1 X96.079 Y94.606 E37.58125
G1 X96.079 Y95.109 E37.59018
G1 X51.376 Y95.109 E38.38449
