; generated by Slic3r 0.9.8 on 2013-05-22 at 13:06:44

; layer_height = .25
; perimeters = 1
; top_solid_layers = 4
; bottom_solid_layers = 4
; fill_density = .9
; perimeter_speed = 30
; infill_speed = 40
; travel_speed = 130
; scale = 1
; nozzle_diameter = 0.5
; filament_diameter = 3
; extrusion_multiplier = 1
; perimeters extrusion width = 0.80mm
; infill extrusion width = 0.80mm
; first layer extrusion width = 0.50mm

M107
M104 S210 ; set temperature
G28 ; home all axes
M109 S210 ; wait for temperature to be reached
G90 ; use absolute coordinates
G21 ; set units to millimeters
G92 E0
M82 ; use absolute distances for extrusion
G1 Z0.250 F7800.000
G1 X112.454 Y114.449
G1 X111.934 Y114.939 F900.000 E0.01264
G1 X110.714 Y115.899 E0.04009
G1 X110.004 Y116.389 E0.05534
G1 X109.494 Y116.659 E0.06555
G1 X108.964 Y116.889 E0.07576
G1 X108.144 Y117.159 E0.09103
G1 X107.284 Y117.319 E0.10650
G1 X107.004 Y117.349 E0.11148
G1 X106.424 Y117.369 E0.12174
G1 X93.564 Y117.369 E0.34916
G1 X92.984 Y117.349 E0.35942
G1 X92.704 Y117.319 E0.36440
G1 X91.844 Y117.159 E0.37987
G1 X91.574 Y117.079 E0.38485
G1 X90.754 Y116.779 E0.40029
G1 X90.234 Y116.529 E0.41049
G1 X89.984 Y116.389 E0.41556
G1 X89.274 Y115.899 E0.43082
G1 X88.054 Y114.939 E0.45827
G1 X87.534 Y114.449 E0.47090
G1 X87.074 Y113.909 E0.48345
G1 X85.194 Y111.449 E0.53820
G1 X84.814 Y110.819 E0.55121
G1 X84.644 Y110.499 E0.55762
G1 X84.494 Y110.159 E0.56419
G1 X83.454 Y107.649 E0.61224
G1 X83.324 Y107.309 E0.61867
G1 X83.114 Y106.609 E0.63160
G1 X82.984 Y105.889 E0.64453
G1 X82.624 Y103.179 E0.69288
G1 X82.564 Y102.259 E0.70918
G1 X82.564 Y89.539 E0.93412
G1 X82.584 Y88.989 E0.94385
G1 X82.694 Y88.169 E0.95848
G1 X82.754 Y87.909 E0.96320
G1 X82.904 Y87.379 E0.97294
G1 X83.094 Y86.859 E0.98273
G1 X83.324 Y86.359 E0.99247
G1 X83.594 Y85.879 E1.00221
G1 X84.064 Y85.209 E1.01668
G1 X84.244 Y84.989 E1.02170
G1 X84.614 Y84.589 E1.03134
G1 X85.234 Y84.039 E1.04600
G1 X85.904 Y83.569 E1.06047
G1 X86.634 Y83.179 E1.07511
G1 X87.404 Y82.879 E1.08972
G1 X88.194 Y82.669 E1.10417
G1 X89.014 Y82.559 E1.11881
G1 X89.564 Y82.539 E1.12854
G1 X110.424 Y82.539 E1.49742
G1 X110.974 Y82.559 E1.50716
G1 X111.794 Y82.669 E1.52179
G1 X112.324 Y82.799 E1.53144
G1 X112.844 Y82.969 E1.54111
G1 X113.354 Y83.179 E1.55087
G1 X113.844 Y83.429 E1.56059
G1 X114.314 Y83.719 E1.57036
G1 X114.974 Y84.219 E1.58500
G1 X115.374 Y84.589 E1.59464
G1 X115.744 Y84.989 E1.60427
G1 X116.244 Y85.649 E1.61892
G1 X116.534 Y86.119 E1.62868
G1 X116.784 Y86.609 E1.63841
G1 X116.994 Y87.119 E1.64816
G1 X117.164 Y87.639 E1.65784
G1 X117.294 Y88.169 E1.66749
G1 X117.404 Y88.989 E1.68212
G1 X117.424 Y89.539 E1.69185
G1 X117.424 Y102.259 E1.91679
G1 X117.364 Y103.179 E1.93309
G1 X117.004 Y105.889 E1.98144
G1 X116.874 Y106.609 E1.99438
G1 X116.664 Y107.309 E2.00730
G1 X116.534 Y107.649 E2.01374
G1 X115.494 Y110.159 E2.06178
G1 X115.344 Y110.499 E2.06835
G1 X115.174 Y110.819 E2.07476
G1 X114.794 Y111.449 E2.08777
G1 X112.914 Y113.909 E2.14252
G1 X112.504 Y114.393 E2.15374
G1 X112.454 Y114.449 E2.15507
G1 X112.084 Y114.109 F7800.000
G1 X111.854 Y114.339 F900.000 E2.16082
G1 X111.354 Y114.769 E2.17248
G1 X110.414 Y115.499 E2.19353
G1 X109.704 Y115.979 E2.20869
G1 X109.194 Y116.249 E2.21889
G1 X108.664 Y116.469 E2.22904
G1 X107.844 Y116.709 E2.24415
G1 X107.284 Y116.809 E2.25421
G1 X106.424 Y116.869 E2.26945
G1 X93.564 Y116.869 E2.49687
G1 X92.994 Y116.839 E2.50696
G1 X92.424 Y116.769 E2.51712
G1 X91.864 Y116.639 E2.52728
G1 X91.324 Y116.469 E2.53729
G1 X90.794 Y116.249 E2.54744
G1 X90.284 Y115.979 E2.55765
G1 X89.804 Y115.669 E2.56775
G1 X88.634 Y114.769 E2.59385
G1 X88.134 Y114.339 E2.60552
G1 X87.904 Y114.109 E2.61127
G1 X87.674 Y113.859 E2.61728
G1 X85.814 Y111.439 E2.67125
G1 X85.424 Y110.879 E2.68332
G1 X85.094 Y110.279 E2.69543
G1 X83.794 Y107.139 E2.75553
G1 X83.694 Y106.819 E2.76145
G1 X83.534 Y106.159 E2.77346
G1 X83.124 Y103.119 E2.82771
G1 X83.064 Y102.259 E2.84295
G1 X83.064 Y89.539 E3.06789
G1 X83.084 Y89.019 E3.07710
G1 X83.144 Y88.499 E3.08635
G1 X83.254 Y87.979 E3.09575
G1 X83.394 Y87.479 E3.10493
G1 X83.584 Y86.989 E3.11423
G1 X83.804 Y86.519 E3.12340
G1 X83.934 Y86.289 E3.12808
G1 X84.364 Y85.639 E3.14186
G1 X84.694 Y85.229 E3.15117
G1 X85.254 Y84.669 E3.16517
G1 X85.664 Y84.339 E3.17448
G1 X86.314 Y83.909 E3.18826
G1 X86.544 Y83.779 E3.19293
G1 X87.014 Y83.559 E3.20211
G1 X87.504 Y83.369 E3.21140
G1 X88.264 Y83.169 E3.22530
G1 X88.524 Y83.119 E3.22998
G1 X89.044 Y83.059 E3.23924
G1 X89.564 Y83.039 E3.24844
G1 X110.424 Y83.039 E3.61733
G1 X110.944 Y83.059 E3.62653
G1 X111.464 Y83.119 E3.63579
G1 X111.984 Y83.229 E3.64518
G1 X112.484 Y83.369 E3.65437
G1 X113.214 Y83.669 E3.66832
G1 X113.674 Y83.909 E3.67750
G1 X114.324 Y84.339 E3.69128
G1 X114.734 Y84.669 E3.70059
G1 X115.114 Y85.039 E3.70997
G1 X115.294 Y85.229 E3.71460
G1 X115.774 Y85.849 E3.72846
G1 X116.184 Y86.519 E3.74235
G1 X116.404 Y86.989 E3.75153
G1 X116.594 Y87.479 E3.76082
G1 X116.734 Y87.979 E3.77000
G1 X116.844 Y88.499 E3.77940
G1 X116.904 Y89.019 E3.78866
G1 X116.924 Y89.539 E3.79786
G1 X116.924 Y102.259 E4.02280
G1 X116.864 Y103.119 E4.03805
G1 X116.454 Y106.159 E4.09229
G1 X116.294 Y106.819 E4.10430
G1 X116.194 Y107.139 E4.11023
G1 X114.894 Y110.279 E4.17033
G1 X114.564 Y110.879 E4.18244
G1 X114.174 Y111.439 E4.19451
G1 X112.314 Y113.859 E4.24848
G1 X112.135 Y114.054 E4.25316
G1 X112.084 Y114.109 E4.25449
G1 X107.015 Y109.292 F7800.000
G1 X106.476 Y109.706 F900.000 E4.26651
G1 X105.731 Y108.964 E4.28510
G1 X105.731 Y108.155 E4.29940
G1 X106.810 Y106.585 E4.33308
G1 X107.867 Y106.585 E4.35178
G1 X107.867 Y102.202 E4.42929
G1 X107.582 Y100.772 E4.45506
G1 X107.582 Y92.984 E4.59280
G1 X104.943 Y92.984 E4.63946
G1 X104.943 Y97.483 E4.71902
G1 X95.057 Y97.483 E4.89386
G1 X95.057 Y92.984 E4.97341
G1 X92.418 Y92.984 E5.02008
G1 X92.418 Y100.772 E5.15782
G1 X92.133 Y102.202 E5.18359
G1 X92.133 Y106.585 E5.26110
G1 X93.190 Y106.585 E5.27980
G1 X94.269 Y108.155 E5.31348
G1 X94.269 Y108.964 E5.32778
G1 X93.524 Y109.706 E5.34637
G1 X92.985 Y109.292 E5.35839
G1 X91.408 Y107.236 E5.40421
G1 X90.416 Y104.845 E5.44999
G1 X90.074 Y102.227 E5.49668
G1 X90.074 Y90.049 E5.71204
G1 X109.926 Y90.049 E6.06311
G1 X109.926 Y102.227 E6.27847
G1 X109.584 Y104.845 E6.32516
G1 X108.592 Y107.236 E6.37094
G1 X107.060 Y109.233 E6.41543
G1 X107.015 Y109.292 E6.41676
G1 X107.371 Y109.649 F7800.000
G1 X106.432 Y110.369 F900.000 E6.43769
G1 X105.231 Y109.171 E6.46770
G1 X105.231 Y108.000 E6.48841
G1 X106.546 Y106.085 E6.52948
G1 X107.367 Y106.085 E6.54399
G1 X107.367 Y102.251 E6.61179
G1 X107.082 Y100.822 E6.63757
G1 X107.082 Y93.484 E6.76733
G1 X105.443 Y93.484 E6.79631
G1 X105.443 Y97.983 E6.87587
G1 X94.557 Y97.983 E7.06839
G1 X94.557 Y93.484 E7.14795
G1 X92.918 Y93.484 E7.17693
G1 X92.918 Y100.822 E7.30670
G1 X92.633 Y102.251 E7.33247
G1 X92.633 Y106.085 E7.40027
G1 X93.454 Y106.085 E7.41478
G1 X94.769 Y108.000 E7.45585
G1 X94.769 Y109.171 E7.47657
G1 X93.568 Y110.369 E7.50657
G1 X92.629 Y109.649 E7.52750
G1 X90.972 Y107.489 E7.57565
G1 X89.929 Y104.975 E7.62376
G1 X89.574 Y102.260 E7.67220
G1 X89.574 Y89.549 E7.89697
G1 X110.426 Y89.549 E8.26573
G1 X110.426 Y102.260 E8.49050
G1 X110.071 Y104.975 E8.53894
G1 X109.028 Y107.489 E8.58705
G1 X107.417 Y109.589 E8.63387
G1 X107.371 Y109.649 E8.63520
G1 X106.895 Y109.498 F7800.000
G1 X93.674 Y109.075
G1 X93.224 Y109.075 F1500.000 E8.64576
G1 X92.715 Y108.412 E8.66538
G1 X93.994 Y108.412 E8.69538
G1 X93.608 Y107.748 E8.71338
G1 X92.206 Y107.748 E8.74628
G1 X91.697 Y107.085 E8.76589
G1 X93.152 Y107.085 E8.80003
G1 X91.858 Y106.473 F7800.000
G1 X91.408 Y106.473 F600.000 E8.80799
G1 X106.776 Y109.075 F7800.000
G1 X106.326 Y109.075 F1500.000 E8.81856
G1 X106.006 Y108.412 E8.83583
G1 X107.285 Y108.412 E8.86584
G1 X107.794 Y107.748 E8.88545
G1 X106.392 Y107.748 E8.91835
G1 X106.848 Y107.085 E8.93723
G1 X108.303 Y107.085 E8.97138
G1 X108.592 Y106.473 F7800.000
G1 X108.142 Y106.473 F600.000 E8.97933
G1 X108.837 Y105.882 F7800.000
G1 X108.387 Y105.882 F1500.000 E8.98748
G1 X108.142 Y105.371 E8.99772
G1 X109.049 Y105.371 E9.01413
G1 X109.261 Y104.860 E9.02413
G1 X108.142 Y104.860 E9.04437
G1 X108.142 Y104.349 E9.05360
G1 X109.370 Y104.349 E9.07580
G1 X109.436 Y103.838 E9.08512
G1 X108.142 Y103.838 E9.10852
G1 X108.142 Y103.327 E9.11776
G1 X109.503 Y103.327 E9.14237
G1 X109.570 Y102.816 E9.15169
G1 X108.142 Y102.816 E9.17750
G1 X108.142 Y102.305 E9.18674
G1 X109.637 Y102.305 E9.21377
G1 X109.651 Y101.793 E9.22301
G1 X108.070 Y101.793 E9.25159
G1 X107.969 Y101.282 E9.26101
G1 X109.651 Y101.282 E9.29143
G1 X109.651 Y100.771 E9.30067
G1 X107.867 Y100.771 E9.33293
G1 X107.857 Y100.260 E9.34217
G1 X109.651 Y100.260 E9.37460
G1 X109.651 Y99.749 E9.38384
G1 X107.857 Y99.749 E9.41627
G1 X107.857 Y99.238 E9.42551
G1 X109.651 Y99.238 E9.45795
G1 X109.651 Y98.727 E9.46718
G1 X107.857 Y98.727 E9.49962
G1 X107.857 Y98.216 E9.50886
G1 X109.651 Y98.216 E9.54129
G1 X109.651 Y97.704 E9.55053
G1 X107.857 Y97.704 E9.58296
G1 X107.857 Y97.193 E9.59220
G1 X109.651 Y97.193 E9.62463
G1 X109.651 Y96.682 E9.63387
G1 X107.857 Y96.682 E9.66630
G1 X107.857 Y96.171 E9.67554
G1 X109.651 Y96.171 E9.70798
G1 X109.651 Y95.660 E9.71721
G1 X107.857 Y95.660 E9.74965
G1 X107.857 Y95.149 E9.75889
G1 X109.651 Y95.149 E9.79132
G1 X109.651 Y94.638 E9.80056
G1 X107.857 Y94.638 E9.83299
G1 X107.857 Y94.127 E9.84223
G1 X109.651 Y94.127 E9.87466
G1 X109.651 Y93.616 E9.88390
G1 X107.857 Y93.616 E9.91633
G1 X107.857 Y93.104 E9.92557
G1 X109.651 Y93.104 E9.95801
G1 X109.651 Y92.593 E9.96724
G1 X107.857 Y92.593 E9.99968
G1 X109.651 Y92.082 E10.03340
G1 X90.349 Y92.082 E10.38233
G1 X90.349 Y91.571 E10.39157
G1 X109.651 Y91.571 E10.74051
G1 X109.651 Y91.060 E10.74975
G1 X90.349 Y91.060 E11.09868
G1 X90.349 Y90.549 E11.10792
G1 X109.651 Y90.549 E11.45685
G1 X104.668 Y92.593 F7800.000
G1 X95.332 Y92.593 F1500.000 E11.62564
G1 X95.332 Y93.104 E11.63488
G1 X104.668 Y93.104 E11.80366
G1 X104.668 Y93.616 E11.81290
G1 X95.332 Y93.616 E11.98168
G1 X95.332 Y94.127 E11.99092
G1 X104.668 Y94.127 E12.15971
G1 X104.668 Y94.638 E12.16895
G1 X95.332 Y94.638 E12.33773
G1 X95.332 Y95.149 E12.34697
G1 X104.668 Y95.149 E12.51575
G1 X104.668 Y95.660 E12.52499
G1 X95.332 Y95.660 E12.69378
G1 X95.332 Y96.171 E12.70302
G1 X104.668 Y96.171 E12.87180
G1 X104.668 Y96.682 E12.88104
G1 X95.332 Y96.682 E13.04983
G1 X92.143 Y96.682 F7800.000
G1 X90.349 Y96.682 F1500.000 E13.08226
G1 X90.349 Y97.193 E13.09150
G1 X92.143 Y97.193 E13.12393
G1 X92.143 Y97.704 E13.13317
G1 X90.349 Y97.704 E13.16560
G1 X90.349 Y98.216 E13.17484
G1 X92.143 Y98.216 E13.20727
G1 X92.143 Y98.727 E13.21651
G1 X90.349 Y98.727 E13.24894
G1 X90.349 Y99.238 E13.25818
G1 X92.143 Y99.238 E13.29061
G1 X92.143 Y99.749 E13.29985
G1 X90.349 Y99.749 E13.33228
G1 X90.349 Y100.260 E13.34152
G1 X92.143 Y100.260 E13.37396
G1 X92.133 Y100.771 E13.38320
G1 X90.349 Y100.771 E13.41546
G1 X90.349 Y101.282 E13.42470
G1 X92.031 Y101.282 E13.45511
G1 X91.930 Y101.793 E13.46454
G1 X90.349 Y101.793 E13.49311
G1 X90.363 Y102.305 E13.50236
G1 X91.858 Y102.305 E13.52938
G1 X91.858 Y102.816 E13.53862
G1 X90.430 Y102.816 E13.56444
G1 X90.497 Y103.327 E13.57376
G1 X91.858 Y103.327 E13.59837
G1 X91.858 Y103.838 E13.60761
G1 X90.564 Y103.838 E13.63101
G1 X90.630 Y104.349 E13.64032
G1 X91.858 Y104.349 E13.66252
G1 X91.858 Y104.860 E13.67176
G1 X90.739 Y104.860 E13.69199
G1 X90.951 Y105.371 E13.70199
G1 X91.858 Y105.371 E13.71840
G1 X91.613 Y105.882 E13.72864
G1 X91.163 Y105.882 E13.73679
G1 X90.349 Y96.171 F7800.000
G1 X92.143 Y96.171 F1500.000 E13.76922
G1 X92.143 Y95.660 E13.77846
G1 X90.349 Y95.660 E13.81089
G1 X90.349 Y95.149 E13.82013
G1 X92.143 Y95.149 E13.85256
G1 X92.143 Y94.638 E13.86180
G1 X90.349 Y94.638 E13.89423
G1 X90.349 Y94.127 E13.90347
G1 X92.143 Y94.127 E13.93590
G1 X92.143 Y93.616 E13.94514
G1 X90.349 Y93.616 E13.97758
G1 X90.349 Y93.104 E13.98681
G1 X92.143 Y93.104 E14.01925
G1 X92.143 Y92.593 E14.02849
G1 X90.349 Y92.593 E14.06092
M106 S255
G1 Z0.500 F7800.000
G1 X92.768 Y93.334
G1 X92.768 Y100.807 F1024.245 E14.25819
G1 X92.483 Y102.236 E14.29666
G1 X92.483 Y106.235 E14.40221
G1 X93.375 Y106.235 E14.42575
G1 X94.619 Y108.046 E14.48374
G1 X94.619 Y109.109 E14.51179
G1 X93.555 Y110.170 E14.55147
G1 X92.736 Y109.542 E14.57873
G1 X91.103 Y107.413 E14.64955
G1 X90.075 Y104.936 E14.72033
G1 X89.724 Y102.250 E14.79185
G1 X89.724 Y89.699 E15.12315
G1 X110.276 Y89.699 E15.66567
G1 X110.276 Y102.250 E15.99697
G1 X109.925 Y104.936 E16.06849
G1 X108.897 Y107.413 E16.13926
G1 X107.264 Y109.542 E16.21009
G1 X106.445 Y110.170 E16.23735
G1 X105.381 Y109.109 E16.27702
G1 X105.381 Y108.046 E16.30507
G1 X106.625 Y106.235 E16.36307
G1 X107.517 Y106.235 E16.38660
G1 X107.517 Y102.236 E16.49216
G1 X107.232 Y100.807 E16.53063
G1 X107.232 Y93.334 E16.72790
G1 X105.293 Y93.334 E16.77908
G1 X105.293 Y97.833 E16.89784
G1 X94.707 Y97.833 E17.17729
G1 X94.707 Y93.334 E17.29604
G1 X92.880 Y93.334 E17.34427
G1 X92.768 Y93.334 E17.34722
G1 X91.712 Y107.317 F7800.000
G1 X91.712 Y106.646 F1707.074 E17.37289
G1 X92.792 Y106.646 E17.41415
G1 X92.792 Y108.725 E17.49359
G1 X93.872 Y109.135 E17.53772
G1 X93.872 Y107.942 E17.58331
G1 X106.128 Y107.942 F7800.000
G1 X106.128 Y109.135 F1707.074 E17.62889
G1 X107.208 Y108.725 E17.67301
G1 X107.208 Y106.646 E17.75246
G1 X108.288 Y107.317 E17.80105
G1 X108.288 Y106.646 E17.82671
G1 X108.768 Y106.115 F7800.000
G1 X108.768 Y90.109 F1707.074 E18.25828
G1 X108.005 Y90.109 E18.27884
G1 X108.005 Y101.203 E18.57796
G1 X109.530 Y102.538 F7800.000
G1 X109.530 Y90.109 F1707.074 E18.91309
G1 X107.243 Y90.109 F7800.000
G1 X107.243 Y92.923 F1707.074 E18.98897
G1 X106.480 Y92.923 E19.00952
G1 X106.480 Y90.109 E19.08540
G1 X105.718 Y90.109 E19.10596
G1 X105.718 Y92.923 E19.18184
G1 X104.956 Y92.923 E19.20239
G1 X104.956 Y90.109 E19.27827
G1 X104.193 Y90.109 E19.29883
G1 X104.193 Y97.422 E19.49601
G1 X103.431 Y90.109 F7800.000
G1 X103.431 Y97.422 F1707.074 E19.69319
G1 X102.668 Y97.422 E19.71375
G1 X102.668 Y90.109 E19.91094
G1 X101.906 Y90.109 E19.93149
G1 X101.906 Y97.422 E20.12868
G1 X101.144 Y97.422 E20.14923
G1 X101.144 Y90.109 E20.34642
G1 X100.381 Y90.109 E20.36697
G1 X100.381 Y97.422 E20.56416
G1 X99.619 Y97.422 E20.58471
G1 X99.619 Y90.109 E20.78190
G1 X98.856 Y90.109 E20.80245
G1 X98.856 Y97.422 E20.99964
G1 X98.094 Y97.422 E21.02019
G1 X98.094 Y90.109 E21.21738
G1 X97.332 Y90.109 E21.23794
G1 X97.332 Y97.422 E21.43512
G1 X96.569 Y97.422 E21.45568
G1 X96.569 Y90.109 E21.65286
G1 X95.807 Y90.109 E21.67342
G1 X95.807 Y97.422 E21.87060
G1 X95.044 Y92.923 F7800.000
G1 X95.044 Y90.109 F1707.074 E21.94648
G1 X94.282 Y90.109 E21.96704
G1 X94.282 Y92.923 E22.04291
G1 X93.520 Y92.923 E22.06347
G1 X93.520 Y90.109 E22.13935
G1 X92.757 Y90.109 E22.15990
G1 X92.757 Y92.923 E22.23578
G1 X91.995 Y90.109 E22.31440
G1 X91.995 Y101.203 E22.61352
G1 X90.470 Y102.538 F7800.000
G1 X90.470 Y90.109 F1707.074 E22.94864
G1 X91.232 Y90.109 E22.96920
G1 X91.232 Y106.115 E23.40076
G1 Z0.750 F7800.000
G1 X92.483 Y106.235
G1 X93.375 Y106.235 F1074.514 E23.42430
G1 X94.619 Y108.046 E23.48230
G1 X94.619 Y109.109 E23.51035
G1 X93.555 Y110.170 E23.55002
G1 X92.736 Y109.542 E23.57728
G1 X91.103 Y107.413 E23.64810
G1 X90.075 Y104.936 E23.71888
G1 X89.724 Y102.250 E23.79040
G1 X89.724 Y89.699 E24.12170
G1 X110.276 Y89.699 E24.66422
G1 X110.276 Y102.250 E24.99552
G1 X109.925 Y104.936 E25.06704
G1 X108.897 Y107.413 E25.13782
G1 X107.264 Y109.542 E25.20864
G1 X106.445 Y110.170 E25.23590
G1 X105.381 Y109.109 E25.27557
G1 X105.381 Y108.046 E25.30362
