; generated by Slic3r 0.9.8 on 2013-07-04 at 21:52:00

; layer_height = .25
; perimeters = 1
; top_solid_layers = 4
; bottom_solid_layers = 4
; fill_density = .9
; perimeter_speed = 30
; infill_speed = 40
; travel_speed = 130
; scale = 1
; nozzle_diameter = 0.5
; filament_diameter = 3
; extrusion_multiplier = 1
; perimeters extrusion width = 0.80mm
; infill extrusion width = 0.80mm
; first layer extrusion width = 0.50mm

M107
M104 S220 ; set temperature
G28 ; home all axes
M109 S220 ; wait for temperature to be reached
G90 ; use absolute coordinates
G21 ; set units to millimeters
G92 E0
M82 ; use absolute distances for extrusion
G1 Z0.250 F7800.000
G1 X112.981 Y118.362
G1 X112.431 Y118.982 F900.000 E0.01466
G1 X112.031 Y119.352 E0.02429
G1 X111.371 Y119.852 E0.03893
G1 X110.901 Y120.142 E0.04870
G1 X110.161 Y120.502 E0.06325
G1 X109.641 Y120.692 E0.07304
G1 X108.851 Y120.902 E0.08750
G1 X108.301 Y120.982 E0.09733
G1 X108.031 Y121.012 E0.10213
G1 X107.481 Y121.032 E0.11186
G1 X92.501 Y121.032 E0.37677
G1 X91.951 Y121.012 E0.38650
G1 X91.681 Y120.982 E0.39130
G1 X91.131 Y120.902 E0.40113
G1 X90.871 Y120.842 E0.40585
G1 X90.081 Y120.602 E0.42045
G1 X89.321 Y120.272 E0.43510
G1 X88.611 Y119.852 E0.44969
G1 X87.951 Y119.352 E0.46434
G1 X87.551 Y118.982 E0.47397
G1 X87.181 Y118.582 E0.48361
G1 X86.681 Y117.922 E0.49825
G1 X86.391 Y117.452 E0.50802
G1 X86.141 Y116.962 E0.51774
G1 X85.931 Y116.452 E0.52750
G1 X85.761 Y115.932 E0.53717
G1 X85.631 Y115.402 E0.54682
G1 X85.551 Y114.852 E0.55665
G1 X85.521 Y114.582 E0.56145
G1 X85.501 Y114.032 E0.57119
G1 X85.501 Y85.952 E1.06775
G1 X85.521 Y85.402 E1.07748
G1 X85.631 Y84.582 E1.09211
G1 X85.761 Y84.052 E1.10176
G1 X85.931 Y83.532 E1.11144
G1 X86.261 Y82.772 E1.12609
G1 X86.681 Y82.062 E1.14068
G1 X87.181 Y81.402 E1.15532
G1 X87.551 Y81.002 E1.16496
G1 X87.951 Y80.632 E1.17459
G1 X88.611 Y80.132 E1.18923
G1 X89.321 Y79.712 E1.20382
G1 X90.081 Y79.382 E1.21847
G1 X90.871 Y79.142 E1.23307
G1 X91.131 Y79.082 E1.23779
G1 X91.681 Y79.002 E1.24762
G1 X91.951 Y78.972 E1.25243
G1 X92.501 Y78.952 E1.26216
G1 X107.481 Y78.952 E1.52706
G1 X108.031 Y78.972 E1.53680
G1 X108.851 Y79.082 E1.55143
G1 X109.381 Y79.212 E1.56108
G1 X110.161 Y79.482 E1.57567
G1 X110.661 Y79.712 E1.58541
G1 X111.371 Y80.132 E1.59999
G1 X112.031 Y80.632 E1.61464
G1 X112.431 Y81.002 E1.62427
G1 X112.801 Y81.402 E1.63391
G1 X113.301 Y82.062 E1.64855
G1 X113.721 Y82.772 E1.66314
G1 X114.051 Y83.532 E1.67779
G1 X114.221 Y84.052 E1.68746
G1 X114.351 Y84.582 E1.69711
G1 X114.461 Y85.402 E1.71174
G1 X114.481 Y85.952 E1.72148
G1 X114.481 Y114.032 E2.21804
G1 X114.461 Y114.582 E2.22777
G1 X114.351 Y115.402 E2.24240
G1 X114.141 Y116.192 E2.25686
G1 X113.951 Y116.712 E2.26665
G1 X113.721 Y117.212 E2.27638
G1 X113.451 Y117.692 E2.28612
G1 X113.025 Y118.302 E2.29927
G1 X112.981 Y118.362 E2.30059
G1 X112.511 Y118.142 F7800.000
G1 X112.351 Y118.342 F900.000 E2.30512
G1 X111.791 Y118.902 E2.31913
G1 X111.381 Y119.232 E2.32844
G1 X110.731 Y119.662 E2.34222
G1 X110.501 Y119.792 E2.34689
G1 X110.031 Y120.012 E2.35607
G1 X109.541 Y120.202 E2.36536
G1 X109.041 Y120.342 E2.37454
G1 X108.521 Y120.452 E2.38394
G1 X108.001 Y120.512 E2.39320
G1 X107.481 Y120.532 E2.40240
G1 X92.501 Y120.532 E2.66731
G1 X91.981 Y120.512 E2.67651
G1 X91.461 Y120.452 E2.68576
G1 X90.941 Y120.342 E2.69516
G1 X90.441 Y120.202 E2.70435
G1 X90.201 Y120.112 E2.70888
G1 X89.481 Y119.792 E2.72281
G1 X88.811 Y119.382 E2.73670
G1 X88.191 Y118.902 E2.75057
G1 X87.631 Y118.342 E2.76457
G1 X87.151 Y117.722 E2.77844
G1 X86.741 Y117.052 E2.79233
G1 X86.521 Y116.582 E2.80151
G1 X86.331 Y116.092 E2.81080
G1 X86.191 Y115.592 E2.81998
G1 X86.081 Y115.072 E2.82938
G1 X86.021 Y114.552 E2.83864
G1 X86.001 Y114.032 E2.84784
G1 X86.001 Y85.952 E3.34440
G1 X86.021 Y85.432 E3.35361
G1 X86.081 Y84.912 E3.36286
G1 X86.191 Y84.392 E3.37226
G1 X86.331 Y83.892 E3.38144
G1 X86.421 Y83.652 E3.38598
G1 X86.631 Y83.162 E3.39540
G1 X86.871 Y82.702 E3.40458
G1 X87.301 Y82.052 E3.41836
G1 X87.631 Y81.642 E3.42767
G1 X88.191 Y81.082 E3.44167
G1 X88.601 Y80.752 E3.45098
G1 X88.811 Y80.602 E3.45554
G1 X89.481 Y80.192 E3.46943
G1 X89.951 Y79.972 E3.47861
G1 X90.441 Y79.782 E3.48790
G1 X91.201 Y79.582 E3.50180
G1 X91.461 Y79.532 E3.50648
G1 X91.981 Y79.472 E3.51574
G1 X92.501 Y79.452 E3.52494
G1 X107.481 Y79.452 E3.78985
G1 X108.001 Y79.472 E3.79905
G1 X108.521 Y79.532 E3.80831
G1 X109.041 Y79.642 E3.81771
G1 X109.541 Y79.782 E3.82689
G1 X109.781 Y79.872 E3.83142
G1 X110.501 Y80.192 E3.84535
G1 X111.171 Y80.602 E3.85924
G1 X111.791 Y81.082 E3.87311
G1 X112.351 Y81.642 E3.88712
G1 X112.831 Y82.262 E3.90098
G1 X113.241 Y82.932 E3.91487
G1 X113.461 Y83.402 E3.92405
G1 X113.651 Y83.892 E3.93334
G1 X113.791 Y84.392 E3.94252
G1 X113.901 Y84.912 E3.95192
G1 X113.961 Y85.432 E3.96118
G1 X113.981 Y85.952 E3.97038
G1 X113.981 Y114.032 E4.46695
G1 X113.961 Y114.552 E4.47615
G1 X113.901 Y115.072 E4.48540
G1 X113.791 Y115.592 E4.49480
G1 X113.651 Y116.092 E4.50399
G1 X113.461 Y116.582 E4.51328
G1 X113.241 Y117.052 E4.52246
G1 X112.831 Y117.722 E4.53635
G1 X112.558 Y118.084 E4.54436
G1 X112.511 Y118.142 E4.54569
G1 X105.108 Y114.037 F7800.000
G1 X104.417 Y114.037 F300.000 E4.55791
G1 X104.404 Y108.211 E4.66095
G1 X105.108 Y108.118 E4.67350
G1 X105.108 Y113.962 E4.77686
G1 X105.108 Y114.037 E4.77818
G1 X102.727 Y114.037 F7800.000
G1 X102.036 Y114.037 F900.000 E4.79039
G1 X102.036 Y85.962 E5.28687
G1 X102.727 Y85.962 E5.29908
G1 X102.727 Y113.962 E5.79423
G1 X102.727 Y114.037 E5.79556
G1 X106.798 Y114.037 F7800.000
G1 X106.798 Y85.962 F900.000 E6.29203
G1 X107.489 Y85.962 E6.30425
G1 X107.489 Y114.037 E6.80072
G1 X106.873 Y114.037 E6.81161
G1 X106.798 Y114.037 E6.81293
G1 X105.108 Y104.582 F7800.000
G1 X104.403 Y104.489 F300.000 E6.82550
G1 X104.403 Y95.511 E6.98427
G1 X105.108 Y95.418 E6.99684
G1 X105.108 Y104.507 E7.15757
G1 X105.108 Y104.582 E7.15889
G1 X105.108 Y91.882 F7800.000
G1 X104.404 Y91.789 F300.000 E7.17145
G1 X104.417 Y85.962 E7.27449
G1 X105.108 Y85.962 E7.28671
G1 X105.108 Y91.807 E7.39006
G1 X105.108 Y91.882 E7.39139
G1 X97.213 Y93.174 F7800.000
G1 X97.276 Y93.650 F300.000 E7.39988
G1 X97.213 Y94.126 E7.40838
G1 X97.029 Y94.570 E7.41687
G1 X96.737 Y94.951 E7.42536
G1 X96.356 Y95.243 E7.43385
G1 X95.912 Y95.427 E7.44235
G1 X95.436 Y95.490 E7.45084
G1 X94.960 Y95.427 E7.45933
G1 X94.516 Y95.243 E7.46782
G1 X94.135 Y94.951 E7.47632
G1 X93.843 Y94.570 E7.48481
G1 X93.659 Y94.126 E7.49330
G1 X93.596 Y93.650 E7.50179
G1 X93.659 Y93.174 E7.51029
G1 X93.843 Y92.730 E7.51878
G1 X94.135 Y92.349 E7.52727
G1 X94.516 Y92.057 E7.53576
G1 X94.960 Y91.873 E7.54426
G1 X95.436 Y91.810 E7.55275
G1 X95.912 Y91.873 E7.56124
G1 X96.356 Y92.057 E7.56974
G1 X96.737 Y92.349 E7.57823
G1 X97.029 Y92.730 E7.58672
G1 X97.184 Y93.105 E7.59389
G1 X97.213 Y93.174 E7.59521
G1 X97.690 Y93.324 F7800.000
G1 X97.740 Y94.465
G1 X97.861 Y94.506 F300.000 E7.59748
G1 X97.861 Y96.075 E7.62522
G1 X96.292 Y96.075 E7.65296
G1 X96.251 Y95.954 E7.65522
G1 X97.093 Y95.307 E7.67400
G1 X97.694 Y94.525 E7.69145
G1 X97.740 Y94.465 E7.69278
G1 X94.621 Y95.954 F7800.000
G1 X94.580 Y96.075 F300.000 E7.69504
G1 X93.011 Y96.075 E7.72279
G1 X93.011 Y94.506 E7.75053
G1 X93.132 Y94.465 E7.75279
G1 X93.778 Y95.307 E7.77157
G1 X94.561 Y95.908 E7.78902
G1 X94.621 Y95.954 E7.79035
G1 X93.132 Y92.835 F7800.000
G1 X93.011 Y92.794 F300.000 E7.79261
G1 X93.011 Y86.462 E7.90457
G1 X97.861 Y86.462 E7.99034
G1 X97.861 Y92.794 E8.10230
G1 X97.740 Y92.835 E8.10456
G1 X97.093 Y91.993 E8.12334
G1 X96.608 Y91.620 E8.13416
G1 X96.043 Y91.386 E8.14498
G1 X95.436 Y91.306 E8.15580
G1 X94.829 Y91.386 E8.16662
G1 X94.264 Y91.620 E8.17744
G1 X93.778 Y91.993 E8.18826
G1 X93.178 Y92.775 E8.20572
G1 X93.132 Y92.835 E8.20704
G1 X92.511 Y96.575 F7800.000
G1 X92.511 Y85.962 F300.000 E8.39471
G1 X98.361 Y85.962 E8.49816
G1 X98.361 Y96.575 E8.68583
G1 X92.586 Y96.575 E8.78796
G1 X92.511 Y96.575 E8.78928
G1 X92.761 Y96.142 F7800.000
G1 X94.960 Y104.573
G1 X95.436 Y104.510 F300.000 E8.79778
G1 X95.912 Y104.573 E8.80627
G1 X96.356 Y104.757 E8.81476
G1 X96.737 Y105.049 E8.82325
G1 X97.029 Y105.430 E8.83175
G1 X97.213 Y105.874 E8.84024
G1 X97.276 Y106.350 E8.84873
G1 X97.213 Y106.826 E8.85722
G1 X97.029 Y107.270 E8.86572
G1 X96.737 Y107.651 E8.87421
G1 X96.356 Y107.943 E8.88270
G1 X95.912 Y108.127 E8.89120
G1 X95.436 Y108.190 E8.89969
G1 X94.960 Y108.127 E8.90818
G1 X94.516 Y107.943 E8.91667
G1 X94.135 Y107.651 E8.92517
G1 X93.843 Y107.270 E8.93366
G1 X93.659 Y106.826 E8.94215
G1 X93.596 Y106.350 E8.95064
G1 X93.659 Y105.874 E8.95914
G1 X93.843 Y105.430 E8.96763
G1 X94.135 Y105.049 E8.97612
G1 X94.516 Y104.757 E8.98461
G1 X94.891 Y104.602 E8.99178
G1 X94.960 Y104.573 E8.99311
G1 X95.110 Y104.096 F7800.000
G1 X93.132 Y107.165
G1 X93.779 Y108.007 F300.000 E9.01188
G1 X94.264 Y108.380 E9.02270
G1 X94.829 Y108.614 E9.03353
G1 X95.436 Y108.694 E9.04435
G1 X96.043 Y108.614 E9.05517
G1 X96.608 Y108.380 E9.06599
G1 X97.093 Y108.007 E9.07681
G1 X97.740 Y107.165 E9.09559
G1 X97.861 Y107.206 E9.09785
G1 X97.861 Y113.537 E9.20981
G1 X93.011 Y113.537 E9.29558
G1 X93.011 Y107.206 E9.40754
G1 X93.061 Y107.189 E9.40848
G1 X93.132 Y107.165 E9.40980
G1 X96.251 Y104.046 F7800.000
G1 X96.292 Y103.925 F300.000 E9.41207
G1 X97.861 Y103.925 E9.43981
G1 X97.861 Y105.494 E9.46755
G1 X97.740 Y105.535 E9.46982
G1 X97.093 Y104.693 E9.48859
G1 X96.310 Y104.092 E9.50604
G1 X96.251 Y104.046 E9.50737
G1 X94.621 Y104.046 F7800.000
G1 X93.778 Y104.693 F300.000 E9.52615
G1 X93.132 Y105.535 E9.54492
G1 X93.011 Y105.494 E9.54719
G1 X93.011 Y103.925 E9.57493
G1 X94.580 Y103.925 E9.60267
G1 X94.597 Y103.975 E9.60361
G1 X94.621 Y104.046 E9.60494
G1 X92.511 Y103.425 F7800.000
G1 X98.361 Y103.425 F300.000 E9.70839
G1 X98.361 Y114.037 E9.89606
G1 X92.511 Y114.037 E9.99951
G1 X92.511 Y103.500 E10.18585
G1 X92.511 Y103.425 E10.18718
G1 X92.944 Y103.675 F7800.000
G1 X93.736 Y108.432
G1 X93.286 Y108.432 F1500.000 E10.19532
G1 X93.286 Y108.944 E10.20459
G1 X94.544 Y108.944 E10.22736
G1 X97.586 Y108.432 F7800.000
G1 X97.136 Y108.432 F1500.000 E10.23551
G1 X96.327 Y108.944 E10.25282
G1 X97.586 Y108.944 E10.27560
G1 X97.586 Y109.456 E10.28486
G1 X93.286 Y109.456 E10.36268
G1 X93.286 Y109.967 E10.37194
G1 X97.586 Y109.967 E10.44976
G1 X97.586 Y110.479 E10.45902
G1 X93.286 Y110.479 E10.53684
G1 X93.286 Y110.991 E10.54610
G1 X97.586 Y110.991 E10.62392
G1 X97.586 Y111.502 E10.63318
G1 X93.286 Y111.502 E10.71100
G1 X93.286 Y112.014 E10.72026
G1 X97.586 Y112.014 E10.79808
G1 X97.586 Y112.526 E10.80734
G1 X93.286 Y112.526 E10.88516
G1 X93.286 Y113.038 E10.89442
G1 X97.586 Y113.038 E10.97224
G1 X98.086 Y106.678 F7800.000
G1 X97.636 Y106.678 F600.000 E10.98269
G1 X97.636 Y106.022 E10.99792
G1 X98.086 Y106.022 E11.00838
G1 X97.623 Y104.588 F7800.000
G1 X97.349 Y104.588 F600.000 E11.01132
G1 X95.949 Y104.044 F7800.000
G1 X95.498 Y104.044 F600.000 E11.01929
G1 X95.374 Y104.044 F7800.000
G1 X94.923 Y104.044 F600.000 E11.02726
G1 X93.523 Y104.588 F7800.000
G1 X93.249 Y104.588 F600.000 E11.03020
G1 X93.236 Y106.678 F7800.000
G1 X92.786 Y106.678 F600.000 E11.04065
G1 X92.786 Y106.022 E11.05588
G1 X93.236 Y106.022 E11.06634
G1 X95.989 Y96.075 F7800.000
G1 X94.883 Y96.075 F600.000 E11.08590
G1 X97.623 Y95.700 F7800.000
G1 X97.061 Y95.700 F600.000 E11.09193
G1 X98.086 Y93.978 F7800.000
G1 X97.636 Y93.978 F600.000 E11.10238
G1 X97.636 Y93.322 E11.11762
G1 X98.086 Y93.322 E11.12807
G1 X97.586 Y91.568 F7800.000
G1 X97.136 Y91.568 F1500.000 E11.13622
G1 X97.586 Y91.056 E11.14855
G1 X96.327 Y91.056 E11.17133
G1 X97.586 Y90.544 E11.19592
G1 X93.286 Y90.544 E11.27373
G1 X93.286 Y90.033 E11.28299
G1 X97.586 Y90.033 E11.36081
G1 X97.586 Y89.521 E11.37007
G1 X93.286 Y89.521 E11.44789
G1 X93.286 Y89.009 E11.45715
G1 X97.586 Y89.009 E11.53497
G1 X97.586 Y88.498 E11.54423
G1 X93.286 Y88.498 E11.62205
G1 X93.286 Y87.986 E11.63131
G1 X97.586 Y87.986 E11.70912
G1 X97.586 Y87.474 E11.71838
G1 X93.286 Y87.474 E11.79620
G1 X93.286 Y86.962 E11.80546
G1 X97.586 Y86.962 E11.88328
G1 X94.545 Y91.056 F7800.000
G1 X93.286 Y91.056 F1500.000 E11.90606
G1 X93.286 Y91.568 E11.91532
G1 X93.736 Y91.568 E11.92346
G1 X93.236 Y93.978 F7800.000
G1 X92.786 Y93.978 F600.000 E11.93392
G1 X92.786 Y93.322 E11.94915
G1 X93.236 Y93.322 E11.95960
G1 X93.811 Y95.700 F7800.000
G1 X93.249 Y95.700 F600.000 E11.96563
M106 S243
G1 Z0.500 F7800.000
G1 X94.921 Y104.427
G1 X95.436 Y104.359 F600.000 E11.97935
G1 X95.951 Y104.427 E11.99307
G1 X96.431 Y104.626 E12.00679
G1 X96.844 Y104.942 E12.02051
G1 X97.160 Y105.355 E12.03423
G1 X97.359 Y105.835 E12.04795
G1 X97.427 Y106.350 E12.06167
G1 X97.359 Y106.865 E12.07539
G1 X97.160 Y107.345 E12.08911
G1 X96.844 Y107.758 E12.10283
G1 X96.431 Y108.074 E12.11654
G1 X95.951 Y108.273 E12.13026
G1 X95.436 Y108.341 E12.14398
G1 X94.921 Y108.273 E12.15770
G1 X94.440 Y108.074 E12.17142
G1 X94.028 Y107.758 E12.18514
G1 X93.712 Y107.345 E12.19886
G1 X93.513 Y106.865 E12.21258
G1 X93.445 Y106.350 E12.22630
G1 X93.513 Y105.835 E12.24002
G1 X93.712 Y105.355 E12.25374
G1 X94.028 Y104.942 E12.26746
G1 X94.440 Y104.626 E12.28118
G1 X94.817 Y104.470 E12.29194
G1 X94.921 Y104.427 E12.29490
G1 X95.145 Y103.715 F7800.000
G1 X92.661 Y103.575
G1 X98.211 Y103.575 F600.000 E12.44140
G1 X98.211 Y113.887 E12.71362
G1 X92.661 Y113.887 E12.86012
G1 X92.661 Y103.687 E13.12938
G1 X92.661 Y103.575 E13.13233
G1 X94.921 Y95.573 F7800.000
G1 X94.440 Y95.374 F600.000 E13.14605
G1 X94.028 Y95.058 E13.15977
G1 X93.712 Y94.645 E13.17349
G1 X93.513 Y94.165 E13.18721
G1 X93.445 Y93.650 E13.20093
G1 X93.513 Y93.135 E13.21465
G1 X93.712 Y92.655 E13.22837
G1 X94.028 Y92.242 E13.24209
G1 X94.440 Y91.926 E13.25581
G1 X94.921 Y91.727 E13.26953
G1 X95.436 Y91.659 E13.28325
G1 X95.951 Y91.727 E13.29697
G1 X96.431 Y91.926 E13.31069
G1 X96.844 Y92.242 E13.32441
G1 X97.160 Y92.655 E13.33813
G1 X97.359 Y93.135 E13.35185
G1 X97.427 Y93.650 E13.36557
G1 X97.359 Y94.165 E13.37929
G1 X97.160 Y94.645 E13.39300
G1 X96.844 Y95.058 E13.40672
G1 X96.431 Y95.374 E13.42044
G1 X95.951 Y95.573 E13.43416
G1 X95.436 Y95.641 E13.44788
G1 X95.032 Y95.588 E13.45865
G1 X94.921 Y95.573 E13.46160
G1 X94.370 Y96.077 F7800.000
G1 X92.661 Y96.425
G1 X92.661 Y86.112 F600.000 E13.73382
G1 X98.211 Y86.112 E13.88032
G1 X98.211 Y96.425 E14.15254
G1 X92.773 Y96.425 E14.29608
G1 X92.661 Y96.425 E14.29904
G1 X107.144 Y111.311 F7800.000
G1 X107.144 Y86.308 F600.000 E14.95904
G1 X104.784 Y86.292 F7800.000
G1 X104.773 Y86.297 F600.000 E14.95935
G1 X104.650 Y86.218 F7800.000
G1 X104.773 Y86.297 F600.000 E14.96321
G1 X104.772 Y91.310 E15.09554
G1 X104.426 Y91.810 E15.11158
G1 X104.746 Y91.478 F7800.000
G1 X104.984 Y91.696 F600.000 E15.12011
G1 X105.147 Y91.971 E15.12855
G1 X105.149 Y95.332 F7800.000
G1 X104.967 Y95.622 F600.000 E15.13758
G1 X104.748 Y95.820 E15.14537
G1 X104.427 Y95.487 F7800.000
G1 X104.770 Y96.020 F600.000 E15.16210
G1 X104.751 Y101.156 E15.29768
G1 X104.743 Y103.468 E15.35871
G1 X104.647 Y104.239 E15.37920
G1 X104.427 Y104.512 E15.38849
G1 X104.748 Y104.180 F7800.000
G1 X105.149 Y104.668 F600.000 E15.40516
G1 X105.147 Y108.029 F7800.000
G1 X104.984 Y108.304 F600.000 E15.41360
G1 X104.756 Y108.513 E15.42177
G1 X104.428 Y108.179 F7800.000
G1 X104.756 Y108.513 F600.000 E15.43412
G1 X104.758 Y113.688 E15.57073
G1 X104.762 Y113.697 E15.57101
G1 X104.784 Y113.708 E15.57165
G1 X107.144 Y113.692 F7800.000
G1 X107.144 Y113.295 F600.000 E15.58212
G1 X107.144 Y111.311 E15.63451
G1 X102.381 Y111.311 F7800.000
G1 X102.381 Y86.308 F600.000 E16.29451
G1 X102.381 Y111.311 F7800.000
