; generated by Slic3r 0.9.8 on 2013-07-07 at 11:40:08

; layer_height = .25
; perimeters = 1
; top_solid_layers = 4
; bottom_solid_layers = 4
; fill_density = .9
; perimeter_speed = 30
; infill_speed = 40
; travel_speed = 130
; scale = 1
; nozzle_diameter = 0.5
; filament_diameter = 3
; extrusion_multiplier = 1
; perimeters extrusion width = 0.80mm
; infill extrusion width = 0.80mm
; first layer extrusion width = 0.50mm

M107
M104 S220 ; set temperature
G28 ; home all axes
M109 S220 ; wait for temperature to be reached
G90 ; use absolute coordinates
G21 ; set units to millimeters
G92 E0
M82 ; use absolute distances for extrusion
G1 Z0.250 F7800.000
G1 X114.391 Y110.005
G1 X113.951 Y110.325 F900.000 E0.00962
G1 X113.481 Y110.615 E0.01939
G1 X112.991 Y110.865 E0.02912
G1 X112.481 Y111.075 E0.03887
G1 X111.961 Y111.245 E0.04854
G1 X111.431 Y111.375 E0.05819
G1 X110.611 Y111.485 E0.07282
G1 X110.061 Y111.505 E0.08256
G1 X89.931 Y111.505 E0.43853
G1 X89.381 Y111.485 E0.44827
G1 X88.561 Y111.375 E0.46290
G1 X88.031 Y111.245 E0.47255
G1 X87.511 Y111.075 E0.48222
G1 X86.751 Y110.745 E0.49687
G1 X86.041 Y110.325 E0.51146
G1 X85.381 Y109.825 E0.52610
G1 X84.981 Y109.455 E0.53574
G1 X84.611 Y109.055 E0.54537
G1 X84.111 Y108.395 E0.56002
G1 X83.691 Y107.685 E0.57461
G1 X83.361 Y106.925 E0.58926
G1 X83.121 Y106.135 E0.60386
G1 X83.061 Y105.875 E0.60858
G1 X82.981 Y105.325 E0.61841
G1 X82.951 Y105.055 E0.62321
G1 X82.931 Y104.505 E0.63294
G1 X82.931 Y95.485 E0.79245
G1 X82.951 Y94.935 E0.80218
G1 X83.061 Y94.115 E0.81681
G1 X83.191 Y93.585 E0.82646
G1 X83.461 Y92.805 E0.84106
G1 X83.691 Y92.305 E0.85079
G1 X83.961 Y91.825 E0.86053
G1 X84.431 Y91.155 E0.87500
G1 X84.611 Y90.935 E0.88003
G1 X84.981 Y90.535 E0.88967
G1 X85.381 Y90.165 E0.89930
G1 X85.601 Y89.985 E0.90433
G1 X86.271 Y89.515 E0.91880
G1 X86.751 Y89.245 E0.92854
G1 X87.511 Y88.915 E0.94319
G1 X88.031 Y88.745 E0.95287
G1 X88.561 Y88.615 E0.96252
G1 X89.381 Y88.505 E0.97715
G1 X89.931 Y88.485 E0.98688
G1 X110.061 Y88.485 E1.34286
G1 X110.611 Y88.505 E1.35259
G1 X111.431 Y88.615 E1.36722
G1 X111.961 Y88.745 E1.37687
G1 X112.481 Y88.915 E1.38655
G1 X113.241 Y89.245 E1.40120
G1 X113.951 Y89.665 E1.41579
G1 X114.611 Y90.165 E1.43043
G1 X115.011 Y90.535 E1.44006
G1 X115.381 Y90.935 E1.44970
G1 X115.881 Y91.595 E1.46434
G1 X116.301 Y92.305 E1.47893
G1 X116.631 Y93.065 E1.49358
G1 X116.871 Y93.855 E1.50818
G1 X116.931 Y94.115 E1.51290
G1 X117.011 Y94.665 E1.52273
G1 X117.041 Y94.935 E1.52753
G1 X117.061 Y95.485 E1.53727
G1 X117.061 Y104.505 E1.69677
G1 X117.041 Y105.055 E1.70651
G1 X116.931 Y105.875 E1.72114
G1 X116.801 Y106.405 E1.73079
G1 X116.531 Y107.185 E1.74538
G1 X116.301 Y107.685 E1.75512
G1 X116.031 Y108.165 E1.76486
G1 X115.561 Y108.835 E1.77933
G1 X115.381 Y109.055 E1.78436
G1 X115.011 Y109.455 E1.79399
G1 X114.449 Y109.957 E1.80732
G1 X114.391 Y110.005 E1.80865
G1 X114.171 Y109.535 F7800.000
G1 X113.751 Y109.855 F900.000 E1.81799
G1 X113.081 Y110.265 E1.83188
G1 X112.611 Y110.485 E1.84105
G1 X112.121 Y110.675 E1.85035
G1 X111.621 Y110.815 E1.85953
G1 X111.101 Y110.925 E1.86893
G1 X110.581 Y110.985 E1.87819
G1 X110.061 Y111.005 E1.88739
G1 X89.931 Y111.005 E2.24336
G1 X89.411 Y110.985 E2.25257
G1 X88.891 Y110.925 E2.26182
G1 X88.631 Y110.875 E2.26651
G1 X87.871 Y110.675 E2.28040
G1 X87.381 Y110.485 E2.28970
G1 X86.911 Y110.265 E2.29887
G1 X86.241 Y109.855 E2.31276
G1 X85.621 Y109.375 E2.32663
G1 X85.061 Y108.815 E2.34063
G1 X84.581 Y108.195 E2.35450
G1 X84.171 Y107.525 E2.36839
G1 X83.851 Y106.805 E2.38232
G1 X83.761 Y106.565 E2.38686
G1 X83.621 Y106.065 E2.39604
G1 X83.511 Y105.545 E2.40544
G1 X83.451 Y105.025 E2.41469
G1 X83.431 Y104.505 E2.42390
G1 X83.431 Y95.485 E2.58341
G1 X83.451 Y94.965 E2.59261
G1 X83.511 Y94.445 E2.60186
G1 X83.621 Y93.925 E2.61126
G1 X83.761 Y93.425 E2.62045
G1 X83.951 Y92.935 E2.62974
G1 X84.171 Y92.465 E2.63892
G1 X84.301 Y92.235 E2.64359
G1 X84.731 Y91.585 E2.65737
G1 X85.061 Y91.175 E2.66668
G1 X85.621 Y90.615 E2.68068
G1 X86.031 Y90.285 E2.68999
G1 X86.241 Y90.135 E2.69455
G1 X86.911 Y89.725 E2.70844
G1 X87.381 Y89.505 E2.71762
G1 X87.871 Y89.315 E2.72691
G1 X88.371 Y89.175 E2.73610
G1 X88.891 Y89.065 E2.74550
G1 X89.411 Y89.005 E2.75475
G1 X89.931 Y88.985 E2.76395
G1 X110.061 Y88.985 E3.11993
G1 X110.581 Y89.005 E3.12913
G1 X111.101 Y89.065 E3.13839
G1 X111.361 Y89.115 E3.14307
G1 X112.121 Y89.315 E3.15697
G1 X112.611 Y89.505 E3.16626
G1 X113.081 Y89.725 E3.17544
G1 X113.751 Y90.135 E3.18933
G1 X114.371 Y90.615 E3.20320
G1 X114.931 Y91.175 E3.21720
G1 X115.411 Y91.795 E3.23107
G1 X115.821 Y92.465 E3.24496
G1 X116.141 Y93.185 E3.25889
G1 X116.231 Y93.425 E3.26342
G1 X116.371 Y93.925 E3.27261
G1 X116.481 Y94.445 E3.28201
G1 X116.541 Y94.965 E3.29126
G1 X116.561 Y95.485 E3.30046
G1 X116.561 Y104.505 E3.45997
G1 X116.541 Y105.025 E3.46918
G1 X116.481 Y105.545 E3.47843
G1 X116.371 Y106.065 E3.48783
G1 X116.231 Y106.565 E3.49701
G1 X116.041 Y107.055 E3.50631
G1 X115.821 Y107.525 E3.51548
G1 X115.691 Y107.755 E3.52016
G1 X115.261 Y108.405 E3.53394
G1 X114.931 Y108.815 E3.54324
G1 X114.561 Y109.195 E3.55262
G1 X114.229 Y109.488 E3.56045
G1 X114.171 Y109.535 E3.56178
G1 X94.199 Y100.773 F7800.000
G1 X93.953 Y101.094 F300.000 E3.56893
G1 X93.632 Y101.340 E3.57609
G1 X93.258 Y101.495 E3.58324
G1 X92.856 Y101.548 E3.59040
G1 X92.455 Y101.495 E3.59756
G1 X92.081 Y101.340 E3.60471
G1 X91.760 Y101.094 E3.61187
G1 X91.514 Y100.773 E3.61903
G1 X91.359 Y100.399 E3.62618
G1 X91.306 Y99.998 E3.63334
G1 X91.359 Y99.597 E3.64050
G1 X91.514 Y99.223 E3.64765
G1 X91.760 Y98.902 E3.65481
G1 X92.081 Y98.655 E3.66197
G1 X92.455 Y98.501 E3.66912
G1 X92.856 Y98.448 E3.67628
G1 X93.258 Y98.500 E3.68344
G1 X93.631 Y98.655 E3.69059
G1 X93.952 Y98.902 E3.69775
G1 X94.199 Y99.223 E3.70490
G1 X94.354 Y99.597 E3.71206
G1 X94.407 Y99.998 E3.71922
G1 X94.354 Y100.399 E3.72637
G1 X94.228 Y100.704 E3.73220
G1 X94.199 Y100.773 E3.73353
G1 X93.762 Y100.521 F7800.000
G1 X93.596 Y100.737 F300.000 E3.73836
G1 X93.379 Y100.904 E3.74319
G1 X93.127 Y101.008 E3.74802
G1 X92.856 Y101.044 E3.75284
G1 X92.586 Y101.008 E3.75767
G1 X92.333 Y100.904 E3.76250
G1 X92.117 Y100.737 E3.76733
G1 X91.951 Y100.521 E3.77216
G1 X91.846 Y100.269 E3.77699
G1 X91.810 Y99.998 E3.78181
G1 X91.846 Y99.727 E3.78664
G1 X91.951 Y99.475 E3.79147
G1 X92.117 Y99.258 E3.79630
G1 X92.333 Y99.092 E3.80113
G1 X92.586 Y98.988 E3.80596
G1 X92.856 Y98.952 E3.81078
G1 X93.127 Y98.988 E3.81561
G1 X93.379 Y99.092 E3.82044
G1 X93.448 Y99.145 E3.82198
G1 X93.596 Y99.258 E3.82527
G1 X93.762 Y99.475 E3.83010
G1 X93.867 Y99.727 E3.83493
G1 X93.902 Y99.998 E3.83975
G1 X93.867 Y100.269 E3.84458
G1 X93.791 Y100.452 E3.84808
G1 X93.762 Y100.521 E3.84941
G1 X93.993 Y100.964 F7800.000
G1 X90.432 Y104.011
G1 X90.431 Y95.986 F900.000 E3.99132
G1 X109.569 Y95.985 E4.32975
G1 X109.569 Y104.010 E4.47166
G1 X90.507 Y104.011 E4.80876
G1 X90.432 Y104.011 E4.81009
G1 X89.932 Y104.511 F7800.000
G1 X89.931 Y95.486 F900.000 E4.96968
G1 X110.069 Y95.485 E5.32579
G1 X110.069 Y104.510 E5.48539
G1 X90.007 Y104.511 E5.84017
G1 X89.932 Y104.511 E5.84150
G1 X90.182 Y104.078 F7800.000
G1 X92.954 Y103.511
G1 X90.706 Y103.511 F1500.000 E5.88140
G1 X90.706 Y103.009 E5.89030
G1 X109.294 Y103.009 E6.22022
G1 X109.294 Y102.507 E6.22913
G1 X90.706 Y102.507 E6.55905
G1 X90.706 Y102.005 E6.56796
G1 X92.724 Y102.005 E6.60377
G1 X92.989 Y102.005 F7800.000
G1 X109.294 Y102.005 F1500.000 E6.89319
G1 X109.294 Y101.503 E6.90210
G1 X94.015 Y101.503 E7.17329
G1 X94.420 Y101.002 E7.18474
G1 X109.294 Y101.002 E7.44874
G1 X109.294 Y100.500 E7.45765
G1 X94.620 Y100.500 E7.71811
G1 X94.686 Y99.998 E7.72709
G1 X109.294 Y99.998 E7.98638
G1 X109.294 Y99.496 E7.99529
G1 X94.620 Y99.496 E8.25575
G1 X94.420 Y98.994 E8.26533
G1 X109.294 Y98.994 E8.52933
G1 X109.294 Y98.492 E8.53824
G1 X94.015 Y98.492 E8.80943
G1 X92.988 Y97.990 E8.82972
G1 X109.294 Y97.990 E9.11913
G1 X109.294 Y97.489 E9.12804
G1 X90.706 Y97.489 E9.45796
G1 X90.706 Y97.990 E9.46687
G1 X92.724 Y97.990 E9.50269
G1 X91.698 Y98.492 E9.52298
G1 X90.706 Y98.492 E9.54057
G1 X90.802 Y98.994 E9.54964
G1 X91.284 Y98.994 E9.55820
G1 X91.284 Y101.002 F7800.000
G1 X90.803 Y101.002 F1500.000 E9.56675
G1 X90.706 Y101.503 E9.57582
G1 X91.698 Y101.503 E9.59341
G1 X90.706 Y96.987 F7800.000
G1 X109.294 Y96.987 F1500.000 E9.92333
G1 X109.294 Y96.485 E9.93224
G1 X107.062 Y96.485 E9.97185
G1 X90.943 Y100.681 F7800.000
G1 X90.670 Y100.681 F600.000 E9.97515
G1 X90.670 Y100.339 E9.97927
G1 X91.110 Y100.339 E9.98459
G1 X91.065 Y99.998 E9.98874
G1 X90.670 Y99.998 E9.99351
G1 X90.670 Y99.657 E9.99764
G1 X91.110 Y99.657 E10.00295
G1 X90.943 Y99.315 E10.00753
G1 X90.670 Y99.315 E10.01084
M106 S255
G1 Z0.500 F7800.000
G1 X91.700 Y99.688
G1 X91.820 Y99.399 F600.000 E10.01909
G1 X92.010 Y99.151 E10.02734
G1 X92.258 Y98.961 E10.03559
G1 X92.546 Y98.842 E10.04384
G1 X92.856 Y98.801 E10.05209
G1 X93.166 Y98.842 E10.06034
G1 X93.455 Y98.961 E10.06859
G1 X93.537 Y99.024 E10.07133
G1 X93.703 Y99.151 E10.07684
G1 X93.893 Y99.399 E10.08509
G1 X94.013 Y99.688 E10.09334
G1 X94.054 Y99.998 E10.10159
G1 X94.013 Y100.308 E10.10983
G1 X93.893 Y100.597 E10.11808
G1 X93.703 Y100.844 E10.12633
G1 X93.455 Y101.035 E10.13458
G1 X93.166 Y101.154 E10.14283
G1 X92.856 Y101.195 E10.15108
G1 X92.547 Y101.154 E10.15933
G1 X92.258 Y101.035 E10.16758
G1 X92.010 Y100.845 E10.17583
G1 X91.820 Y100.597 E10.18408
G1 X91.700 Y100.308 E10.19233
G1 X91.659 Y99.998 E10.20058
G1 X91.685 Y99.799 E10.20588
G1 X91.700 Y99.688 E10.20883
G1 X91.196 Y99.138 F7800.000
G1 X90.081 Y95.636
G1 X109.919 Y95.635 F788.933 E10.73248
G1 X109.919 Y104.360 E10.96279
G1 X90.082 Y104.361 E11.48644
G1 X90.081 Y95.748 E11.71379
G1 X90.081 Y95.636 E11.71674
G1 X90.827 Y98.136 F7800.000
G1 X90.827 Y96.046 F1314.888 E11.77325
G1 X91.592 Y96.046 E11.79391
G1 X91.592 Y98.867 E11.87018
G1 X92.356 Y98.450 E11.89373
G1 X92.356 Y96.046 E11.95871
G1 X93.121 Y96.046 E11.97937
G1 X93.121 Y98.419 E12.04351
G1 X93.885 Y98.686 E12.06541
G1 X93.885 Y96.046 E12.13678
G1 X94.649 Y96.046 E12.15745
G1 X94.649 Y99.611 E12.25382
G1 X94.649 Y100.385 F7800.000
G1 X94.649 Y103.950 F1314.888 E12.35021
G1 X95.414 Y103.950 E12.37088
G1 X95.414 Y96.046 E12.58457
G1 X96.178 Y96.046 E12.60523
G1 X96.178 Y103.950 E12.81892
G1 X96.943 Y103.950 E12.83958
G1 X96.943 Y96.046 E13.05327
G1 X97.707 Y96.046 E13.07394
G1 X97.707 Y103.950 E13.28763
G1 X98.471 Y103.950 E13.30829
G1 X98.471 Y96.046 E13.52198
G1 X99.236 Y96.046 E13.54264
G1 X99.236 Y103.950 E13.75633
G1 X100.000 Y103.950 E13.77699
G1 X100.000 Y96.046 E13.99068
G1 X100.764 Y96.046 E14.01135
G1 X100.764 Y103.950 E14.22504
G1 X101.529 Y103.950 E14.24570
G1 X101.529 Y96.046 E14.45939
G1 X102.293 Y96.046 E14.48005
G1 X102.293 Y103.950 E14.69374
G1 X103.058 Y103.950 E14.71441
G1 X103.058 Y96.046 E14.92809
G1 X103.822 Y96.046 E14.94876
G1 X103.822 Y103.950 E15.16244
G1 X104.586 Y103.950 E15.18311
G1 X104.586 Y96.046 E15.39680
G1 X105.351 Y96.046 E15.41746
G1 X105.351 Y103.950 E15.63115
G1 X106.115 Y103.950 E15.65182
G1 X106.115 Y96.045 E15.86550
G1 X106.880 Y96.045 E15.88617
G1 X106.880 Y103.950 E16.09986
G1 X107.644 Y103.950 E16.12052
G1 X107.644 Y96.045 E16.33421
G1 X108.408 Y96.045 E16.35487
G1 X108.408 Y103.950 E16.56856
G1 X109.173 Y103.949 E16.58922
G1 X109.173 Y101.618 E16.65225
G1 X93.885 Y101.310 F7800.000
G1 X93.885 Y103.950 F1314.888 E16.72364
G1 X93.121 Y103.950 E16.74431
G1 X93.121 Y101.577 E16.80846
G1 X92.356 Y101.546 F7800.000
G1 X92.356 Y103.950 F1314.888 E16.87346
G1 X91.592 Y103.950 E16.89413
G1 X91.592 Y101.129 E16.97041
G1 X90.865 Y99.662 F7800.000
G1 X90.865 Y100.334 F600.000 E16.98815
G1 Z0.750 F7800.000
G1 X91.700 Y100.308
G1 X91.659 Y99.998 F600.000 E16.99640
G1 X91.690 Y99.761 E17.00272
G1 X91.700 Y99.688 E17.00465
G1 X91.819 Y99.399 E17.01290
G1 X92.010 Y99.152 E17.02115
G1 X92.068 Y99.107 E17.02308
G1 X92.258 Y98.961 E17.02940
G1 X92.546 Y98.842 E17.03765
G1 X92.856 Y98.801 E17.04590
G1 X93.166 Y98.842 E17.05415
G1 X93.455 Y98.961 E17.06240
G1 X93.703 Y99.151 E17.07065
G1 X93.893 Y99.399 E17.07890
G1 X94.013 Y99.688 E17.08715
G1 X94.054 Y99.998 E17.09540
G1 X94.013 Y100.308 E17.10365
G1 X93.893 Y100.597 E17.11190
G1 X93.703 Y100.845 E17.12015
G1 X93.455 Y101.035 E17.12840
G1 X93.166 Y101.154 E17.13665
G1 X92.856 Y101.195 E17.14490
G1 X92.547 Y101.154 E17.15315
G1 X92.258 Y101.035 E17.16140
G1 X92.010 Y100.845 E17.16965
G1 X91.820 Y100.597 E17.17790
G1 X91.743 Y100.411 E17.18319
G1 X91.700 Y100.308 E17.18615
G1 X90.988 Y100.083 F7800.000
G1 X90.081 Y96.171
G1 X90.081 Y95.636 F682.680 E17.20027
G1 X109.919 Y95.635 E17.72392
G1 X109.919 Y104.360 E17.95423
G1 X90.082 Y104.361 E18.47787
G1 X90.081 Y96.283 E18.69110
G1 X90.081 Y96.171 E18.69406
G1 X90.492 Y97.185 F7800.000
G1 X109.508 Y97.185 F1137.800 E19.23461
G1 X109.508 Y97.989 E19.25746
G1 X90.492 Y97.989 E19.79801
G1 X90.492 Y98.792 E19.82086
G1 X91.681 Y98.792 E19.85465
G1 X94.032 Y98.792 F7800.000
G1 X109.508 Y98.792 F1137.800 E20.29457
G1 X109.508 Y99.596 E20.31741
G1 X94.417 Y99.596 E20.74637
G1 X94.417 Y100.400 F7800.000
G1 X109.509 Y100.400 F1137.800 E21.17534
G1 X109.509 Y101.203 E21.19819
G1 X94.032 Y101.203 E21.63810
G1 X91.680 Y101.203 F7800.000
G1 X90.492 Y101.203 F1137.800 E21.67189
G1 X90.492 Y102.007 E21.69474
G1 X109.509 Y102.007 E22.23529
G1 X109.509 Y102.811 E22.25814
G1 X90.492 Y102.811 E22.79869
G1 X90.492 Y103.615 E22.82153
G1 X92.970 Y103.615 E22.89196
G1 X107.134 Y96.381 F7800.000
G1 X109.508 Y96.381 F1137.800 E22.95945
G1 X91.191 Y100.002 F7800.000
G1 X90.519 Y100.002 F600.000 E22.97719
G1 Z1.000 F7800.000
G1 X91.659 Y99.998
G1 X91.700 Y99.688 F600.000 E22.98544
G1 X91.788 Y99.475 E22.99155
G1 X91.819 Y99.400 E22.99369
G1 X92.010 Y99.152 E23.00194
G1 X92.258 Y98.961 E23.01019
G1 X92.333 Y98.930 E23.01233
G1 X92.546 Y98.842 E23.01844
G1 X92.856 Y98.801 E23.02669
G1 X93.166 Y98.842 E23.03494
G1 X93.455 Y98.961 E23.04319
G1 X93.703 Y99.152 E23.05144
G1 X93.893 Y99.399 E23.05969
G1 X93.924 Y99.474 E23.06183
G1 X94.013 Y99.688 E23.06794
G1 X94.054 Y99.998 E23.07619
G1 X94.013 Y100.308 E23.08444
G1 X93.893 Y100.597 E23.09269
G1 X93.703 Y100.845 E23.10094
G1 X93.455 Y101.035 E23.10919
G1 X93.166 Y101.154 E23.11744
G1 X92.856 Y101.195 E23.12569
G1 X92.547 Y101.155 E23.13394
G1 X92.333 Y101.066 E23.14004
G1 X92.258 Y101.035 E23.14219
G1 X92.010 Y100.845 E23.15044
G1 X91.820 Y100.597 E23.15868
G1 X91.700 Y100.308 E23.16693
G1 X91.674 Y100.109 E23.17223
G1 X91.659 Y99.998 E23.17518
G1 X91.030 Y99.597 F7800.000
G1 X90.081 Y96.546
G1 X90.081 Y95.636 F788.934 E23.19921
G1 X109.919 Y95.635 E23.72286
G1 X109.919 Y104.360 E23.95317
G1 X90.082 Y104.361 E24.47681
G1 X90.081 Y96.658 E24.68014
G1 X90.081 Y96.546 E24.68310
G1 X90.827 Y98.136 F7800.000
G1 X90.827 Y96.046 F1314.890 E24.73960
G1 X91.592 Y96.046 E24.76027
G1 X91.592 Y98.868 E24.83654
G1 X92.356 Y98.450 E24.86008
G1 X92.356 Y96.046 E24.92507
G1 X93.121 Y96.046 E24.94573
G1 X93.121 Y98.419 E25.00987
G1 X93.885 Y98.687 E25.03177
G1 X93.885 Y96.046 E25.10315
G1 X94.649 Y96.046 E25.12381
G1 X94.649 Y99.611 E25.22019
G1 X94.649 Y100.385 F7800.000
G1 X94.649 Y103.950 F1314.890 E25.31657
G1 X95.414 Y103.950 E25.33724
G1 X95.414 Y96.046 E25.55093
G1 X96.178 Y96.046 E25.57159
G1 X96.178 Y103.950 E25.78528
G1 X96.943 Y103.950 E25.80594
G1 X96.943 Y96.046 E26.01963
G1 X97.707 Y96.046 E26.04030
G1 X97.707 Y103.950 E26.25399
G1 X98.471 Y103.950 E26.27465
G1 X98.471 Y96.046 E26.48834
G1 X99.236 Y96.046 E26.50900
G1 X99.236 Y103.950 E26.72269
G1 X100.000 Y103.950 E26.74336
G1 X100.000 Y96.046 E26.95704
