; generated by Slic3r 0.9.8 on 2013-07-07 at 11:20:53

; layer_height = .25
; perimeters = 1
; top_solid_layers = 4
; bottom_solid_layers = 4
; fill_density = .9
; perimeter_speed = 30
; infill_speed = 40
; travel_speed = 130
; scale = 1
; nozzle_diameter = 0.5
; filament_diameter = 3
; extrusion_multiplier = 1
; perimeters extrusion width = 0.80mm
; infill extrusion width = 0.80mm
; first layer extrusion width = 0.50mm

M107
M104 S220 ; set temperature
G28 ; home all axes
M109 S220 ; wait for temperature to be reached
G90 ; use absolute coordinates
G21 ; set units to millimeters
G92 E0
M82 ; use absolute distances for extrusion
G1 Z0.250 F7800.000
G1 X113.183 Y105.079
G1 X112.513 Y105.579 F900.000 E0.01478
G1 X112.043 Y105.859 E0.02446
G1 X102.253 Y111.209 E0.22175
G1 X101.723 Y111.439 E0.23196
G1 X101.443 Y111.539 E0.23722
G1 X100.603 Y111.779 E0.25267
G1 X100.023 Y111.879 E0.26308
G1 X99.733 Y111.909 E0.26824
G1 X99.153 Y111.929 E0.27850
G1 X91.313 Y111.929 E0.41714
G1 X90.763 Y111.909 E0.42687
G1 X89.943 Y111.799 E0.44150
G1 X89.413 Y111.669 E0.45115
G1 X88.633 Y111.399 E0.46575
G1 X87.893 Y111.039 E0.48030
G1 X87.423 Y110.749 E0.49007
G1 X86.983 Y110.429 E0.49969
G1 X86.363 Y109.879 E0.51435
G1 X85.813 Y109.259 E0.52900
G1 X85.343 Y108.589 E0.54347
G1 X84.953 Y107.859 E0.55811
G1 X84.653 Y107.089 E0.57272
G1 X84.443 Y106.299 E0.58718
G1 X84.333 Y105.479 E0.60181
G1 X84.313 Y104.929 E0.61154
G1 X84.313 Y95.069 E0.78591
G1 X84.333 Y94.519 E0.79564
G1 X84.443 Y93.699 E0.81027
G1 X84.573 Y93.169 E0.81992
G1 X84.843 Y92.389 E0.83452
G1 X85.073 Y91.889 E0.84425
G1 X85.343 Y91.409 E0.85399
G1 X85.813 Y90.739 E0.86846
G1 X85.993 Y90.519 E0.87349
G1 X86.363 Y90.119 E0.88312
G1 X86.763 Y89.749 E0.89276
G1 X86.983 Y89.569 E0.89778
G1 X87.653 Y89.099 E0.91226
G1 X88.133 Y88.829 E0.92200
G1 X88.893 Y88.499 E0.93665
G1 X89.413 Y88.329 E0.94632
G1 X89.943 Y88.199 E0.95597
G1 X90.763 Y88.089 E0.97060
G1 X91.313 Y88.069 E0.98034
G1 X108.683 Y88.069 E1.28751
G1 X109.233 Y88.089 E1.29724
G1 X110.053 Y88.199 E1.31187
G1 X110.583 Y88.329 E1.32152
G1 X111.363 Y88.599 E1.33612
G1 X112.103 Y88.959 E1.35067
G1 X112.573 Y89.249 E1.36043
G1 X113.013 Y89.569 E1.37006
G1 X113.633 Y90.119 E1.38471
G1 X114.183 Y90.739 E1.39937
G1 X114.653 Y91.409 E1.41384
G1 X115.043 Y92.139 E1.42848
G1 X115.343 Y92.909 E1.44309
G1 X115.553 Y93.699 E1.45755
G1 X115.663 Y94.519 E1.47218
G1 X115.683 Y95.069 E1.48191
G1 X115.683 Y99.719 E1.56414
G1 X115.663 Y100.269 E1.57387
G1 X115.633 Y100.549 E1.57885
G1 X115.483 Y101.369 E1.59359
G1 X115.333 Y101.899 E1.60333
G1 X115.143 Y102.419 E1.61312
G1 X114.903 Y102.929 E1.62309
G1 X114.633 Y103.409 E1.63283
G1 X114.323 Y103.869 E1.64264
G1 X113.793 Y104.509 E1.65733
G1 X113.240 Y105.031 E1.67077
G1 X113.183 Y105.079 E1.67210
G1 X112.903 Y104.669 F7800.000
G1 X112.483 Y104.999 F900.000 E1.68154
G1 X111.803 Y105.419 E1.69568
G1 X102.013 Y110.769 E1.89297
G1 X101.183 Y111.099 E1.90876
G1 X100.623 Y111.259 E1.91906
G1 X100.033 Y111.369 E1.92968
G1 X99.153 Y111.429 E1.94527
G1 X91.313 Y111.429 E2.08392
G1 X90.793 Y111.409 E2.09312
G1 X90.273 Y111.349 E2.10237
G1 X90.013 Y111.299 E2.10706
G1 X89.253 Y111.099 E2.12095
G1 X88.763 Y110.909 E2.13025
G1 X88.293 Y110.689 E2.13942
G1 X87.623 Y110.279 E2.15332
G1 X87.003 Y109.799 E2.16718
G1 X86.443 Y109.239 E2.18119
G1 X85.963 Y108.619 E2.19505
G1 X85.553 Y107.949 E2.20894
G1 X85.333 Y107.479 E2.21812
G1 X85.143 Y106.989 E2.22741
G1 X84.943 Y106.229 E2.24131
G1 X84.893 Y105.969 E2.24599
G1 X84.833 Y105.449 E2.25525
G1 X84.813 Y104.929 E2.26445
G1 X84.813 Y95.069 E2.43881
G1 X84.833 Y94.549 E2.44802
G1 X84.893 Y94.029 E2.45727
G1 X85.003 Y93.509 E2.46667
G1 X85.143 Y93.009 E2.47585
G1 X85.333 Y92.519 E2.48515
G1 X85.553 Y92.049 E2.49433
G1 X85.683 Y91.819 E2.49900
G1 X86.113 Y91.169 E2.51278
G1 X86.443 Y90.759 E2.52209
G1 X87.003 Y90.199 E2.53609
G1 X87.413 Y89.869 E2.54540
G1 X88.063 Y89.439 E2.55918
G1 X88.523 Y89.199 E2.56836
G1 X89.013 Y88.989 E2.57778
G1 X89.253 Y88.899 E2.58232
G1 X89.753 Y88.759 E2.59150
G1 X90.273 Y88.649 E2.60090
G1 X90.793 Y88.589 E2.61015
G1 X91.313 Y88.569 E2.61936
G1 X108.683 Y88.569 E2.92653
G1 X109.203 Y88.589 E2.93573
G1 X109.723 Y88.649 E2.94498
G1 X110.243 Y88.759 E2.95438
G1 X110.743 Y88.899 E2.96357
G1 X110.983 Y88.989 E2.96810
G1 X111.703 Y89.309 E2.98203
G1 X112.373 Y89.719 E2.99592
G1 X112.993 Y90.199 E3.00979
G1 X113.553 Y90.759 E3.02379
G1 X114.033 Y91.379 E3.03766
G1 X114.443 Y92.049 E3.05155
G1 X114.663 Y92.519 E3.06073
G1 X114.853 Y93.009 E3.07002
G1 X115.053 Y93.769 E3.08392
G1 X115.103 Y94.029 E3.08860
G1 X115.163 Y94.549 E3.09786
G1 X115.183 Y95.069 E3.10706
G1 X115.183 Y99.719 E3.18929
G1 X115.163 Y100.249 E3.19867
G1 X115.043 Y101.049 E3.21297
G1 X114.913 Y101.569 E3.22245
G1 X114.743 Y102.069 E3.23179
G1 X114.643 Y102.319 E3.23655
G1 X114.273 Y103.039 E3.25087
G1 X113.983 Y103.479 E3.26019
G1 X113.653 Y103.909 E3.26977
G1 X113.483 Y104.109 E3.27441
G1 X112.958 Y104.619 E3.28734
G1 X112.903 Y104.669 E3.28867
G1 X96.735 Y101.196 F7800.000
G1 X96.580 Y101.569 F300.000 E3.29583
G1 X96.334 Y101.890 E3.30298
G1 X96.013 Y102.137 E3.31014
G1 X95.639 Y102.292 E3.31730
G1 X95.238 Y102.345 E3.32445
G1 X94.836 Y102.292 E3.33161
G1 X94.462 Y102.137 E3.33877
G1 X94.141 Y101.890 E3.34592
G1 X93.895 Y101.569 E3.35308
G1 X93.740 Y101.196 E3.36024
G1 X93.687 Y100.794 E3.36739
G1 X93.740 Y100.393 E3.37455
G1 X93.895 Y100.019 E3.38171
G1 X94.141 Y99.698 E3.38886
G1 X94.462 Y99.452 E3.39602
G1 X94.836 Y99.297 E3.40317
G1 X95.238 Y99.244 E3.41033
G1 X95.639 Y99.297 E3.41749
G1 X96.013 Y99.452 E3.42464
G1 X96.334 Y99.698 E3.43180
G1 X96.580 Y100.019 E3.43896
G1 X96.735 Y100.393 E3.44611
G1 X96.788 Y100.794 E3.45327
G1 X96.745 Y101.121 E3.45910
G1 X96.735 Y101.196 E3.46043
G1 X96.248 Y101.065 F7800.000
G1 X96.143 Y101.317 F300.000 E3.46525
G1 X95.977 Y101.534 E3.47008
G1 X95.760 Y101.700 E3.47491
G1 X95.508 Y101.805 E3.47974
G1 X95.238 Y101.840 E3.48457
G1 X94.967 Y101.805 E3.48940
G1 X94.715 Y101.700 E3.49422
G1 X94.498 Y101.534 E3.49905
G1 X94.332 Y101.317 E3.50388
G1 X94.227 Y101.065 E3.50871
G1 X94.192 Y100.794 E3.51354
G1 X94.227 Y100.524 E3.51837
G1 X94.332 Y100.271 E3.52319
G1 X94.498 Y100.055 E3.52802
G1 X94.715 Y99.889 E3.53285
G1 X94.967 Y99.784 E3.53768
G1 X95.238 Y99.748 E3.54251
G1 X95.508 Y99.784 E3.54734
G1 X95.760 Y99.889 E3.55216
G1 X95.977 Y100.055 E3.55699
G1 X96.143 Y100.271 E3.56182
G1 X96.248 Y100.524 E3.56665
G1 X96.283 Y100.794 E3.57148
G1 X96.258 Y100.991 E3.57498
G1 X96.248 Y101.065 E3.57631
G1 X96.586 Y101.434 F7800.000
G1 X98.662 Y99.227
G1 X98.662 Y104.431 F900.000 E3.66833
G1 X91.813 Y104.431 E3.78946
G1 X91.813 Y95.571 E3.94614
G1 X108.187 Y95.570 E4.23571
G1 X108.187 Y99.227 E4.30037
G1 X98.737 Y99.227 E4.46748
G1 X98.662 Y99.227 E4.46880
G1 X99.162 Y99.727 F7800.000
G1 X99.162 Y104.931 F900.000 E4.56083
G1 X91.313 Y104.931 E4.69964
G1 X91.313 Y95.071 E4.87401
G1 X108.687 Y95.070 E5.18125
G1 X108.687 Y99.727 E5.26360
G1 X99.237 Y99.727 E5.43071
G1 X99.162 Y99.727 E5.43204
G1 X98.662 Y99.727 F7800.000
G1 X96.299 Y99.214
G1 X98.387 Y99.214 F1500.000 E5.47074
G1 X98.387 Y99.738 E5.48045
G1 X96.770 Y99.738 E5.51044
G1 X96.997 Y100.262 E5.52102
G1 X98.387 Y100.262 E5.54680
G1 X98.387 Y100.786 E5.55651
G1 X97.066 Y100.786 E5.58100
G1 X96.999 Y101.310 E5.59079
G1 X98.387 Y101.310 E5.61653
G1 X98.387 Y101.834 E5.62624
G1 X96.782 Y101.834 E5.65600
G1 X96.320 Y102.359 E5.66895
G1 X98.387 Y102.359 E5.70727
G1 X98.387 Y103.931 F7800.000
G1 X92.088 Y103.931 F1500.000 E5.82403
G1 X92.088 Y103.407 E5.83374
G1 X98.387 Y103.407 E5.95050
G1 X98.387 Y102.883 E5.96021
G1 X92.088 Y102.883 E6.07698
G1 X92.088 Y102.359 E6.08669
G1 X94.155 Y102.359 E6.12501
G1 X93.693 Y101.834 E6.13795
G1 X92.088 Y101.834 E6.16771
G1 X92.088 Y101.310 E6.17742
G1 X93.476 Y101.310 E6.20316
G1 X93.409 Y100.786 E6.21295
G1 X92.088 Y100.786 E6.23744
G1 X92.088 Y100.262 E6.24715
G1 X93.478 Y100.262 E6.27293
G1 X93.705 Y99.738 E6.28351
G1 X92.088 Y99.738 E6.31350
G1 X92.088 Y99.214 E6.32321
G1 X94.176 Y99.214 E6.36191
G1 X92.088 Y98.690 F7800.000
G1 X107.912 Y98.690 F1500.000 E6.65520
G1 X107.912 Y98.166 E6.66491
G1 X92.088 Y98.166 E6.95821
G1 X92.088 Y97.642 E6.96792
G1 X107.912 Y97.642 E7.26121
G1 X107.912 Y97.118 E7.27093
G1 X92.088 Y97.118 E7.56422
G1 X92.088 Y96.594 E7.57393
G1 X107.912 Y96.594 E7.86722
G1 X107.912 Y96.070 E7.87694
G1 X104.526 Y96.070 E7.93970
M106 S255
G1 Z0.500 F7800.000
G1 X96.274 Y100.196
G1 X96.394 Y100.484 F600.000 E7.94794
G1 X96.435 Y100.794 E7.95620
G1 X96.394 Y101.104 E7.96445
G1 X96.274 Y101.393 E7.97270
G1 X96.084 Y101.641 E7.98095
G1 X95.836 Y101.831 E7.98920
G1 X95.547 Y101.951 E7.99745
G1 X95.306 Y101.983 E8.00387
G1 X95.238 Y101.992 E8.00570
G1 X94.928 Y101.951 E8.01394
G1 X94.639 Y101.831 E8.02220
G1 X94.391 Y101.641 E8.03044
G1 X94.201 Y101.393 E8.03869
G1 X94.081 Y101.104 E8.04695
G1 X94.040 Y100.794 E8.05519
G1 X94.081 Y100.484 E8.06344
G1 X94.201 Y100.196 E8.07169
G1 X94.391 Y99.948 E8.07994
G1 X94.639 Y99.757 E8.08819
G1 X94.928 Y99.638 E8.09644
G1 X95.238 Y99.597 E8.10469
G1 X95.547 Y99.638 E8.11294
G1 X95.836 Y99.758 E8.12119
G1 X96.084 Y99.948 E8.12944
G1 X96.206 Y100.107 E8.13474
G1 X96.274 Y100.196 E8.13769
G1 X97.020 Y100.228 F7800.000
G1 X99.012 Y99.577
G1 X99.012 Y104.781 F600.000 E8.27506
G1 X91.463 Y104.781 E8.47435
G1 X91.463 Y95.221 E8.72670
G1 X108.537 Y95.220 E9.17741
G1 X108.537 Y99.577 E9.29241
G1 X99.124 Y99.577 E9.54088
G1 X99.012 Y99.577 E9.54384
G1 X98.442 Y99.166 F7800.000
G1 X98.442 Y95.631 F995.599 E9.64126
G1 X99.221 Y95.631 E9.66272
G1 X99.221 Y99.166 E9.76015
G1 X100.000 Y99.166 E9.78161
G1 X100.000 Y95.631 E9.87903
G1 X100.779 Y95.631 E9.90050
G1 X100.779 Y99.166 E9.99793
G1 X101.558 Y99.166 E10.01939
G1 X101.558 Y95.631 E10.11682
G1 X102.337 Y95.631 E10.13828
G1 X102.337 Y99.166 E10.23571
G1 X103.116 Y99.166 E10.25718
G1 X103.116 Y95.631 E10.35460
G1 X103.895 Y95.631 E10.37607
G1 X103.895 Y99.166 E10.47350
G1 X104.675 Y99.166 E10.49497
G1 X104.675 Y95.631 E10.59239
G1 X105.454 Y95.631 E10.61386
G1 X105.454 Y99.166 E10.71129
G1 X106.233 Y99.166 E10.73276
G1 X106.233 Y95.631 E10.83019
G1 X107.012 Y95.631 E10.85165
G1 X107.012 Y99.166 E10.94908
G1 X107.791 Y99.166 E10.97055
G1 X107.791 Y95.631 E11.06798
G1 X97.663 Y95.631 F7800.000
G1 X97.663 Y104.370 F995.599 E11.30879
G1 X96.884 Y101.489 E11.39103
G1 X96.884 Y104.370 E11.47043
G1 X96.104 Y104.370 E11.49189
G1 X96.104 Y102.192 E11.55192
G1 X95.325 Y102.397 F7800.000
G1 X95.325 Y104.370 F995.599 E11.60629
G1 X94.546 Y104.370 E11.62776
G1 X94.546 Y102.265 E11.68578
G1 X93.767 Y101.718 E11.71201
G1 X93.767 Y104.370 E11.78509
G1 X92.988 Y104.370 E11.80656
G1 X92.988 Y95.631 E12.04737
G1 X93.767 Y95.631 E12.06883
G1 X93.767 Y99.871 E12.18566
G1 X94.546 Y99.324 E12.21189
G1 X94.546 Y95.631 E12.31365
G1 X95.325 Y95.631 E12.33512
G1 X95.325 Y99.192 E12.43325
G1 X96.104 Y99.397 F7800.000
G1 X96.104 Y95.631 F995.599 E12.53701
G1 X96.884 Y95.631 E12.55848
G1 X96.884 Y100.100 E12.68162
G1 X92.209 Y104.370 F7800.000
G1 X92.209 Y95.631 F995.599 E12.92243
G1 Z0.750 F7800.000
G1 X94.639 Y99.758
G1 X94.928 Y99.638 F600.000 E12.93068
G1 X95.238 Y99.597 E12.93893
G1 X95.547 Y99.638 E12.94718
G1 X95.836 Y99.758 E12.95543
G1 X95.899 Y99.806 E12.95753
G1 X96.084 Y99.948 E12.96368
G1 X96.274 Y100.196 E12.97193
G1 X96.394 Y100.484 E12.98018
G1 X96.435 Y100.794 E12.98843
G1 X96.394 Y101.104 E12.99668
G1 X96.274 Y101.393 E13.00493
G1 X96.084 Y101.641 E13.01318
G1 X95.899 Y101.783 E13.01932
G1 X95.836 Y101.831 E13.02143
G1 X95.547 Y101.951 E13.02968
G1 X95.238 Y101.992 E13.03793
G1 X94.928 Y101.951 E13.04618
G1 X94.639 Y101.831 E13.05442
G1 X94.454 Y101.689 E13.06057
G1 X94.391 Y101.641 E13.06267
G1 X94.201 Y101.393 E13.07092
G1 X94.081 Y101.104 E13.07917
G1 X94.051 Y100.873 E13.08532
G1 X94.040 Y100.794 E13.08742
G1 X94.081 Y100.484 E13.09567
G1 X94.201 Y100.196 E13.10392
G1 X94.391 Y99.948 E13.11217
G1 X94.550 Y99.826 E13.11747
G1 X94.639 Y99.758 E13.12042
G1 X94.671 Y99.012 F7800.000
G1 X99.012 Y99.577
G1 X99.012 Y104.781 F600.000 E13.25779
G1 X91.463 Y104.781 E13.45708
G1 X91.463 Y95.221 E13.70943
G1 X108.537 Y95.220 E14.16014
G1 X108.537 Y99.577 E14.27514
G1 X99.124 Y99.577 E14.52361
G1 X99.012 Y99.577 E14.52657
G1 X96.665 Y100.000 F7800.000
G1 X98.602 Y100.000 F892.559 E14.58183
G1 X98.602 Y99.194 E14.60485
G1 X95.991 Y99.194 E14.67935
G1 X94.484 Y99.194 F7800.000
G1 X91.873 Y99.194 F892.559 E14.75385
G1 X91.873 Y100.000 E14.77687
G1 X93.810 Y100.000 E14.83213
G1 X93.625 Y100.807 F7800.000
G1 X91.873 Y100.807 F892.559 E14.88213
G1 X91.873 Y101.614 E14.90515
G1 X93.820 Y101.614 E14.96071
G1 X94.517 Y102.421 E14.99113
G1 X91.873 Y102.421 E15.06658
G1 X91.873 Y98.387 F7800.000
G1 X108.127 Y98.387 F892.559 E15.53037
G1 X108.127 Y97.580 E15.55339
G1 X91.873 Y97.580 E16.01718
G1 X91.873 Y96.773 E16.04020
G1 X108.127 Y96.773 E16.50399
G1 X108.127 Y95.966 E16.52700
G1 X104.668 Y95.966 E16.62571
G1 X96.850 Y100.807 F7800.000
G1 X98.602 Y100.807 F892.559 E16.67570
G1 X98.602 Y101.614 E16.69872
G1 X96.655 Y101.614 E16.75429
G1 X95.958 Y102.421 E16.78471
G1 X98.602 Y102.421 E16.86016
G1 X98.602 Y103.228 E16.88318
G1 X91.873 Y103.228 E17.07519
G1 X91.873 Y104.034 E17.09821
G1 X98.602 Y104.034 E17.29021
G1 Z1.000 F7800.000
G1 X96.084 Y101.641
G1 X95.836 Y101.831 F600.000 E17.29846
G1 X95.547 Y101.951 E17.30671
G1 X95.238 Y101.992 E17.31496
G1 X94.928 Y101.951 E17.32321
G1 X94.639 Y101.831 E17.33146
G1 X94.391 Y101.641 E17.33971
G1 X94.201 Y101.393 E17.34796
G1 X94.081 Y101.104 E17.35621
G1 X94.040 Y100.794 E17.36446
G1 X94.081 Y100.484 E17.37271
G1 X94.201 Y100.196 E17.38096
G1 X94.336 Y100.020 E17.38681
G1 X94.391 Y99.948 E17.38921
G1 X94.639 Y99.758 E17.39746
G1 X94.928 Y99.638 E17.40571
G1 X95.238 Y99.597 E17.41396
G1 X95.547 Y99.638 E17.42221
G1 X95.631 Y99.673 E17.42460
G1 X95.836 Y99.758 E17.43046
G1 X96.084 Y99.948 E17.43871
G1 X96.274 Y100.196 E17.44696
G1 X96.394 Y100.484 E17.45521
G1 X96.435 Y100.794 E17.46345
G1 X96.394 Y101.104 E17.47170
G1 X96.274 Y101.393 E17.47995
G1 X96.152 Y101.552 E17.48525
G1 X96.084 Y101.641 E17.48820
G1 X96.246 Y102.370 F7800.000
G1 X99.012 Y102.313
G1 X99.012 Y104.781 F600.000 E17.55334
G1 X91.463 Y104.781 E17.75263
G1 X91.463 Y95.221 E18.00498
G1 X108.537 Y95.220 E18.45569
G1 X108.537 Y99.577 E18.57070
G1 X99.012 Y99.577 E18.82212
G1 X99.012 Y102.201 E18.89139
G1 X99.012 Y102.313 E18.89435
G1 X96.104 Y102.192 F7800.000
G1 X96.104 Y104.370 F995.604 E18.95437
G1 X96.884 Y104.370 E18.97584
G1 X96.884 Y101.489 E19.05523
G1 X97.663 Y104.370 E19.13747
G1 X97.663 Y95.631 E19.37829
G1 X98.442 Y99.166 F7800.000
G1 X98.442 Y95.631 F995.604 E19.47571
G1 X99.221 Y95.631 E19.49718
G1 X99.221 Y99.166 E19.59460
G1 X100.000 Y99.166 E19.61607
G1 X100.000 Y95.631 E19.71349
G1 X100.779 Y95.631 E19.73496
G1 X100.779 Y99.166 E19.83239
G1 X101.558 Y99.166 E19.85386
G1 X101.558 Y95.631 E19.95128
G1 X102.337 Y95.631 E19.97275
G1 X102.337 Y99.166 E20.07018
G1 X103.116 Y99.166 E20.09164
G1 X103.116 Y95.631 E20.18907
G1 X103.895 Y95.631 E20.21054
G1 X103.895 Y99.166 E20.30797
G1 X104.675 Y99.166 E20.32944
G1 X104.675 Y95.631 E20.42687
G1 X105.454 Y95.631 E20.44833
G1 X105.454 Y99.166 E20.54576
G1 X106.233 Y99.166 E20.56723
G1 X106.233 Y95.631 E20.66466
G1 X107.012 Y95.631 E20.68613
G1 X107.012 Y99.166 E20.78356
G1 X107.791 Y99.166 E20.80502
G1 X107.791 Y95.631 E20.90245
G1 X96.884 Y100.100 F7800.000
G1 X96.884 Y95.631 F995.604 E21.02559
G1 X96.104 Y95.631 E21.04706
G1 X96.104 Y99.397 E21.15083
G1 X95.325 Y99.192 F7800.000
