; generated by Slic3r 0.9.8 on 2013-07-04 at 21:01:20

; layer_height = .25
; perimeters = 1
; top_solid_layers = 4
; bottom_solid_layers = 4
; fill_density = .9
; perimeter_speed = 30
; infill_speed = 40
; travel_speed = 130
; scale = 1
; nozzle_diameter = 0.5
; filament_diameter = 3
; extrusion_multiplier = 1
; perimeters extrusion width = 0.80mm
; infill extrusion width = 0.80mm
; first layer extrusion width = 0.50mm

M107
M104 S220 ; set temperature
G28 ; home all axes
M109 S220 ; wait for temperature to be reached
G90 ; use absolute coordinates
G21 ; set units to millimeters
G92 E0
M82 ; use absolute distances for extrusion
G1 Z0.250 F7800.000
G1 X114.835 Y84.565
G1 X114.905 Y85.115 F900.000 E0.00980
G1 X114.925 Y85.665 E0.01954
G1 X114.925 Y113.745 E0.51610
G1 X114.905 Y114.285 E0.52566
G1 X114.845 Y114.825 E0.53526
G1 X114.735 Y115.355 E0.54484
G1 X114.595 Y115.885 E0.55453
G1 X114.295 Y116.645 E0.56898
G1 X114.055 Y117.125 E0.57847
G1 X113.775 Y117.595 E0.58814
G1 X113.455 Y118.035 E0.59777
G1 X112.925 Y118.645 E0.61206
G1 X112.525 Y119.015 E0.62169
G1 X112.105 Y119.365 E0.63136
G1 X111.425 Y119.805 E0.64568
G1 X110.945 Y120.065 E0.65534
G1 X110.445 Y120.275 E0.66493
G1 X109.935 Y120.455 E0.67449
G1 X109.405 Y120.585 E0.68414
G1 X108.875 Y120.685 E0.69368
G1 X108.335 Y120.735 E0.70327
G1 X98.335 Y121.315 E0.88040
G1 X92.065 Y121.325 E0.99128
G1 X91.515 Y121.305 E1.00101
G1 X91.245 Y121.275 E1.00582
G1 X90.695 Y121.195 E1.01565
G1 X90.165 Y121.065 E1.02530
G1 X89.385 Y120.795 E1.03989
G1 X88.885 Y120.565 E1.04963
G1 X88.405 Y120.295 E1.05937
G1 X87.735 Y119.825 E1.07384
G1 X87.115 Y119.275 E1.08849
G1 X86.565 Y118.655 E1.10315
G1 X86.095 Y117.985 E1.11762
G1 X85.825 Y117.505 E1.12736
G1 X85.595 Y117.005 E1.13710
G1 X85.405 Y116.485 E1.14689
G1 X85.255 Y115.955 E1.15663
G1 X85.155 Y115.425 E1.16616
G1 X85.085 Y114.875 E1.17597
G1 X85.065 Y114.325 E1.18570
G1 X85.065 Y86.245 E1.68226
G1 X85.085 Y85.705 E1.69182
G1 X85.145 Y85.165 E1.70143
G1 X85.255 Y84.635 E1.71100
G1 X85.395 Y84.105 E1.72069
G1 X85.695 Y83.345 E1.73514
G1 X85.935 Y82.865 E1.74463
G1 X86.215 Y82.395 E1.75431
G1 X86.535 Y81.955 E1.76393
G1 X87.065 Y81.345 E1.77822
G1 X87.465 Y80.975 E1.78785
G1 X87.885 Y80.625 E1.79752
G1 X88.565 Y80.185 E1.81185
G1 X89.045 Y79.925 E1.82150
G1 X89.545 Y79.715 E1.83109
G1 X90.055 Y79.535 E1.84065
G1 X90.585 Y79.405 E1.85030
G1 X91.115 Y79.305 E1.85984
G1 X91.655 Y79.255 E1.86943
G1 X101.655 Y78.675 E2.04657
G1 X107.925 Y78.665 E2.15745
G1 X108.475 Y78.685 E2.16718
G1 X108.745 Y78.715 E2.17198
G1 X109.295 Y78.795 E2.18181
G1 X109.825 Y78.925 E2.19146
G1 X110.605 Y79.195 E2.20606
G1 X111.105 Y79.425 E2.21579
G1 X111.585 Y79.695 E2.22553
G1 X112.255 Y80.165 E2.24000
G1 X112.875 Y80.715 E2.25466
G1 X113.425 Y81.335 E2.26931
G1 X113.895 Y82.005 E2.28379
G1 X114.165 Y82.485 E2.29353
G1 X114.395 Y82.985 E2.30326
G1 X114.585 Y83.505 E2.31305
G1 X114.735 Y84.035 E2.32279
G1 X114.824 Y84.491 E2.33100
G1 X114.835 Y84.565 E2.33233
G1 X114.345 Y84.625 F7800.000
G1 X114.405 Y85.145 F900.000 E2.34159
G1 X114.425 Y85.665 E2.35079
G1 X114.425 Y113.745 E2.84735
G1 X114.405 Y114.275 E2.85673
G1 X114.335 Y114.805 E2.86618
G1 X114.235 Y115.325 E2.87555
G1 X114.165 Y115.585 E2.88031
G1 X114.085 Y115.835 E2.88495
G1 X113.775 Y116.575 E2.89914
G1 X113.525 Y117.035 E2.90840
G1 X113.245 Y117.485 E2.91777
G1 X113.085 Y117.705 E2.92258
G1 X112.565 Y118.305 E2.93662
G1 X112.175 Y118.665 E2.94601
G1 X111.755 Y118.995 E2.95545
G1 X111.315 Y119.295 E2.96487
G1 X110.855 Y119.545 E2.97413
G1 X110.615 Y119.665 E2.97887
G1 X110.115 Y119.865 E2.98840
G1 X109.615 Y120.025 E2.99768
G1 X108.835 Y120.185 E3.01176
G1 X108.305 Y120.235 E3.02117
G1 X98.305 Y120.815 E3.19831
G1 X92.065 Y120.825 E3.30866
G1 X91.545 Y120.805 E3.31786
G1 X91.025 Y120.745 E3.32712
G1 X90.505 Y120.635 E3.33652
G1 X90.005 Y120.495 E3.34570
G1 X89.515 Y120.305 E3.35499
G1 X89.045 Y120.085 E3.36417
G1 X88.815 Y119.955 E3.36884
G1 X88.165 Y119.525 E3.38262
G1 X87.755 Y119.195 E3.39193
G1 X87.195 Y118.635 E3.40594
G1 X86.865 Y118.225 E3.41524
G1 X86.435 Y117.575 E3.42902
G1 X86.195 Y117.115 E3.43820
G1 X85.985 Y116.625 E3.44763
G1 X85.895 Y116.385 E3.45216
G1 X85.695 Y115.625 E3.46606
G1 X85.645 Y115.365 E3.47074
G1 X85.585 Y114.845 E3.48000
G1 X85.565 Y114.325 E3.48920
G1 X85.565 Y86.245 E3.98576
G1 X85.585 Y85.715 E3.99514
G1 X85.655 Y85.185 E4.00459
G1 X85.755 Y84.665 E4.01396
G1 X85.825 Y84.405 E4.01872
G1 X85.905 Y84.155 E4.02336
G1 X86.215 Y83.415 E4.03755
G1 X86.465 Y82.955 E4.04681
G1 X86.745 Y82.505 E4.05618
G1 X86.905 Y82.285 E4.06099
G1 X87.425 Y81.685 E4.07503
G1 X87.815 Y81.325 E4.08442
G1 X88.235 Y80.995 E4.09386
G1 X88.675 Y80.695 E4.10328
G1 X89.135 Y80.445 E4.11254
G1 X89.375 Y80.325 E4.11728
G1 X89.875 Y80.125 E4.12681
G1 X90.375 Y79.965 E4.13609
G1 X91.155 Y79.805 E4.15017
G1 X91.685 Y79.755 E4.15959
G1 X101.685 Y79.175 E4.33672
G1 X107.925 Y79.165 E4.44707
G1 X108.445 Y79.185 E4.45627
G1 X108.965 Y79.245 E4.46553
G1 X109.485 Y79.355 E4.47493
G1 X109.985 Y79.495 E4.48411
G1 X110.475 Y79.685 E4.49340
G1 X110.945 Y79.905 E4.50258
G1 X111.175 Y80.035 E4.50725
G1 X111.825 Y80.465 E4.52103
G1 X112.235 Y80.795 E4.53034
G1 X112.795 Y81.355 E4.54435
G1 X113.125 Y81.765 E4.55365
G1 X113.275 Y81.975 E4.55822
G1 X113.685 Y82.645 E4.57211
G1 X113.905 Y83.115 E4.58128
G1 X114.095 Y83.605 E4.59058
G1 X114.235 Y84.105 E4.59976
G1 X114.331 Y84.551 E4.60783
G1 X114.345 Y84.625 E4.60916
G1 X97.425 Y113.825 F7800.000
G1 X92.575 Y113.825 F900.000 E4.69493
G1 X92.575 Y86.750 E5.17372
G1 X97.425 Y86.750 E5.25948
G1 X97.425 Y113.750 E5.73695
G1 X97.425 Y113.825 E5.73828
G1 X97.925 Y114.325 F7800.000
G1 X92.075 Y114.325 F900.000 E5.84173
G1 X92.075 Y86.250 E6.33820
G1 X97.925 Y86.250 E6.44165
G1 X97.925 Y114.250 E6.93680
G1 X97.925 Y114.325 E6.93813
G1 X97.492 Y114.075 F7800.000
G1 X97.150 Y113.325
G1 X92.850 Y113.325 F1500.000 E7.01439
G1 X92.850 Y112.824 E7.02328
G1 X97.150 Y112.824 E7.09954
G1 X97.150 Y112.322 E7.10843
G1 X92.850 Y112.322 E7.18469
G1 X92.850 Y111.821 E7.19359
G1 X97.150 Y111.821 E7.26985
G1 X97.150 Y111.319 E7.27874
G1 X92.850 Y111.319 E7.35500
G1 X92.850 Y110.818 E7.36389
G1 X97.150 Y110.818 E7.44015
G1 X97.150 Y110.316 E7.44905
G1 X92.850 Y110.316 E7.52531
G1 X92.850 Y109.815 E7.53420
G1 X97.150 Y109.815 E7.61046
G1 X97.150 Y109.313 E7.61935
G1 X92.850 Y109.313 E7.69561
G1 X92.850 Y108.812 E7.70451
G1 X97.150 Y108.812 E7.78077
G1 X97.150 Y108.311 E7.78966
G1 X92.850 Y108.311 E7.86592
G1 X92.850 Y107.809 E7.87481
G1 X97.150 Y107.809 E7.95107
G1 X97.150 Y107.308 E7.95996
G1 X92.850 Y107.308 E8.03622
G1 X92.850 Y106.806 E8.04512
G1 X97.150 Y106.806 E8.12138
G1 X97.150 Y106.305 E8.13027
G1 X92.850 Y106.305 E8.20653
G1 X92.850 Y105.803 E8.21542
G1 X97.150 Y105.803 E8.29168
G1 X97.150 Y105.302 E8.30058
G1 X92.850 Y105.302 E8.37684
G1 X92.850 Y104.800 E8.38573
G1 X97.150 Y104.800 E8.46199
G1 X97.150 Y104.299 E8.47088
G1 X92.850 Y104.299 E8.54714
G1 X92.850 Y103.798 E8.55604
G1 X97.150 Y103.798 E8.63230
G1 X97.150 Y103.296 E8.64119
G1 X92.850 Y103.296 E8.71745
G1 X92.850 Y102.795 E8.72634
G1 X97.150 Y102.795 E8.80260
G1 X97.150 Y102.293 E8.81150
G1 X92.850 Y102.293 E8.88776
G1 X92.850 Y101.792 E8.89665
G1 X97.150 Y101.792 E8.97291
G1 X97.150 Y101.290 E8.98180
G1 X92.850 Y101.290 E9.05806
G1 X92.850 Y100.789 E9.06696
G1 X97.150 Y100.789 E9.14322
G1 X97.150 Y100.287 E9.15211
G1 X92.850 Y100.287 E9.22837
G1 X92.850 Y99.786 E9.23726
G1 X97.150 Y99.786 E9.31352
G1 X97.150 Y99.285 E9.32242
G1 X92.850 Y99.285 E9.39868
G1 X92.850 Y98.783 E9.40757
G1 X97.150 Y98.783 E9.48383
G1 X97.150 Y98.282 E9.49272
G1 X92.850 Y98.282 E9.56898
G1 X92.850 Y97.780 E9.57787
G1 X97.150 Y97.780 E9.65413
G1 X97.150 Y97.279 E9.66303
G1 X92.850 Y97.279 E9.73929
G1 X92.850 Y96.777 E9.74818
G1 X97.150 Y96.777 E9.82444
G1 X97.150 Y96.276 E9.83333
G1 X92.850 Y96.276 E9.90959
G1 X92.850 Y95.774 E9.91849
G1 X97.150 Y95.774 E9.99475
G1 X97.150 Y95.273 E10.00364
G1 X92.850 Y95.273 E10.07990
G1 X92.850 Y94.772 E10.08879
G1 X97.150 Y94.772 E10.16505
G1 X97.150 Y94.270 E10.17395
G1 X92.850 Y94.270 E10.25021
G1 X92.850 Y93.769 E10.25910
G1 X97.150 Y93.769 E10.33536
G1 X97.150 Y93.267 E10.34425
G1 X92.850 Y93.267 E10.42051
G1 X92.850 Y92.766 E10.42941
G1 X97.150 Y92.766 E10.50567
G1 X97.150 Y92.264 E10.51456
G1 X92.850 Y92.264 E10.59082
G1 X92.850 Y91.763 E10.59971
G1 X97.150 Y91.763 E10.67597
G1 X97.150 Y91.261 E10.68487
G1 X92.850 Y91.261 E10.76113
G1 X92.850 Y90.760 E10.77002
G1 X97.150 Y90.760 E10.84628
G1 X97.150 Y90.259 E10.85517
G1 X92.850 Y90.259 E10.93143
G1 X92.850 Y89.757 E10.94033
G1 X97.150 Y89.757 E11.01659
G1 X97.150 Y89.256 E11.02548
G1 X92.850 Y89.256 E11.10174
G1 X92.850 Y88.754 E11.11063
G1 X97.150 Y88.754 E11.18689
G1 X97.150 Y88.253 E11.19578
G1 X92.850 Y88.253 E11.27204
G1 X92.850 Y87.751 E11.28094
G1 X97.150 Y87.751 E11.35720
G1 X97.150 Y87.250 E11.36609
G1 X92.850 Y87.250 E11.44235
G1 X107.425 Y86.175 F7800.000
G1 X107.425 Y113.250 F900.000 E11.92114
G1 X102.575 Y113.250 E12.00691
G1 X102.575 Y86.175 E12.48570
G1 X107.350 Y86.175 E12.57014
G1 X107.425 Y86.175 E12.57147
G1 X107.925 Y85.675 F7800.000
G1 X107.925 Y113.750 F900.000 E13.06794
G1 X102.075 Y113.750 E13.17139
G1 X102.075 Y85.675 E13.66787
G1 X107.850 Y85.675 E13.76999
G1 X107.925 Y85.675 E13.77132
G1 X107.675 Y86.108 F7800.000
G1 X102.850 Y86.675
G1 X107.150 Y86.675 F1500.000 E13.84758
G1 X107.150 Y87.176 E13.85647
G1 X102.850 Y87.176 E13.93273
G1 X102.850 Y87.678 E13.94162
G1 X107.150 Y87.678 E14.01788
G1 X107.150 Y88.179 E14.02678
G1 X102.850 Y88.179 E14.10304
G1 X102.850 Y88.681 E14.11193
G1 X107.150 Y88.681 E14.18819
G1 X107.150 Y89.182 E14.19708
G1 X102.850 Y89.182 E14.27334
G1 X102.850 Y89.684 E14.28224
G1 X107.150 Y89.684 E14.35850
G1 X107.150 Y90.185 E14.36739
G1 X102.850 Y90.185 E14.44365
G1 X102.850 Y90.686 E14.45254
G1 X107.150 Y90.686 E14.52880
G1 X107.150 Y91.188 E14.53770
G1 X102.850 Y91.188 E14.61396
G1 X102.850 Y91.689 E14.62285
G1 X107.150 Y91.689 E14.69911
G1 X107.150 Y92.191 E14.70800
G1 X102.850 Y92.191 E14.78426
G1 X102.850 Y92.692 E14.79316
G1 X107.150 Y92.692 E14.86942
G1 X107.150 Y93.194 E14.87831
G1 X102.850 Y93.194 E14.95457
G1 X102.850 Y93.695 E14.96346
G1 X107.150 Y93.695 E15.03972
G1 X107.150 Y94.197 E15.04861
G1 X102.850 Y94.197 E15.12487
G1 X102.850 Y94.698 E15.13377
G1 X107.150 Y94.698 E15.21003
G1 X107.150 Y95.199 E15.21892
G1 X102.850 Y95.199 E15.29518
G1 X102.850 Y95.701 E15.30408
G1 X107.150 Y95.701 E15.38034
G1 X107.150 Y96.202 E15.38923
G1 X102.850 Y96.202 E15.46549
G1 X102.850 Y96.704 E15.47438
G1 X107.150 Y96.704 E15.55064
G1 X107.150 Y97.205 E15.55953
G1 X102.850 Y97.205 E15.63579
G1 X102.850 Y97.707 E15.64469
G1 X107.150 Y97.707 E15.72095
G1 X107.150 Y98.208 E15.72984
G1 X102.850 Y98.208 E15.80610
G1 X102.850 Y98.710 E15.81499
G1 X107.150 Y98.710 E15.89125
G1 X107.150 Y99.211 E15.90015
G1 X102.850 Y99.211 E15.97641
G1 X102.850 Y99.712 E15.98530
G1 X107.150 Y99.712 E16.06156
G1 X107.150 Y100.214 E16.07045
G1 X102.850 Y100.214 E16.14671
G1 X102.850 Y100.715 E16.15561
G1 X107.150 Y100.715 E16.23187
G1 X107.150 Y101.217 E16.24076
G1 X102.850 Y101.217 E16.31702
G1 X102.850 Y101.718 E16.32591
G1 X107.150 Y101.718 E16.40217
G1 X107.150 Y102.220 E16.41107
G1 X102.850 Y102.220 E16.48733
G1 X102.850 Y102.721 E16.49622
G1 X107.150 Y102.721 E16.57248
G1 X107.150 Y103.223 E16.58137
G1 X102.850 Y103.223 E16.65763
G1 X102.850 Y103.724 E16.66653
G1 X107.150 Y103.724 E16.74279
G1 X107.150 Y104.225 E16.75168
G1 X102.850 Y104.225 E16.82794
G1 X102.850 Y104.727 E16.83683
G1 X107.150 Y104.727 E16.91309
G1 X107.150 Y105.228 E16.92198
G1 X102.850 Y105.228 E16.99824
G1 X102.850 Y105.730 E17.00714
G1 X107.150 Y105.730 E17.08340
G1 X107.150 Y106.231 E17.09229
G1 X102.850 Y106.231 E17.16855
G1 X102.850 Y106.733 E17.17744
G1 X107.150 Y106.733 E17.25370
G1 X107.150 Y107.234 E17.26260
G1 X102.850 Y107.234 E17.33886
G1 X102.850 Y107.736 E17.34775
G1 X107.150 Y107.736 E17.42401
G1 X107.150 Y108.237 E17.43290
G1 X102.850 Y108.237 E17.50916
G1 X102.850 Y108.738 E17.51806
G1 X107.150 Y108.738 E17.59432
G1 X107.150 Y109.240 E17.60321
G1 X102.850 Y109.240 E17.67947
G1 X102.850 Y109.741 E17.68836
G1 X107.150 Y109.741 E17.76462
G1 X107.150 Y110.243 E17.77352
G1 X102.850 Y110.243 E17.84978
G1 X102.850 Y110.744 E17.85867
G1 X107.150 Y110.744 E17.93493
G1 X107.150 Y111.246 E17.94382
G1 X102.850 Y111.246 E18.02008
G1 X102.850 Y111.747 E18.02898
G1 X107.150 Y111.747 E18.10524
G1 X107.150 Y112.249 E18.11413
G1 X102.850 Y112.249 E18.19039
G1 X102.850 Y112.750 E18.19928
G1 X107.150 Y112.750 E18.27554
M106 S255
G1 Z0.500 F7800.000
G1 X92.225 Y114.175
G1 X92.225 Y86.400 F1328.954 E19.00871
G1 X97.775 Y86.400 E19.15521
G1 X97.775 Y114.175 E19.88838
G1 X92.337 Y114.175 E20.03193
G1 X92.225 Y114.175 E20.03488
G1 X92.971 Y86.810 F7800.000
G1 X92.971 Y113.765 F2214.923 E20.80846
G1 X93.783 Y113.765 E20.83175
G1 X93.783 Y86.810 E21.60533
G1 X94.594 Y86.810 E21.62862
G1 X94.594 Y113.765 E22.40220
G1 X95.406 Y113.765 E22.42549
G1 X95.406 Y86.810 E23.19906
G1 X96.217 Y86.810 E23.22235
G1 X96.217 Y113.765 E23.99593
G1 X97.029 Y113.765 E24.01922
G1 X97.029 Y86.810 E24.79280
G1 X107.775 Y85.825 F7800.000
G1 X107.775 Y113.600 F1328.954 E25.52597
G1 X102.225 Y113.600 E25.67247
G1 X102.225 Y85.825 E26.40564
G1 X107.663 Y85.825 E26.54919
G1 X107.775 Y85.825 E26.55214
G1 X107.029 Y86.235 F7800.000
G1 X107.029 Y113.190 F2214.923 E27.32572
G1 X106.217 Y113.190 E27.34901
G1 X106.217 Y86.235 E28.12259
G1 X105.406 Y86.235 E28.14588
G1 X105.406 Y113.190 E28.91945
G1 X104.594 Y113.190 E28.94274
G1 X104.594 Y86.235 E29.71632
G1 X103.783 Y86.235 E29.73961
G1 X103.783 Y113.190 E30.51319
G1 X102.971 Y113.190 E30.53648
G1 X102.971 Y86.235 E31.31006
G1 Z0.750 F7800.000
G1 X92.225 Y86.400
G1 X97.775 Y86.400 F1476.546 E31.45656
G1 X97.775 Y114.175 E32.18973
G1 X92.225 Y114.175 E32.33623
G1 X92.225 Y86.512 E33.06644
G1 X92.225 Y86.400 E33.06940
G1 X97.365 Y87.146 F7800.000
G1 X92.635 Y87.146 F2460.910 E33.19500
G1 X92.635 Y87.897 E33.21494
G1 X97.365 Y87.897 E33.34054
G1 X97.365 Y88.648 E33.36048
G1 X92.635 Y88.648 E33.48608
G1 X92.635 Y89.399 E33.50602
G1 X97.365 Y89.399 E33.63162
G1 X97.365 Y90.150 E33.65157
G1 X92.635 Y90.150 E33.77716
G1 X92.635 Y90.901 E33.79711
G1 X97.365 Y90.901 E33.92270
G1 X97.365 Y91.652 E33.94265
G1 X92.635 Y91.652 E34.06825
G1 X92.635 Y92.403 E34.08819
G1 X97.365 Y92.403 E34.21379
G1 X97.365 Y93.154 E34.23373
G1 X92.635 Y93.154 E34.35933
G1 X92.635 Y93.905 E34.37927
G1 X97.365 Y93.905 E34.50487
G1 X97.365 Y94.656 E34.52482
G1 X92.635 Y94.656 E34.65042
G1 X92.635 Y95.406 E34.67036
G1 X97.365 Y95.406 E34.79596
G1 X97.365 Y96.157 E34.81590
G1 X92.635 Y96.157 E34.94150
G1 X92.635 Y96.908 E34.96144
G1 X97.365 Y96.908 E35.08704
G1 X97.365 Y97.659 E35.10698
G1 X92.635 Y97.659 E35.23258
G1 X92.635 Y98.410 E35.25252
G1 X97.365 Y98.410 E35.37812
G1 X97.365 Y99.161 E35.39807
G1 X92.635 Y99.161 E35.52366
G1 X92.635 Y99.912 E35.54361
G1 X97.365 Y99.912 E35.66921
G1 X97.365 Y100.663 E35.68915
G1 X92.635 Y100.663 E35.81475
G1 X92.635 Y101.414 E35.83469
G1 X97.365 Y101.414 E35.96029
G1 X97.365 Y102.165 E35.98023
G1 X92.635 Y102.165 E36.10583
G1 X92.635 Y102.916 E36.12578
G1 X97.365 Y102.916 E36.25137
G1 X97.365 Y103.667 E36.27132
G1 X92.635 Y103.667 E36.39692
G1 X92.635 Y104.418 E36.41686
G1 X97.365 Y104.418 E36.54246
G1 X97.365 Y105.168 E36.56240
G1 X92.635 Y105.168 E36.68800
G1 X92.635 Y105.919 E36.70794
G1 X97.365 Y105.919 E36.83354
G1 X97.365 Y106.670 E36.85348
G1 X92.635 Y106.670 E36.97908
