; generated by Slic3r 0.9.8 on 2013-07-07 at 13:43:00

; layer_height = .25
; perimeters = 1
; top_solid_layers = 4
; bottom_solid_layers = 4
; fill_density = .9
; perimeter_speed = 30
; infill_speed = 40
; travel_speed = 130
; scale = 1
; nozzle_diameter = 0.5
; filament_diameter = 3
; extrusion_multiplier = 1
; perimeters extrusion width = 0.80mm
; infill extrusion width = 0.80mm
; first layer extrusion width = 0.50mm

M107
M104 S220 ; set temperature
G28 ; home all axes
M109 S220 ; wait for temperature to be reached
G90 ; use absolute coordinates
G21 ; set units to millimeters
G92 E0
M82 ; use absolute distances for extrusion
G1 Z0.250 F7800.000
G1 X110.850 Y109.646
G1 X110.430 Y110.006 F900.000 E0.00978
G1 X109.760 Y110.476 E0.02425
G1 X109.280 Y110.746 E0.03399
G1 X108.780 Y110.976 E0.04373
G1 X108.000 Y111.246 E0.05832
G1 X107.470 Y111.376 E0.06797
G1 X106.650 Y111.486 E0.08260
G1 X106.100 Y111.506 E0.09234
G1 X93.900 Y111.506 E0.30808
G1 X93.350 Y111.486 E0.31781
G1 X92.530 Y111.376 E0.33244
G1 X92.270 Y111.316 E0.33716
G1 X91.740 Y111.166 E0.34690
G1 X91.220 Y110.976 E0.35669
G1 X90.720 Y110.746 E0.36643
G1 X90.240 Y110.476 E0.37616
G1 X89.570 Y110.006 E0.39064
G1 X89.350 Y109.826 E0.39566
G1 X88.950 Y109.456 E0.40530
G1 X88.400 Y108.836 E0.41996
G1 X87.930 Y108.166 E0.43443
G1 X87.540 Y107.436 E0.44906
G1 X87.240 Y106.666 E0.46368
G1 X87.030 Y105.876 E0.47813
G1 X86.920 Y105.056 E0.49276
G1 X86.900 Y104.506 E0.50250
G1 X86.900 Y95.486 E0.66201
G1 X86.920 Y94.936 E0.67174
G1 X86.990 Y94.386 E0.68154
G1 X87.090 Y93.856 E0.69108
G1 X87.240 Y93.326 E0.70082
G1 X87.430 Y92.806 E0.71061
G1 X87.660 Y92.306 E0.72034
G1 X87.930 Y91.826 E0.73008
G1 X88.400 Y91.156 E0.74456
G1 X88.950 Y90.536 E0.75921
G1 X89.350 Y90.166 E0.76885
G1 X90.010 Y89.666 E0.78349
G1 X90.720 Y89.246 E0.79808
G1 X91.220 Y89.016 E0.80781
G1 X92.000 Y88.746 E0.82241
G1 X92.530 Y88.616 E0.83206
G1 X93.350 Y88.506 E0.84669
G1 X93.900 Y88.486 E0.85642
G1 X106.100 Y88.486 E1.07216
G1 X106.650 Y88.506 E1.08190
G1 X107.470 Y88.616 E1.09653
G1 X107.730 Y88.676 E1.10125
G1 X108.260 Y88.826 E1.11099
G1 X108.780 Y89.016 E1.12078
G1 X109.280 Y89.246 E1.13051
G1 X109.760 Y89.516 E1.14025
G1 X110.430 Y89.986 E1.15472
G1 X110.650 Y90.166 E1.15975
G1 X111.050 Y90.536 E1.16938
G1 X111.600 Y91.156 E1.18404
G1 X112.070 Y91.826 E1.19851
G1 X112.460 Y92.556 E1.21315
G1 X112.760 Y93.326 E1.22776
G1 X112.970 Y94.116 E1.24222
G1 X113.080 Y94.936 E1.25685
G1 X113.100 Y95.486 E1.26658
G1 X113.100 Y104.506 E1.42609
G1 X113.080 Y105.056 E1.43582
G1 X112.970 Y105.876 E1.45045
G1 X112.840 Y106.406 E1.46010
G1 X112.670 Y106.926 E1.46978
G1 X112.460 Y107.436 E1.47953
G1 X112.210 Y107.926 E1.48926
G1 X111.920 Y108.396 E1.49902
G1 X111.600 Y108.836 E1.50865
G1 X111.240 Y109.256 E1.51843
G1 X110.904 Y109.595 E1.52686
G1 X110.850 Y109.646 E1.52818
G1 X110.600 Y109.196 F7800.000
G1 X110.410 Y109.376 F900.000 E1.53281
G1 X109.790 Y109.856 E1.54668
G1 X109.120 Y110.266 E1.56057
G1 X108.650 Y110.486 E1.56974
G1 X108.160 Y110.676 E1.57904
G1 X107.400 Y110.876 E1.59293
G1 X107.140 Y110.926 E1.59762
G1 X106.620 Y110.986 E1.60687
G1 X106.100 Y111.006 E1.61608
G1 X93.900 Y111.006 E1.83182
G1 X93.380 Y110.986 E1.84102
G1 X92.860 Y110.926 E1.85028
G1 X92.340 Y110.816 E1.85968
G1 X91.840 Y110.676 E1.86886
G1 X91.350 Y110.486 E1.87815
G1 X90.880 Y110.266 E1.88733
G1 X90.650 Y110.136 E1.89200
G1 X90.000 Y109.706 E1.90578
G1 X89.590 Y109.376 E1.91509
G1 X89.030 Y108.816 E1.92910
G1 X88.700 Y108.406 E1.93840
G1 X88.270 Y107.756 E1.95218
G1 X88.140 Y107.526 E1.95686
G1 X87.920 Y107.056 E1.96603
G1 X87.730 Y106.566 E1.97533
G1 X87.530 Y105.806 E1.98922
G1 X87.480 Y105.546 E1.99391
G1 X87.420 Y105.026 E2.00316
G1 X87.400 Y104.506 E2.01237
G1 X87.400 Y95.486 E2.17187
G1 X87.420 Y94.966 E2.18108
G1 X87.480 Y94.446 E2.19033
G1 X87.590 Y93.926 E2.19973
G1 X87.730 Y93.426 E2.20891
G1 X87.920 Y92.936 E2.21821
G1 X88.140 Y92.466 E2.22739
G1 X88.270 Y92.236 E2.23206
G1 X88.700 Y91.586 E2.24584
G1 X89.030 Y91.176 E2.25515
G1 X89.400 Y90.796 E2.26453
G1 X89.590 Y90.616 E2.26915
G1 X90.210 Y90.136 E2.28302
G1 X90.880 Y89.726 E2.29691
G1 X91.350 Y89.506 E2.30609
G1 X91.840 Y89.316 E2.31538
G1 X92.600 Y89.116 E2.32928
G1 X92.860 Y89.066 E2.33396
G1 X93.380 Y89.006 E2.34322
G1 X93.900 Y88.986 E2.35242
G1 X106.100 Y88.986 E2.56816
G1 X106.620 Y89.006 E2.57737
G1 X107.140 Y89.066 E2.58662
G1 X107.660 Y89.176 E2.59602
G1 X108.160 Y89.316 E2.60520
G1 X108.650 Y89.506 E2.61450
G1 X109.120 Y89.726 E2.62367
G1 X109.350 Y89.856 E2.62835
G1 X110.000 Y90.286 E2.64213
G1 X110.410 Y90.616 E2.65143
G1 X110.970 Y91.176 E2.66544
G1 X111.300 Y91.586 E2.67475
G1 X111.730 Y92.236 E2.68853
G1 X111.860 Y92.466 E2.69320
G1 X112.080 Y92.936 E2.70238
G1 X112.270 Y93.426 E2.71167
G1 X112.470 Y94.186 E2.72557
G1 X112.520 Y94.446 E2.73025
G1 X112.580 Y94.966 E2.73951
G1 X112.600 Y95.486 E2.74871
G1 X112.600 Y104.506 E2.90822
G1 X112.580 Y105.026 E2.91742
G1 X112.520 Y105.546 E2.92668
G1 X112.410 Y106.066 E2.93608
G1 X112.270 Y106.566 E2.94526
G1 X112.080 Y107.056 E2.95455
G1 X111.860 Y107.526 E2.96373
G1 X111.730 Y107.756 E2.96840
G1 X111.300 Y108.406 E2.98218
G1 X110.970 Y108.816 E2.99149
G1 X110.653 Y109.143 E2.99954
G1 X110.600 Y109.196 E3.00087
G1 X98.168 Y100.775 F7800.000
G1 X97.921 Y101.096 F300.000 E3.00803
G1 X97.600 Y101.342 E3.01518
G1 X97.226 Y101.497 E3.02234
G1 X96.825 Y101.550 E3.02950
G1 X96.424 Y101.497 E3.03665
G1 X96.050 Y101.342 E3.04381
G1 X95.729 Y101.096 E3.05097
G1 X95.483 Y100.775 E3.05812
G1 X95.328 Y100.401 E3.06528
G1 X95.275 Y100.000 E3.07243
G1 X95.328 Y99.598 E3.07959
G1 X95.483 Y99.225 E3.08675
G1 X95.729 Y98.903 E3.09390
G1 X96.050 Y98.657 E3.10106
G1 X96.424 Y98.502 E3.10822
G1 X96.825 Y98.449 E3.11537
G1 X97.226 Y98.502 E3.12253
G1 X97.600 Y98.657 E3.12969
G1 X97.921 Y98.903 E3.13684
G1 X98.168 Y99.224 E3.14400
G1 X98.322 Y99.598 E3.15116
G1 X98.375 Y100.000 E3.15831
G1 X98.323 Y100.401 E3.16547
G1 X98.196 Y100.705 E3.17130
G1 X98.168 Y100.775 E3.17263
G1 X97.731 Y100.523 F7800.000
G1 X97.565 Y100.739 F300.000 E3.17745
G1 X97.348 Y100.905 E3.18228
G1 X97.096 Y101.010 E3.18711
G1 X96.825 Y101.046 E3.19194
G1 X96.554 Y101.010 E3.19677
G1 X96.302 Y100.905 E3.20160
G1 X96.086 Y100.739 E3.20642
G1 X95.919 Y100.523 E3.21125
G1 X95.815 Y100.270 E3.21608
G1 X95.779 Y100.000 E3.22091
G1 X95.815 Y99.729 E3.22574
G1 X95.919 Y99.477 E3.23057
G1 X96.086 Y99.260 E3.23539
G1 X96.302 Y99.094 E3.24022
G1 X96.554 Y98.989 E3.24505
G1 X96.825 Y98.954 E3.24988
G1 X97.096 Y98.989 E3.25471
G1 X97.348 Y99.094 E3.25954
G1 X97.565 Y99.260 E3.26436
G1 X97.731 Y99.477 E3.26919
G1 X97.835 Y99.729 E3.27402
G1 X97.871 Y100.000 E3.27885
G1 X97.835 Y100.270 E3.28368
G1 X97.760 Y100.453 E3.28718
G1 X97.731 Y100.523 E3.28851
G1 X97.962 Y100.966 F7800.000
G1 X94.400 Y104.012
G1 X94.400 Y95.987 F300.000 E3.43042
G1 X105.600 Y95.987 E3.62848
G1 X105.600 Y104.012 E3.77039
G1 X94.475 Y104.012 E3.96712
G1 X94.400 Y104.012 E3.96845
G1 X93.900 Y104.512 F7800.000
G1 X93.900 Y95.487 F900.000 E4.12805
G1 X106.100 Y95.487 E4.34379
G1 X106.100 Y104.512 E4.50339
G1 X93.975 Y104.512 E4.71780
G1 X93.900 Y104.512 E4.71913
G1 X94.150 Y104.079 F7800.000
G1 X96.737 Y103.512
G1 X94.675 Y103.512 F1500.000 E4.75573
G1 X94.675 Y103.010 E4.76464
G1 X105.325 Y103.010 E4.95366
G1 X105.325 Y102.509 E4.96257
G1 X94.675 Y102.509 E5.15160
G1 X94.675 Y102.007 E5.16050
G1 X96.691 Y102.007 E5.19628
G1 X96.959 Y102.007 F7800.000
G1 X105.325 Y102.007 F1500.000 E5.34476
G1 X105.325 Y101.505 E5.35367
G1 X97.984 Y101.505 E5.48396
G1 X98.389 Y101.003 E5.49541
G1 X105.325 Y101.003 E5.61852
G1 X105.325 Y100.501 E5.62742
G1 X98.588 Y100.501 E5.74699
G1 X98.655 Y99.999 E5.75597
G1 X105.325 Y99.999 E5.87437
G1 X105.325 Y99.498 E5.88328
G1 X98.588 Y99.498 E6.00285
G1 X98.389 Y98.996 E6.01243
G1 X105.325 Y98.996 E6.13554
G1 X105.325 Y98.494 E6.14444
G1 X97.984 Y98.494 E6.27474
G1 X96.956 Y97.992 E6.29504
G1 X105.325 Y97.992 E6.44357
G1 X105.325 Y97.490 E6.45247
G1 X94.675 Y97.490 E6.64150
G1 X94.675 Y97.992 E6.65041
G1 X96.694 Y97.992 E6.68624
G1 X95.666 Y98.494 E6.70654
G1 X94.675 Y98.494 E6.72414
G1 X94.770 Y98.996 E6.73320
G1 X95.253 Y98.996 E6.74177
G1 X95.253 Y101.003 F7800.000
G1 X94.772 Y101.003 F1500.000 E6.75030
G1 X94.675 Y101.505 E6.75937
G1 X95.666 Y101.505 E6.77696
G1 X94.675 Y96.988 F7800.000
G1 X105.325 Y96.988 F1500.000 E6.96598
G1 X105.325 Y96.487 E6.97489
G1 X103.276 Y96.487 E7.01125
G1 X94.912 Y100.683 F7800.000
G1 X94.638 Y100.683 F600.000 E7.01456
G1 X94.638 Y100.341 E7.01868
G1 X95.078 Y100.341 E7.02399
G1 X95.033 Y100.000 E7.02815
G1 X94.638 Y100.000 E7.03292
G1 X94.638 Y99.658 E7.03704
G1 X95.078 Y99.658 E7.04235
G1 X94.912 Y99.317 E7.04694
G1 X94.638 Y99.317 E7.05024
M106 S255
G1 Z0.500 F7800.000
G1 X95.669 Y99.690
G1 X95.788 Y99.401 F600.000 E7.05849
G1 X95.979 Y99.153 E7.06674
G1 X96.226 Y98.963 E7.07499
G1 X96.452 Y98.870 E7.08142
G1 X96.515 Y98.843 E7.08324
G1 X96.825 Y98.802 E7.09149
G1 X97.135 Y98.843 E7.09974
G1 X97.424 Y98.963 E7.10799
G1 X97.672 Y99.153 E7.11624
G1 X97.862 Y99.401 E7.12449
G1 X97.981 Y99.690 E7.13274
G1 X98.022 Y100.000 E7.14099
G1 X97.982 Y100.309 E7.14924
G1 X97.862 Y100.598 E7.15749
G1 X97.672 Y100.846 E7.16574
G1 X97.424 Y101.036 E7.17399
G1 X97.360 Y101.063 E7.17581
G1 X97.135 Y101.156 E7.18224
G1 X96.825 Y101.197 E7.19049
G1 X96.515 Y101.156 E7.19874
G1 X96.227 Y101.036 E7.20699
G1 X95.979 Y100.846 E7.21524
G1 X95.788 Y100.598 E7.22349
G1 X95.669 Y100.310 E7.23174
G1 X95.628 Y100.000 E7.23999
G1 X95.654 Y99.801 E7.24528
G1 X95.669 Y99.690 E7.24824
G1 X95.164 Y99.140 F7800.000
G1 X94.050 Y95.637
G1 X105.950 Y95.637 F600.000 E7.56236
G1 X105.950 Y104.362 E7.79267
G1 X94.050 Y104.362 E8.10679
G1 X94.050 Y95.749 E8.33414
G1 X94.050 Y95.637 E8.33710
G1 X94.796 Y98.135 F7800.000
G1 X94.796 Y96.048 F833.541 E8.39622
G1 X95.597 Y96.048 E8.41889
G1 X95.597 Y98.841 E8.49799
G1 X96.397 Y98.442 F7800.000
G1 X96.397 Y96.048 F833.541 E8.56579
G1 X97.198 Y96.048 E8.58846
G1 X97.198 Y98.435 E8.65605
G1 X97.999 Y98.799 E8.68096
G1 X97.999 Y96.047 E8.75888
G1 X95.597 Y103.952 F7800.000
G1 X95.597 Y101.158 F833.541 E8.83799
G1 X96.397 Y101.557 E8.86332
G1 X96.397 Y103.952 E8.93112
G1 X97.198 Y103.952 E8.95379
G1 X97.198 Y101.565 E9.02138
G1 X97.999 Y101.200 E9.04629
G1 X97.999 Y103.952 E9.12420
G1 X98.799 Y103.952 E9.14687
G1 X98.799 Y96.047 E9.37068
G1 X99.600 Y96.047 E9.39335
G1 X99.600 Y103.952 E9.61717
G1 X100.400 Y103.952 E9.63984
G1 X100.400 Y96.047 E9.86365
G1 X101.201 Y96.047 E9.88632
G1 X101.201 Y103.952 E10.11013
G1 X102.002 Y103.951 E10.13280
G1 X102.002 Y96.047 E10.35661
G1 X102.802 Y96.047 E10.37928
G1 X102.802 Y103.951 E10.60309
G1 X103.603 Y103.951 E10.62576
G1 X103.603 Y96.047 E10.84957
G1 X104.403 Y96.047 E10.87224
G1 X104.403 Y103.951 E11.09605
G1 X105.204 Y103.951 E11.11872
G1 X105.204 Y101.736 E11.18144
G1 X94.834 Y99.664 F7800.000
G1 X94.834 Y100.336 F600.000 E11.19917
G1 Z0.750 F7800.000
G1 X95.658 Y100.231
G1 X95.628 Y100.000 F600.000 E11.20532
G1 X95.669 Y99.690 E11.21357
G1 X95.788 Y99.401 E11.22182
G1 X95.978 Y99.153 E11.23007
G1 X96.226 Y98.963 E11.23832
G1 X96.515 Y98.843 E11.24657
G1 X96.825 Y98.803 E11.25482
G1 X97.135 Y98.843 E11.26307
G1 X97.424 Y98.963 E11.27132
G1 X97.672 Y99.153 E11.27957
G1 X97.862 Y99.401 E11.28782
G1 X97.981 Y99.690 E11.29607
G1 X98.022 Y100.000 E11.30432
G1 X97.982 Y100.310 E11.31257
G1 X97.862 Y100.598 E11.32082
G1 X97.672 Y100.846 E11.32907
G1 X97.608 Y100.895 E11.33117
G1 X97.424 Y101.037 E11.33732
G1 X97.135 Y101.156 E11.34557
G1 X96.825 Y101.197 E11.35381
G1 X96.515 Y101.156 E11.36206
G1 X96.227 Y101.037 E11.37031
G1 X95.979 Y100.846 E11.37856
G1 X95.788 Y100.598 E11.38681
G1 X95.681 Y100.339 E11.39421
G1 X95.658 Y100.231 E11.39715
G1 X94.951 Y99.994 F7800.000
G1 X94.050 Y103.513
G1 X94.050 Y95.637 F600.000 E11.60504
G1 X105.950 Y95.637 E11.91916
G1 X105.950 Y104.362 E12.14947
G1 X94.050 Y104.362 E12.46359
G1 X94.050 Y103.625 E12.48306
G1 X94.050 Y103.513 E12.48601
G1 X96.748 Y103.616 F7800.000
G1 X94.461 Y103.616 F776.432 E12.55104
G1 X94.461 Y102.812 E12.57388
G1 X105.540 Y102.812 E12.88880
G1 X105.540 Y102.009 E12.91164
G1 X94.461 Y102.009 E13.22655
G1 X94.461 Y101.205 E13.24940
G1 X95.649 Y101.205 E13.28318
G1 X98.001 Y101.205 F7800.000
G1 X105.540 Y101.205 F776.432 E13.49746
G1 X105.540 Y100.401 E13.52030
G1 X98.386 Y100.401 E13.72363
G1 X98.386 Y99.598 F7800.000
G1 X105.540 Y99.598 F776.432 E13.92696
G1 X105.540 Y98.794 E13.94980
G1 X98.001 Y98.794 E14.16409
G1 X95.649 Y98.794 F7800.000
G1 X94.460 Y98.794 F776.432 E14.19788
G1 X94.460 Y97.990 E14.22072
G1 X105.540 Y97.990 E14.53564
G1 X105.540 Y97.187 E14.55848
G1 X94.460 Y97.187 E14.87339
G1 X103.354 Y96.383 F7800.000
G1 X105.539 Y96.383 F776.432 E14.93552
G1 X95.159 Y100.003 F7800.000
G1 X94.487 Y100.003 F600.000 E14.95326
G1 Z1.000 F7800.000
G1 X95.628 Y100.000
G1 X95.669 Y99.690 F600.000 E14.96151
G1 X95.788 Y99.401 E14.96976
G1 X95.978 Y99.153 E14.97801
G1 X96.226 Y98.963 E14.98626
G1 X96.515 Y98.843 E14.99451
G1 X96.825 Y98.803 E15.00276
G1 X97.135 Y98.843 E15.01101
G1 X97.424 Y98.963 E15.01926
G1 X97.672 Y99.153 E15.02751
G1 X97.862 Y99.401 E15.03576
G1 X97.981 Y99.690 E15.04400
G1 X98.022 Y100.000 E15.05225
G1 X97.981 Y100.310 E15.06050
G1 X97.862 Y100.598 E15.06875
G1 X97.672 Y100.846 E15.07700
G1 X97.424 Y101.037 E15.08525
G1 X97.340 Y101.071 E15.08765
G1 X97.135 Y101.156 E15.09350
G1 X96.825 Y101.197 E15.10175
G1 X96.515 Y101.156 E15.11000
G1 X96.227 Y101.037 E15.11825
G1 X95.979 Y100.846 E15.12650
G1 X95.788 Y100.598 E15.13475
G1 X95.669 Y100.310 E15.14300
G1 X95.642 Y100.111 E15.14830
G1 X95.628 Y100.000 E15.15125
G1 X94.998 Y99.599 F7800.000
G1 X94.050 Y103.013
G1 X94.050 Y95.637 F600.000 E15.34595
G1 X105.950 Y95.637 E15.66007
G1 X105.950 Y104.362 E15.89038
G1 X94.050 Y104.362 E16.20450
G1 X94.050 Y103.125 E16.23716
G1 X94.050 Y103.013 E16.24012
G1 X95.597 Y103.952 F7800.000
G1 X95.597 Y101.158 F829.991 E16.31922
G1 X96.397 Y101.558 E16.34456
G1 X96.397 Y103.952 E16.41236
G1 X97.198 Y103.952 E16.43502
G1 X97.198 Y101.565 E16.50262
G1 X97.999 Y101.200 E16.52753
G1 X97.999 Y103.952 E16.60544
G1 X98.799 Y103.952 E16.62811
G1 X98.799 Y96.048 E16.85192
G1 X99.600 Y96.048 E16.87459
G1 X99.600 Y103.952 E17.09840
G1 X100.400 Y103.952 E17.12107
G1 X100.400 Y96.047 E17.34488
G1 X101.201 Y96.047 E17.36755
G1 X101.201 Y103.952 E17.59136
G1 X102.002 Y103.952 E17.61403
G1 X102.002 Y96.047 E17.83784
G1 X102.802 Y96.047 E17.86051
G1 X102.802 Y103.952 E18.08432
G1 X103.603 Y103.951 E18.10699
G1 X103.603 Y96.047 E18.33081
G1 X104.403 Y96.047 E18.35348
G1 X104.403 Y103.951 E18.57729
G1 X105.204 Y103.951 E18.59996
G1 X105.204 Y101.736 E18.66267
G1 X97.999 Y98.799 F7800.000
G1 X97.999 Y96.048 F829.991 E18.74059
G1 X97.198 Y96.048 E18.76326
G1 X97.198 Y98.435 E18.83085
G1 X96.397 Y98.442 F7800.000
G1 X96.397 Y96.048 F829.991 E18.89865
G1 X95.597 Y96.048 E18.92132
G1 X95.597 Y98.841 E19.00042
G1 X94.796 Y98.128 F7800.000
G1 X94.796 Y96.048 F829.991 E19.05932
G1 X94.834 Y99.664 F7800.000
G1 X94.834 Y100.336 F600.000 E19.07706
G1 Z1.250 F7800.000
G1 X95.655 Y100.209
G1 X95.628 Y100.000 F600.000 E19.08263
G1 X95.669 Y99.690 E19.09088
G1 X95.788 Y99.401 E19.09913
G1 X95.978 Y99.153 E19.10738
G1 X96.146 Y99.025 E19.11295
G1 X96.226 Y98.963 E19.11563
G1 X96.515 Y98.843 E19.12388
G1 X96.825 Y98.803 E19.13213
G1 X97.135 Y98.843 E19.14038
G1 X97.424 Y98.963 E19.14863
G1 X97.672 Y99.153 E19.15688
G1 X97.800 Y99.321 E19.16245
G1 X97.862 Y99.401 E19.16513
G1 X97.981 Y99.690 E19.17338
