; generated by Slic3r 0.9.8 on 2013-07-04 at 21:15:37

; layer_height = .25
; perimeters = 1
; top_solid_layers = 4
; bottom_solid_layers = 4
; fill_density = .9
; perimeter_speed = 30
; infill_speed = 40
; travel_speed = 130
; scale = 1
; nozzle_diameter = 0.5
; filament_diameter = 3
; extrusion_multiplier = 1
; perimeters extrusion width = 0.80mm
; infill extrusion width = 0.80mm
; first layer extrusion width = 0.50mm

M107
M104 S220 ; set temperature
G28 ; home all axes
M109 S220 ; wait for temperature to be reached
G90 ; use absolute coordinates
G21 ; set units to millimeters
G92 E0
M82 ; use absolute distances for extrusion
G1 Z0.250 F7800.000
G1 X114.590 Y118.362
G1 X114.040 Y118.982 F900.000 E0.01466
G1 X113.640 Y119.352 E0.02429
G1 X112.980 Y119.852 E0.03893
G1 X112.270 Y120.272 E0.05352
G1 X111.510 Y120.602 E0.06817
G1 X110.720 Y120.842 E0.08278
G1 X110.460 Y120.902 E0.08749
G1 X109.910 Y120.982 E0.09732
G1 X109.640 Y121.012 E0.10213
G1 X109.090 Y121.032 E0.11186
G1 X90.890 Y121.032 E0.43371
G1 X90.340 Y121.012 E0.44344
G1 X90.070 Y120.982 E0.44824
G1 X89.520 Y120.902 E0.45807
G1 X88.730 Y120.692 E0.47253
G1 X88.210 Y120.502 E0.48232
G1 X87.470 Y120.142 E0.49687
G1 X87.000 Y119.852 E0.50663
G1 X86.340 Y119.352 E0.52128
G1 X85.940 Y118.982 E0.53091
G1 X85.390 Y118.362 E0.54557
G1 X85.070 Y117.922 E0.55519
G1 X84.780 Y117.452 E0.56496
G1 X84.530 Y116.962 E0.57468
G1 X84.320 Y116.452 E0.58444
G1 X84.150 Y115.932 E0.59411
G1 X84.020 Y115.402 E0.60376
G1 X83.910 Y114.582 E0.61839
G1 X83.890 Y114.032 E0.62813
G1 X83.890 Y85.952 E1.12469
G1 X83.910 Y85.402 E1.13442
G1 X84.020 Y84.582 E1.14905
G1 X84.150 Y84.052 E1.15870
G1 X84.320 Y83.532 E1.16838
G1 X84.650 Y82.772 E1.18303
G1 X85.070 Y82.062 E1.19762
G1 X85.570 Y81.402 E1.21226
G1 X85.940 Y81.002 E1.22190
G1 X86.340 Y80.632 E1.23153
G1 X87.000 Y80.132 E1.24617
G1 X87.710 Y79.712 E1.26076
G1 X88.470 Y79.382 E1.27541
G1 X89.260 Y79.142 E1.29001
G1 X89.520 Y79.082 E1.29473
G1 X90.070 Y79.002 E1.30456
G1 X90.340 Y78.972 E1.30937
G1 X90.890 Y78.952 E1.31910
G1 X109.090 Y78.952 E1.64094
G1 X109.640 Y78.972 E1.65068
G1 X109.910 Y79.002 E1.65548
G1 X110.460 Y79.082 E1.66531
G1 X111.250 Y79.292 E1.67976
G1 X111.770 Y79.482 E1.68956
G1 X112.510 Y79.842 E1.70411
G1 X112.980 Y80.132 E1.71387
G1 X113.640 Y80.632 E1.72852
G1 X114.040 Y81.002 E1.73815
G1 X114.590 Y81.622 E1.75281
G1 X114.910 Y82.062 E1.76243
G1 X115.200 Y82.532 E1.77220
G1 X115.450 Y83.022 E1.78192
G1 X115.660 Y83.532 E1.79168
G1 X115.830 Y84.052 E1.80135
G1 X115.960 Y84.582 E1.81100
G1 X116.070 Y85.402 E1.82563
G1 X116.090 Y85.952 E1.83536
G1 X116.090 Y114.032 E2.33193
G1 X116.070 Y114.582 E2.34166
G1 X115.960 Y115.402 E2.35629
G1 X115.900 Y115.662 E2.36101
G1 X115.750 Y116.192 E2.37075
G1 X115.560 Y116.712 E2.38054
G1 X115.200 Y117.452 E2.39509
G1 X114.910 Y117.922 E2.40486
G1 X114.634 Y118.302 E2.41315
G1 X114.590 Y118.362 E2.41448
G1 X114.120 Y118.142 F7800.000
G1 X113.960 Y118.342 F900.000 E2.41901
G1 X113.400 Y118.902 E2.43301
G1 X112.780 Y119.382 E2.44688
G1 X112.110 Y119.792 E2.46077
G1 X111.640 Y120.012 E2.46995
G1 X111.150 Y120.202 E2.47924
G1 X110.390 Y120.402 E2.49314
G1 X110.130 Y120.452 E2.49782
G1 X109.610 Y120.512 E2.50708
G1 X109.090 Y120.532 E2.51628
G1 X90.890 Y120.532 E2.83813
G1 X90.370 Y120.512 E2.84733
G1 X89.850 Y120.452 E2.85659
G1 X89.330 Y120.342 E2.86599
G1 X88.830 Y120.202 E2.87517
G1 X88.590 Y120.112 E2.87970
G1 X87.870 Y119.792 E2.89363
G1 X87.200 Y119.382 E2.90752
G1 X86.580 Y118.902 E2.92139
G1 X86.020 Y118.342 E2.93539
G1 X85.690 Y117.932 E2.94470
G1 X85.540 Y117.722 E2.94927
G1 X85.130 Y117.052 E2.96316
G1 X84.810 Y116.332 E2.97709
G1 X84.720 Y116.092 E2.98162
G1 X84.520 Y115.332 E2.99552
G1 X84.470 Y115.072 E3.00020
G1 X84.410 Y114.552 E3.00946
G1 X84.390 Y114.032 E3.01866
G1 X84.390 Y85.952 E3.51522
G1 X84.410 Y85.432 E3.52443
G1 X84.470 Y84.912 E3.53368
G1 X84.580 Y84.392 E3.54308
G1 X84.720 Y83.892 E3.55226
G1 X84.810 Y83.652 E3.55680
G1 X85.020 Y83.162 E3.56622
G1 X85.260 Y82.702 E3.57540
G1 X85.690 Y82.052 E3.58918
G1 X86.020 Y81.642 E3.59849
G1 X86.580 Y81.082 E3.61249
G1 X86.990 Y80.752 E3.62180
G1 X87.200 Y80.602 E3.62636
G1 X87.870 Y80.192 E3.64025
G1 X88.340 Y79.972 E3.64943
G1 X88.830 Y79.782 E3.65873
G1 X89.590 Y79.582 E3.67262
G1 X89.850 Y79.532 E3.67730
G1 X90.370 Y79.472 E3.68656
G1 X90.890 Y79.452 E3.69576
G1 X109.090 Y79.452 E4.01761
G1 X109.610 Y79.472 E4.02681
G1 X110.130 Y79.532 E4.03607
G1 X110.650 Y79.642 E4.04547
G1 X111.150 Y79.782 E4.05465
G1 X111.390 Y79.872 E4.05918
G1 X112.110 Y80.192 E4.07312
G1 X112.780 Y80.602 E4.08701
G1 X113.400 Y81.082 E4.10087
G1 X113.960 Y81.642 E4.11488
G1 X114.290 Y82.052 E4.12419
G1 X114.440 Y82.262 E4.12875
G1 X114.850 Y82.932 E4.14264
G1 X115.170 Y83.652 E4.15657
G1 X115.260 Y83.892 E4.16111
G1 X115.460 Y84.652 E4.17500
G1 X115.510 Y84.912 E4.17968
G1 X115.570 Y85.432 E4.18894
G1 X115.590 Y85.952 E4.19814
G1 X115.590 Y114.032 E4.69471
G1 X115.570 Y114.552 E4.70391
G1 X115.510 Y115.072 E4.71317
G1 X115.400 Y115.592 E4.72257
G1 X115.260 Y116.092 E4.73175
G1 X115.070 Y116.582 E4.74104
G1 X114.850 Y117.052 E4.75022
G1 X114.440 Y117.722 E4.76411
G1 X114.167 Y118.084 E4.77212
G1 X114.120 Y118.142 E4.77345
G1 X95.126 Y94.951 F7800.000
G1 X94.745 Y95.243 F300.000 E4.78194
G1 X94.301 Y95.427 E4.79043
G1 X93.825 Y95.490 E4.79892
G1 X93.349 Y95.427 E4.80742
G1 X92.905 Y95.243 E4.81591
G1 X92.563 Y94.981 E4.82353
G1 X92.232 Y94.570 E4.83287
G1 X92.048 Y94.126 E4.84136
G1 X91.985 Y93.650 E4.84985
G1 X92.048 Y93.174 E4.85835
G1 X92.232 Y92.730 E4.86684
G1 X92.524 Y92.349 E4.87533
G1 X92.866 Y92.087 E4.88295
G1 X93.349 Y91.873 E4.89229
G1 X93.825 Y91.810 E4.90078
G1 X94.301 Y91.873 E4.90927
G1 X94.745 Y92.057 E4.91777
G1 X95.126 Y92.349 E4.92626
G1 X95.418 Y92.730 E4.93475
G1 X95.602 Y93.174 E4.94325
G1 X95.665 Y93.650 E4.95174
G1 X95.602 Y94.126 E4.96023
G1 X95.418 Y94.570 E4.96872
G1 X95.171 Y94.891 E4.97589
G1 X95.126 Y94.951 E4.97722
G1 X95.234 Y95.439 F7800.000
G1 X93.825 Y104.510
G1 X94.301 Y104.573 F300.000 E4.98571
G1 X94.745 Y104.757 E4.99420
G1 X95.126 Y105.049 E5.00269
G1 X95.418 Y105.430 E5.01119
G1 X95.602 Y105.874 E5.01968
G1 X95.665 Y106.350 E5.02817
G1 X95.602 Y106.826 E5.03666
G1 X95.418 Y107.270 E5.04516
G1 X95.126 Y107.651 E5.05365
G1 X94.745 Y107.943 E5.06214
G1 X94.301 Y108.127 E5.07064
G1 X93.825 Y108.190 E5.07913
G1 X93.349 Y108.127 E5.08762
G1 X92.905 Y107.943 E5.09611
G1 X92.524 Y107.651 E5.10461
G1 X92.232 Y107.270 E5.11310
G1 X92.048 Y106.826 E5.12159
G1 X91.985 Y106.350 E5.13008
G1 X92.048 Y105.874 E5.13858
G1 X92.232 Y105.430 E5.14707
G1 X92.524 Y105.049 E5.15556
G1 X92.905 Y104.757 E5.16405
G1 X93.349 Y104.573 E5.17255
G1 X93.751 Y104.520 E5.17971
G1 X93.825 Y104.510 E5.18104
G1 X94.094 Y104.089 F7800.000
G1 X96.129 Y107.165
G1 X96.250 Y107.206 F300.000 E5.18330
G1 X96.250 Y113.537 E5.29526
G1 X91.400 Y113.537 E5.38103
G1 X91.400 Y107.206 E5.49299
G1 X91.521 Y107.165 E5.49526
G1 X92.168 Y108.007 E5.51403
G1 X92.653 Y108.380 E5.52485
G1 X93.218 Y108.614 E5.53567
G1 X93.825 Y108.694 E5.54649
G1 X94.432 Y108.614 E5.55731
G1 X94.997 Y108.380 E5.56814
G1 X95.482 Y108.007 E5.57896
G1 X96.083 Y107.225 E5.59641
G1 X96.129 Y107.165 E5.59773
G1 X96.129 Y105.535 F7800.000
G1 X95.482 Y104.693 F300.000 E5.61651
G1 X94.997 Y104.320 E5.62733
G1 X94.432 Y104.086 E5.63815
G1 X93.825 Y104.006 E5.64897
G1 X93.218 Y104.086 E5.65979
G1 X92.653 Y104.320 E5.67062
G1 X92.168 Y104.693 E5.68144
G1 X91.521 Y105.535 E5.70021
G1 X91.400 Y105.494 E5.70247
G1 X91.400 Y94.506 E5.89678
G1 X91.521 Y94.465 E5.89904
G1 X92.168 Y95.307 E5.91782
G1 X92.653 Y95.680 E5.92864
G1 X93.218 Y95.914 E5.93946
G1 X93.825 Y95.994 E5.95028
G1 X94.432 Y95.914 E5.96110
G1 X94.997 Y95.680 E5.97192
G1 X95.482 Y95.307 E5.98274
G1 X96.129 Y94.465 E6.00152
G1 X96.250 Y94.506 E6.00378
G1 X96.250 Y105.494 E6.19809
G1 X96.200 Y105.511 E6.19902
G1 X96.129 Y105.535 E6.20035
G1 X96.129 Y92.835 F7800.000
G1 X95.482 Y91.993 F300.000 E6.21913
G1 X94.997 Y91.620 E6.22995
G1 X94.432 Y91.386 E6.24077
G1 X93.825 Y91.306 E6.25159
G1 X93.218 Y91.386 E6.26241
G1 X92.653 Y91.620 E6.27323
G1 X92.168 Y91.993 E6.28405
G1 X91.521 Y92.835 E6.30283
G1 X91.400 Y92.794 E6.30509
G1 X91.400 Y86.462 E6.41705
G1 X96.250 Y86.462 E6.50282
G1 X96.250 Y92.794 E6.61478
G1 X96.200 Y92.811 E6.61572
G1 X96.129 Y92.835 E6.61704
G1 X96.750 Y85.962 F7800.000
G1 X96.750 Y114.037 F900.000 E7.11352
G1 X90.900 Y114.037 E7.21697
G1 X90.900 Y85.962 E7.71344
G1 X96.675 Y85.962 E7.81557
G1 X96.750 Y85.962 E7.81690
G1 X96.500 Y86.396 F7800.000
G1 X95.975 Y108.432
G1 X95.525 Y108.432 F1500.000 E7.82504
G1 X94.717 Y108.944 E7.84236
G1 X95.975 Y108.944 E7.86513
G1 X95.975 Y109.456 E7.87439
G1 X91.675 Y109.456 E7.95221
G1 X91.675 Y109.967 E7.96147
G1 X95.975 Y109.967 E8.03930
G1 X95.975 Y110.479 E8.04856
G1 X91.675 Y110.479 E8.12638
G1 X91.675 Y110.991 E8.13564
G1 X95.975 Y110.991 E8.21346
G1 X95.975 Y111.502 E8.22272
G1 X91.675 Y111.502 E8.30054
G1 X91.675 Y112.014 E8.30980
G1 X95.975 Y112.014 E8.38762
G1 X95.975 Y112.526 E8.39688
G1 X91.675 Y112.526 E8.47470
G1 X91.675 Y113.038 E8.48396
G1 X95.975 Y113.038 E8.56179
G1 X92.933 Y108.944 F7800.000
G1 X91.675 Y108.944 F1500.000 E8.58456
G1 X91.675 Y108.432 E8.59382
G1 X92.125 Y108.432 E8.60197
G1 X96.475 Y106.678 F7800.000
G1 X96.025 Y106.678 F600.000 E8.61242
G1 X96.025 Y106.022 E8.62765
G1 X96.475 Y106.022 E8.63811
G1 X95.975 Y104.268 F7800.000
G1 X95.525 Y104.268 F1500.000 E8.64610
G1 X95.975 Y103.766 E8.65807
G1 X94.740 Y103.766 E8.68000
G1 X95.975 Y103.264 E8.70368
G1 X91.675 Y103.264 E8.78004
G1 X91.675 Y103.766 E8.78895
G1 X92.910 Y103.766 E8.81089
G1 X92.125 Y104.268 E8.82743
G1 X91.675 Y104.268 E8.83543
G1 X91.675 Y102.762 F7800.000
G1 X95.975 Y102.762 F1500.000 E8.91178
G1 X95.975 Y102.259 E8.92070
G1 X91.675 Y102.259 E8.99706
G1 X91.675 Y101.757 E9.00597
G1 X95.975 Y101.757 E9.08233
G1 X95.975 Y101.255 E9.09124
G1 X91.675 Y101.255 E9.16760
G1 X91.675 Y100.753 E9.17652
G1 X95.975 Y100.753 E9.25288
G1 X95.975 Y100.251 E9.26179
G1 X91.675 Y100.251 E9.33815
G1 X91.675 Y99.749 E9.34706
G1 X95.975 Y99.749 E9.42342
G1 X95.975 Y99.247 E9.43234
G1 X91.675 Y99.247 E9.50869
G1 X91.675 Y98.745 E9.51761
G1 X95.975 Y98.745 E9.59397
G1 X95.975 Y98.243 E9.60288
G1 X91.675 Y98.243 E9.67924
G1 X91.675 Y97.741 E9.68816
G1 X95.975 Y97.741 E9.76451
G1 X95.975 Y97.239 E9.77343
G1 X91.675 Y97.239 E9.84979
G1 X91.675 Y96.737 E9.85870
G1 X95.975 Y96.737 E9.93506
G1 X95.975 Y96.234 E9.94398
G1 X94.740 Y96.234 E9.96591
G1 X95.525 Y95.732 E9.98247
G1 X95.975 Y95.732 E9.99046
G1 X92.910 Y96.234 F7800.000
G1 X91.675 Y96.234 F1500.000 E10.01240
G1 X91.675 Y95.732 E10.02131
G1 X92.125 Y95.732 E10.02931
G1 X91.625 Y106.678 F7800.000
G1 X91.175 Y106.678 F600.000 E10.03976
G1 X91.175 Y106.022 E10.05499
G1 X91.625 Y106.022 E10.06545
G1 X91.625 Y93.978 F7800.000
G1 X91.175 Y93.978 F600.000 E10.07590
G1 X91.175 Y93.322 E10.09113
G1 X91.625 Y93.322 E10.10159
G1 X96.475 Y93.978 F7800.000
G1 X96.025 Y93.978 F600.000 E10.11204
G1 X96.025 Y93.322 E10.12727
G1 X96.475 Y93.322 E10.13772
G1 X95.975 Y91.568 F7800.000
G1 X95.525 Y91.568 F1500.000 E10.14587
G1 X95.975 Y91.056 E10.15821
G1 X94.716 Y91.056 E10.18098
G1 X95.975 Y90.544 E10.20557
G1 X91.675 Y90.544 E10.28339
G1 X91.675 Y90.033 E10.29265
G1 X95.975 Y90.033 E10.37046
G1 X95.975 Y89.521 E10.37972
G1 X91.675 Y89.521 E10.45754
G1 X91.675 Y89.009 E10.46680
G1 X95.975 Y89.009 E10.54462
G1 X95.975 Y88.498 E10.55388
G1 X91.675 Y88.498 E10.63170
G1 X91.675 Y87.986 E10.64096
G1 X95.975 Y87.986 E10.71878
G1 X95.975 Y87.474 E10.72804
G1 X91.675 Y87.474 E10.80585
G1 X91.675 Y86.962 E10.81511
G1 X95.975 Y86.962 E10.89293
G1 X92.934 Y91.056 F7800.000
G1 X91.675 Y91.056 F1500.000 E10.91571
G1 X91.675 Y91.568 E10.92497
G1 X92.125 Y91.568 E10.93312
G1 X107.952 Y93.174 F7800.000
G1 X108.015 Y93.650 F300.000 E10.94161
G1 X107.952 Y94.126 E10.95010
G1 X107.768 Y94.570 E10.95859
G1 X107.476 Y94.951 E10.96709
G1 X107.134 Y95.213 E10.97471
G1 X106.651 Y95.427 E10.98404
G1 X106.175 Y95.490 E10.99254
G1 X105.699 Y95.427 E11.00103
G1 X105.255 Y95.243 E11.00952
G1 X104.874 Y94.951 E11.01802
G1 X104.563 Y94.524 E11.02735
G1 X104.398 Y94.126 E11.03497
G1 X104.335 Y93.650 E11.04347
G1 X104.398 Y93.174 E11.05196
G1 X104.582 Y92.730 E11.06045
G1 X104.874 Y92.349 E11.06894
G1 X105.255 Y92.057 E11.07744
G1 X105.699 Y91.873 E11.08593
G1 X106.175 Y91.810 E11.09442
G1 X106.651 Y91.873 E11.10291
G1 X107.095 Y92.057 E11.11141
G1 X107.476 Y92.349 E11.11990
G1 X107.768 Y92.730 E11.12839
G1 X107.923 Y93.105 E11.13556
G1 X107.952 Y93.174 E11.13689
G1 X108.429 Y93.324 F7800.000
G1 X106.651 Y104.573
G1 X107.095 Y104.757 F300.000 E11.14538
G1 X107.476 Y105.049 E11.15387
G1 X107.768 Y105.430 E11.16236
G1 X107.952 Y105.874 E11.17086
G1 X108.015 Y106.350 E11.17935
G1 X107.952 Y106.826 E11.18784
G1 X107.768 Y107.270 E11.19633
G1 X107.476 Y107.651 E11.20483
G1 X107.095 Y107.943 E11.21332
G1 X106.651 Y108.127 E11.22181
G1 X106.175 Y108.190 E11.23030
G1 X105.699 Y108.127 E11.23880
G1 X105.255 Y107.943 E11.24729
G1 X104.874 Y107.651 E11.25578
G1 X104.582 Y107.270 E11.26427
G1 X104.398 Y106.826 E11.27277
G1 X104.335 Y106.350 E11.28126
G1 X104.398 Y105.874 E11.28975
G1 X104.582 Y105.430 E11.29825
G1 X104.874 Y105.049 E11.30674
G1 X105.255 Y104.757 E11.31523
G1 X105.699 Y104.573 E11.32372
G1 X106.175 Y104.510 E11.33222
G1 X106.577 Y104.563 E11.33938
G1 X106.651 Y104.573 E11.34071
G1 X107.020 Y104.235 F7800.000
G1 X108.479 Y107.165
G1 X108.600 Y107.206 F300.000 E11.34297
G1 X108.600 Y113.537 E11.45493
G1 X103.750 Y113.537 E11.54070
G1 X103.750 Y107.206 E11.65266
G1 X103.871 Y107.165 E11.65492
G1 X104.518 Y108.007 E11.67370
G1 X105.003 Y108.380 E11.68452
G1 X105.568 Y108.614 E11.69534
G1 X106.175 Y108.694 E11.70616
G1 X106.782 Y108.614 E11.71698
G1 X107.347 Y108.380 E11.72781
G1 X107.832 Y108.007 E11.73863
G1 X108.433 Y107.225 E11.75608
G1 X108.479 Y107.165 E11.75740
G1 X108.479 Y105.535 F7800.000
G1 X107.832 Y104.693 F300.000 E11.77618
G1 X107.347 Y104.320 E11.78700
G1 X106.782 Y104.086 E11.79782
G1 X106.175 Y104.006 E11.80864
G1 X105.568 Y104.086 E11.81946
G1 X105.003 Y104.320 E11.83029
G1 X104.518 Y104.693 E11.84111
G1 X103.871 Y105.535 E11.85988
G1 X103.750 Y105.494 E11.86214
G1 X103.750 Y94.506 E12.05645
G1 X103.871 Y94.465 E12.05871
G1 X104.518 Y95.307 E12.07749
G1 X105.003 Y95.680 E12.08831
G1 X105.568 Y95.914 E12.09913
G1 X106.175 Y95.994 E12.10995
G1 X106.782 Y95.914 E12.12077
G1 X107.347 Y95.680 E12.13159
G1 X107.832 Y95.307 E12.14241
G1 X108.479 Y94.465 E12.16119
G1 X108.600 Y94.506 E12.16345
G1 X108.600 Y105.494 E12.35776
G1 X108.550 Y105.511 E12.35869
G1 X108.479 Y105.535 E12.36002
G1 X108.479 Y92.835 F7800.000
G1 X107.832 Y91.993 F300.000 E12.37880
G1 X107.347 Y91.620 E12.38962
G1 X106.782 Y91.386 E12.40044
G1 X106.175 Y91.306 E12.41126
G1 X105.568 Y91.386 E12.42208
G1 X105.003 Y91.620 E12.43290
G1 X104.518 Y91.993 E12.44372
G1 X103.871 Y92.835 E12.46250
G1 X103.750 Y92.794 E12.46476
G1 X103.750 Y86.462 E12.57672
G1 X108.600 Y86.462 E12.66249
G1 X108.600 Y92.794 E12.77445
G1 X108.550 Y92.811 E12.77539
G1 X108.479 Y92.835 E12.77671
G1 X109.100 Y85.962 F7800.000
G1 X109.100 Y114.037 F900.000 E13.27319
G1 X103.250 Y114.037 E13.37664
G1 X103.250 Y85.962 E13.87311
G1 X109.025 Y85.962 E13.97524
G1 X109.100 Y85.962 E13.97656
G1 X108.850 Y86.396 F7800.000
G1 X108.325 Y108.432
G1 X107.875 Y108.432 F1500.000 E13.98471
G1 X107.067 Y108.944 E14.00203
G1 X108.325 Y108.944 E14.02480
G1 X108.325 Y109.456 E14.03406
G1 X104.025 Y109.456 E14.11188
