; generated by Slic3r 0.9.8 on 2013-06-12 at 07:15:21

; layer_height = .25
; perimeters = 1
; top_solid_layers = 4
; bottom_solid_layers = 4
; fill_density = .9
; perimeter_speed = 30
; infill_speed = 40
; travel_speed = 130
; scale = 1
; nozzle_diameter = 0.5
; filament_diameter = 3
; extrusion_multiplier = 1
; perimeters extrusion width = 0.80mm
; infill extrusion width = 0.80mm
; first layer extrusion width = 0.50mm

M107
M104 S220 ; set temperature
G28 ; home all axes
M109 S220 ; wait for temperature to be reached
G90 ; use absolute coordinates
G21 ; set units to millimeters
G92 E0
M82 ; use absolute distances for extrusion
G1 Z0.250 F7800.000
G1 X122.066 Y116.865
G1 X121.326 Y117.225 F900.000 E0.01455
G1 X120.546 Y117.495 E0.02915
G1 X120.006 Y117.625 E0.03897
G1 X119.466 Y117.705 E0.04862
G1 X119.196 Y117.735 E0.05343
G1 X118.646 Y117.755 E0.06316
G1 X81.346 Y117.755 E0.72277
G1 X80.796 Y117.735 E0.73250
G1 X79.986 Y117.625 E0.74696
G1 X79.186 Y117.415 E0.76158
G1 X78.666 Y117.225 E0.77137
G1 X78.166 Y116.995 E0.78111
G1 X77.696 Y116.725 E0.79069
G1 X77.236 Y116.425 E0.80040
G1 X76.806 Y116.085 E0.81010
G1 X76.396 Y115.705 E0.81998
G1 X76.206 Y115.515 E0.82474
G1 X75.856 Y115.095 E0.83440
G1 X75.376 Y114.415 E0.84912
G1 X75.116 Y113.935 E0.85878
G1 X74.886 Y113.445 E0.86835
G1 X74.696 Y112.925 E0.87814
G1 X71.716 Y103.795 E1.04797
G1 X71.576 Y103.175 E1.05921
G1 X71.496 Y102.555 E1.07027
G1 X71.466 Y101.925 E1.08142
G1 X71.466 Y89.225 E1.30601
G1 X71.486 Y88.675 E1.31574
G1 X71.596 Y87.855 E1.33037
G1 X71.726 Y87.325 E1.34002
G1 X71.996 Y86.545 E1.35462
G1 X72.226 Y86.045 E1.36435
G1 X72.646 Y85.335 E1.37894
G1 X73.146 Y84.675 E1.39358
G1 X73.516 Y84.275 E1.40322
G1 X74.136 Y83.725 E1.41787
G1 X74.806 Y83.255 E1.43235
G1 X75.286 Y82.985 E1.44209
G1 X75.786 Y82.755 E1.45182
G1 X76.566 Y82.485 E1.46641
G1 X77.096 Y82.355 E1.47606
G1 X77.646 Y82.275 E1.48589
G1 X77.916 Y82.245 E1.49070
G1 X78.466 Y82.225 E1.50043
G1 X121.526 Y82.225 E2.26190
G1 X122.076 Y82.245 E2.27163
G1 X122.346 Y82.275 E2.27643
G1 X122.896 Y82.355 E2.28626
G1 X123.426 Y82.485 E2.29591
G1 X123.946 Y82.655 E2.30559
G1 X124.456 Y82.865 E2.31534
G1 X124.946 Y83.115 E2.32507
G1 X125.416 Y83.405 E2.33483
G1 X126.076 Y83.905 E2.34948
G1 X126.476 Y84.275 E2.35911
G1 X126.846 Y84.675 E2.36875
G1 X127.346 Y85.335 E2.38339
G1 X127.766 Y86.045 E2.39798
G1 X127.996 Y86.545 E2.40771
G1 X128.266 Y87.325 E2.42231
G1 X128.396 Y87.855 E2.43196
G1 X128.506 Y88.675 E2.44659
G1 X128.526 Y89.225 E2.45632
G1 X128.526 Y101.925 E2.68091
G1 X128.466 Y102.865 E2.69756
G1 X128.416 Y103.175 E2.70312
G1 X128.276 Y103.795 E2.71436
G1 X125.296 Y112.925 E2.88419
G1 X124.996 Y113.695 E2.89881
G1 X124.746 Y114.185 E2.90853
G1 X124.466 Y114.645 E2.91806
G1 X124.136 Y115.095 E2.92793
G1 X123.786 Y115.515 E2.93759
G1 X123.396 Y115.895 E2.94722
G1 X122.976 Y116.255 E2.95700
G1 X122.536 Y116.575 E2.96663
G1 X122.130 Y116.826 E2.97507
G1 X122.066 Y116.865 E2.97639
G1 X121.916 Y116.375 F7800.000
G1 X121.446 Y116.625 F900.000 E2.98581
G1 X120.966 Y116.825 E2.99500
G1 X120.206 Y117.065 E3.00910
G1 X119.956 Y117.125 E3.01364
G1 X119.436 Y117.205 E3.02295
G1 X119.176 Y117.235 E3.02757
G1 X118.646 Y117.255 E3.03695
G1 X81.346 Y117.255 E3.69656
G1 X80.816 Y117.235 E3.70594
G1 X80.556 Y117.205 E3.71057
G1 X80.036 Y117.125 E3.71987
G1 X79.526 Y116.995 E3.72918
G1 X79.026 Y116.825 E3.73852
G1 X78.546 Y116.625 E3.74772
G1 X78.076 Y116.375 E3.75713
G1 X77.636 Y116.095 E3.76635
G1 X77.016 Y115.605 E3.78033
G1 X76.636 Y115.235 E3.78971
G1 X76.286 Y114.845 E3.79897
G1 X75.976 Y114.415 E3.80835
G1 X75.696 Y113.975 E3.81757
G1 X75.346 Y113.265 E3.83157
G1 X75.166 Y112.775 E3.84080
G1 X72.286 Y103.945 E4.00504
G1 X72.126 Y103.375 E4.01551
G1 X72.026 Y102.805 E4.02575
G1 X71.996 Y102.505 E4.03108
G1 X71.966 Y101.925 E4.04135
G1 X71.966 Y89.225 E4.26593
G1 X71.986 Y88.705 E4.27514
G1 X72.046 Y88.185 E4.28439
G1 X72.156 Y87.665 E4.29379
G1 X72.296 Y87.165 E4.30297
G1 X72.486 Y86.675 E4.31227
G1 X72.706 Y86.205 E4.32144
G1 X73.116 Y85.535 E4.33534
G1 X73.596 Y84.915 E4.34920
G1 X74.156 Y84.355 E4.36321
G1 X74.566 Y84.025 E4.37251
G1 X75.216 Y83.595 E4.38630
G1 X75.446 Y83.465 E4.39097
G1 X75.916 Y83.245 E4.40014
G1 X76.406 Y83.055 E4.40944
G1 X76.906 Y82.915 E4.41862
G1 X77.426 Y82.805 E4.42802
G1 X77.946 Y82.745 E4.43728
G1 X78.466 Y82.725 E4.44648
G1 X121.526 Y82.725 E5.20795
G1 X122.046 Y82.745 E5.21715
G1 X122.566 Y82.805 E5.22641
G1 X123.086 Y82.915 E5.23580
G1 X123.586 Y83.055 E5.24499
G1 X124.076 Y83.245 E5.25428
G1 X124.546 Y83.465 E5.26346
G1 X125.216 Y83.875 E5.27735
G1 X125.836 Y84.355 E5.29121
G1 X126.396 Y84.915 E5.30522
G1 X126.726 Y85.325 E5.31453
G1 X127.156 Y85.975 E5.32831
G1 X127.286 Y86.205 E5.33298
G1 X127.506 Y86.675 E5.34216
G1 X127.696 Y87.165 E5.35145
G1 X127.836 Y87.665 E5.36063
G1 X127.946 Y88.185 E5.37003
G1 X128.006 Y88.705 E5.37929
G1 X128.026 Y89.225 E5.38849
G1 X128.026 Y101.925 E5.61308
G1 X127.996 Y102.505 E5.62335
G1 X127.966 Y102.805 E5.62868
G1 X127.866 Y103.375 E5.63891
G1 X127.706 Y103.945 E5.64938
G1 X124.826 Y112.775 E5.81363
G1 X124.646 Y113.265 E5.82286
G1 X124.296 Y113.975 E5.83685
G1 X123.866 Y114.635 E5.85078
G1 X123.536 Y115.045 E5.86009
G1 X123.166 Y115.425 E5.86947
G1 X122.776 Y115.775 E5.87874
G1 X122.356 Y116.095 E5.88808
G1 X121.980 Y116.335 E5.89597
G1 X121.916 Y116.375 E5.89730
G1 X118.046 Y110.265 F7800.000
G1 X81.954 Y110.265 F900.000 E6.53555
G1 X81.954 Y108.506 E6.56666
G1 X81.485 Y106.685 E6.59991
G1 X79.288 Y102.435 E6.68450
G1 X120.712 Y102.435 E7.41703
G1 X118.515 Y106.685 E7.50162
G1 X118.046 Y108.506 E7.53487
G1 X118.046 Y110.190 E7.56465
G1 X118.046 Y110.265 E7.56597
G1 X118.546 Y110.365 F7800.000
G1 X118.649 Y110.765 F900.000 E7.57327
G1 X81.351 Y110.765 E8.23286
G1 X81.454 Y110.365 E8.24016
G1 X81.454 Y108.569 E8.27192
G1 X81.014 Y106.864 E8.30305
G1 X78.467 Y101.935 E8.40117
G1 X121.533 Y101.935 E9.16274
G1 X118.986 Y106.864 E9.26086
G1 X118.546 Y108.569 E9.29199
G1 X118.546 Y110.290 E9.32242
G1 X118.546 Y110.365 E9.32375
G1 X118.161 Y110.684 F7800.000
G1 X118.046 Y97.565
G1 X81.954 Y97.565 F900.000 E9.96200
G1 X81.954 Y95.806 E9.99311
G1 X81.485 Y93.985 E10.02636
G1 X79.288 Y89.735 E10.11095
G1 X120.712 Y89.735 E10.84347
G1 X118.515 Y93.985 E10.92807
G1 X118.046 Y95.806 E10.96131
G1 X118.046 Y97.490 E10.99110
G1 X118.046 Y97.565 E10.99242
G1 X118.546 Y97.665 F7800.000
G1 X118.649 Y98.065 F900.000 E10.99972
G1 X81.351 Y98.065 E11.65931
G1 X81.454 Y97.665 E11.66661
G1 X81.454 Y95.869 E11.69837
G1 X81.014 Y94.164 E11.72950
G1 X78.467 Y89.235 E11.82762
G1 X121.533 Y89.235 E12.58919
G1 X118.986 Y94.164 E12.68731
G1 X118.546 Y95.869 E12.71844
G1 X118.546 Y97.590 E12.74887
G1 X118.546 Y97.665 E12.75020
G1 X118.161 Y97.984 F7800.000
G1 X120.116 Y102.935
G1 X79.884 Y102.935 F1500.000 E13.49768
G1 X80.156 Y103.461 E13.50866
G1 X119.844 Y103.461 E14.24606
G1 X119.573 Y103.986 E14.25705
G1 X80.427 Y103.986 E14.98436
G1 X80.699 Y104.511 E14.99534
G1 X119.301 Y104.511 E15.71256
G1 X119.030 Y105.037 E15.72355
G1 X80.970 Y105.037 E16.43068
G1 X81.242 Y105.562 E16.44166
G1 X118.758 Y105.562 E17.13870
G1 X118.487 Y106.087 E17.14969
G1 X81.513 Y106.087 E17.83664
G1 X81.757 Y106.613 E17.84740
G1 X118.243 Y106.613 E18.52529
G1 X118.107 Y107.138 E18.53537
G1 X81.893 Y107.138 E19.20823
G1 X82.028 Y107.663 E19.21831
G1 X117.972 Y107.663 E19.88614
G1 X117.837 Y108.189 E19.89622
G1 X82.163 Y108.189 E20.55902
G1 X82.229 Y108.714 F7800.000
G1 X117.771 Y108.714 F1500.000 E21.21939
G1 X117.771 Y109.239 E21.22915
G1 X82.229 Y109.239 E21.88952
G1 X82.229 Y109.765 E21.89928
G1 X117.771 Y109.765 E22.55965
G1 X117.771 Y97.065 F7800.000
G1 X82.229 Y97.065 F1500.000 E23.22002
G1 X82.229 Y96.539 E23.22978
G1 X117.771 Y96.539 E23.89015
G1 X117.771 Y96.014 E23.89991
G1 X82.229 Y96.014 E24.56028
G1 X82.163 Y95.489 F7800.000
G1 X117.837 Y95.489 F1500.000 E25.22308
G1 X117.972 Y94.963 E25.23316
G1 X82.028 Y94.963 E25.90099
G1 X81.893 Y94.438 E25.91107
G1 X118.107 Y94.438 E26.58393
G1 X118.243 Y93.913 E26.59401
G1 X81.757 Y93.913 E27.27190
G1 X81.513 Y93.387 E27.28266
G1 X118.487 Y93.387 E27.96961
G1 X118.758 Y92.862 E27.98060
G1 X81.242 Y92.862 E28.67764
G1 X80.970 Y92.337 E28.68863
G1 X119.030 Y92.337 E29.39575
G1 X119.301 Y91.811 E29.40674
G1 X80.699 Y91.811 E30.12396
G1 X80.427 Y91.286 E30.13495
G1 X119.573 Y91.286 E30.86225
G1 X119.844 Y90.761 E30.87324
G1 X80.156 Y90.761 E31.61064
G1 X79.884 Y90.235 E31.62163
G1 X120.116 Y90.235 E32.36911
M106 S223
G1 Z0.500 F7800.000
G1 X121.287 Y102.085
G1 X118.845 Y106.810 F1800.000 E32.50951
G1 X118.396 Y108.550 E32.55692
G1 X118.396 Y110.615 E32.61143
G1 X81.604 Y110.615 E33.58262
G1 X81.604 Y108.550 E33.63712
G1 X81.155 Y106.810 E33.68454
G1 X78.713 Y102.085 E33.82494
G1 X121.175 Y102.085 E34.94578
G1 X121.287 Y102.085 E34.94874
G1 X118.396 Y97.915 F7800.000
G1 X81.604 Y97.915 F1800.000 E35.91993
G1 X81.604 Y95.850 E35.97443
G1 X81.155 Y94.110 E36.02185
G1 X78.713 Y89.385 E36.16225
G1 X121.287 Y89.385 E37.28604
G1 X118.845 Y94.110 E37.42644
G1 X118.396 Y95.850 E37.47386
G1 X118.396 Y97.803 E37.52541
G1 X118.396 Y97.915 E37.52836
G1 X120.061 Y102.496 F7800.000
G1 X120.061 Y103.168 F3000.000 E37.54635
G1 X119.304 Y102.496 E37.57345
G1 X119.304 Y104.633 E37.63066
G1 X118.547 Y106.097 E37.67480
G1 X118.547 Y102.496 E37.77122
G1 X117.790 Y102.496 E37.79149
G1 X117.790 Y108.249 E37.94551
G1 X117.033 Y110.204 E38.00165
G1 X117.033 Y102.496 E38.20803
G1 X116.276 Y102.496 E38.22830
G1 X116.276 Y110.204 E38.43468
G1 X115.519 Y110.204 E38.45495
G1 X115.519 Y102.496 E38.66132
G1 X114.762 Y102.496 E38.68160
G1 X114.762 Y110.204 E38.88797
G1 X114.005 Y110.204 E38.90824
G1 X114.005 Y102.496 E39.11462
G1 X113.248 Y102.496 E39.13489
G1 X113.248 Y110.204 E39.34127
G1 X112.491 Y110.204 E39.36153
G1 X112.491 Y102.496 E39.56791
G1 X111.734 Y102.496 E39.58818
G1 X111.734 Y110.204 E39.79456
G1 X110.977 Y110.204 E39.81482
G1 X110.977 Y102.496 E40.02120
G1 X110.220 Y102.496 E40.04147
G1 X110.220 Y110.204 E40.24785
G1 X109.463 Y110.204 E40.26812
G1 X109.463 Y102.496 E40.47449
G1 X108.706 Y102.496 E40.49476
G1 X108.706 Y110.204 E40.70114
G1 X107.949 Y110.204 E40.72141
G1 X107.949 Y102.496 E40.92779
G1 X107.192 Y102.496 E40.94806
G1 X107.192 Y110.204 E41.15444
G1 X106.435 Y110.204 E41.17470
G1 X106.435 Y102.496 E41.38108
G1 X105.678 Y102.496 E41.40135
G1 X105.678 Y110.204 E41.60773
G1 X104.921 Y110.204 E41.62799
G1 X104.921 Y102.496 E41.83437
G1 X104.164 Y102.496 E41.85464
G1 X104.164 Y110.204 E42.06102
G1 X103.407 Y110.204 E42.08129
G1 X103.407 Y102.496 E42.28766
G1 X102.650 Y102.496 E42.30793
G1 X102.650 Y110.204 E42.51431
G1 X101.893 Y110.204 E42.53458
G1 X101.893 Y102.496 E42.74096
G1 X101.135 Y102.496 E42.76123
G1 X101.135 Y110.204 E42.96761
G1 X100.378 Y110.204 E42.98787
G1 X100.378 Y102.496 E43.19425
G1 X99.621 Y102.496 E43.21452
G1 X99.621 Y110.204 E43.42090
G1 X98.864 Y110.204 E43.44116
G1 X98.864 Y102.496 E43.64754
G1 X98.107 Y102.496 E43.66781
G1 X98.107 Y110.204 E43.87419
G1 X97.350 Y110.204 E43.89446
G1 X97.350 Y102.496 E44.10083
G1 X96.593 Y102.496 E44.12110
G1 X96.593 Y110.204 E44.32748
G1 X95.836 Y110.204 E44.34775
G1 X95.836 Y102.496 E44.55413
G1 X95.079 Y102.496 E44.57439
G1 X95.079 Y110.204 E44.78077
G1 X94.322 Y110.204 E44.80104
G1 X94.322 Y102.496 E45.00742
G1 X93.565 Y102.496 E45.02769
G1 X93.565 Y110.204 E45.23407
G1 X92.808 Y110.204 E45.25433
G1 X92.808 Y102.496 E45.46071
G1 X92.051 Y102.496 E45.48098
G1 X92.051 Y110.204 E45.68736
G1 X91.294 Y110.204 E45.70763
G1 X91.294 Y102.496 E45.91400
G1 X90.537 Y102.496 E45.93427
G1 X90.537 Y110.204 E46.14065
G1 X89.780 Y110.204 E46.16092
G1 X89.780 Y102.496 E46.36730
G1 X89.023 Y102.496 E46.38756
G1 X89.023 Y110.204 E46.59394
G1 X88.266 Y110.204 E46.61421
G1 X88.266 Y102.496 E46.82059
G1 X87.509 Y102.496 E46.84086
G1 X87.509 Y110.204 E47.04724
G1 X86.752 Y110.204 E47.06751
G1 X86.752 Y102.496 E47.27388
G1 X85.995 Y102.496 E47.29415
G1 X85.995 Y110.204 E47.50053
G1 X85.238 Y110.204 E47.52080
G1 X85.238 Y102.496 E47.72718
G1 X84.481 Y102.496 E47.74744
G1 X84.481 Y110.204 E47.95382
G1 X83.724 Y110.204 E47.97409
G1 X83.724 Y102.496 E48.18047
G1 X82.967 Y102.496 E48.20073
G1 X82.967 Y110.204 E48.40711
G1 X82.210 Y108.249 E48.46326
G1 X82.210 Y102.496 E48.61728
G1 X81.453 Y102.496 E48.63755
G1 X81.453 Y106.097 E48.73397
G1 X80.696 Y104.632 E48.77811
G1 X80.696 Y102.496 E48.83531
G1 X79.939 Y102.496 E48.85558
G1 X79.939 Y103.168 E48.87357
G1 X79.939 Y90.468 F7800.000
G1 X79.939 Y89.796 F3000.000 E48.89155
G1 X80.696 Y89.796 E48.91182
G1 X80.696 Y91.932 E48.96902
G1 X81.453 Y93.397 E49.01317
G1 X81.453 Y89.796 E49.10959
G1 X82.210 Y89.796 E49.12986
G1 X82.210 Y95.549 E49.28388
G1 X82.967 Y97.504 E49.34002
G1 X82.967 Y89.796 E49.54640
G1 X83.724 Y89.796 E49.56667
G1 X83.724 Y97.504 E49.77305
G1 X84.481 Y97.504 E49.79332
G1 X84.481 Y89.796 E49.99970
G1 X85.238 Y89.796 E50.01996
G1 X85.238 Y97.504 E50.22634
G1 X85.995 Y97.504 E50.24661
G1 X85.995 Y89.796 E50.45299
G1 X86.752 Y89.796 E50.47326
G1 X86.752 Y97.504 E50.67964
G1 X87.509 Y97.504 E50.69991
G1 X87.509 Y89.796 E50.90629
G1 X88.266 Y89.796 E50.92656
G1 X88.266 Y97.504 E51.13294
G1 X89.023 Y97.504 E51.15320
G1 X89.023 Y89.796 E51.35958
G1 X89.780 Y89.796 E51.37985
G1 X89.780 Y97.504 E51.58623
G1 X90.537 Y97.504 E51.60650
G1 X90.537 Y89.796 E51.81288
G1 X91.294 Y89.796 E51.83315
G1 X91.294 Y97.504 E52.03952
G1 X92.051 Y97.504 E52.05979
G1 X92.051 Y89.796 E52.26617
G1 X92.808 Y89.796 E52.28644
G1 X92.808 Y97.504 E52.49282
G1 X93.565 Y97.504 E52.51309
G1 X93.565 Y89.796 E52.71947
G1 X94.322 Y89.796 E52.73973
G1 X94.322 Y97.504 E52.94611
G1 X95.079 Y97.504 E52.96638
G1 X95.079 Y89.796 E53.17276
G1 X95.836 Y89.796 E53.19303
G1 X95.836 Y97.504 E53.39941
G1 X96.593 Y97.504 E53.41968
G1 X96.593 Y89.796 E53.62606
G1 X97.350 Y89.796 E53.64633
G1 X97.350 Y97.504 E53.85271
G1 X98.107 Y97.504 E53.87297
G1 X98.107 Y89.796 E54.07935
G1 X98.864 Y89.796 E54.09962
G1 X98.864 Y97.504 E54.30600
G1 X99.621 Y97.504 E54.32627
G1 X99.621 Y89.796 E54.53265
G1 X100.378 Y89.796 E54.55292
G1 X100.378 Y97.504 E54.75929
G1 X101.135 Y97.504 E54.77956
G1 X101.135 Y89.796 E54.98594
G1 X101.893 Y89.796 E55.00621
G1 X101.893 Y97.504 E55.21259
G1 X102.650 Y97.504 E55.23286
G1 X102.650 Y89.796 E55.43924
G1 X103.407 Y89.796 E55.45951
G1 X103.407 Y97.504 E55.66589
G1 X104.164 Y97.504 E55.68615
G1 X104.164 Y89.796 E55.89253
G1 X104.921 Y89.796 E55.91280
G1 X104.921 Y97.504 E56.11918
G1 X105.678 Y97.504 E56.13945
G1 X105.678 Y89.796 E56.34583
G1 X106.435 Y89.796 E56.36610
G1 X106.435 Y97.504 E56.57248
G1 X107.192 Y97.504 E56.59274
G1 X107.192 Y89.796 E56.79912
G1 X107.949 Y89.796 E56.81939
G1 X107.949 Y97.504 E57.02577
G1 X108.706 Y97.504 E57.04604
G1 X108.706 Y89.796 E57.25242
G1 X109.463 Y89.796 E57.27269
G1 X109.463 Y97.504 E57.47907
G1 X110.220 Y97.504 E57.49934
G1 X110.220 Y89.796 E57.70571
G1 X110.977 Y89.796 E57.72598
G1 X110.977 Y97.504 E57.93236
G1 X111.734 Y97.504 E57.95263
G1 X111.734 Y89.796 E58.15901
G1 X112.491 Y89.796 E58.17928
G1 X112.491 Y97.504 E58.38566
G1 X113.248 Y97.504 E58.40592
G1 X113.248 Y89.796 E58.61230
G1 X114.005 Y89.796 E58.63257
G1 X114.005 Y97.504 E58.83895
G1 X114.762 Y97.504 E58.85922
G1 X114.762 Y89.796 E59.06560
G1 X115.519 Y89.796 E59.08587
G1 X115.519 Y97.504 E59.29225
G1 X116.276 Y97.504 E59.31252
G1 X116.276 Y89.796 E59.51890
G1 X117.033 Y89.796 E59.53916
G1 X117.033 Y97.504 E59.74554
G1 X117.790 Y95.549 E59.80168
G1 X117.790 Y89.796 E59.95571
G1 X118.547 Y89.796 E59.97598
G1 X118.547 Y93.397 E60.07240
