; generated by Slic3r 0.9.8 on 2013-06-14 at 11:55:49

; layer_height = .25
; perimeters = 1
; top_solid_layers = 4
; bottom_solid_layers = 4
; fill_density = .9
; perimeter_speed = 30
; infill_speed = 40
; travel_speed = 130
; scale = 1
; nozzle_diameter = 0.5
; filament_diameter = 3
; extrusion_multiplier = 1
; perimeters extrusion width = 0.80mm
; infill extrusion width = 0.80mm
; first layer extrusion width = 0.50mm

M107
M104 S220 ; set temperature
G28 ; home all axes
M109 S220 ; wait for temperature to be reached
G90 ; use absolute coordinates
G21 ; set units to millimeters
G92 E0
M82 ; use absolute distances for extrusion
G1 Z0.250 F7800.000
G1 X107.390 Y114.136
G1 X106.870 Y114.836 F900.000 E0.01542
G1 X106.280 Y115.466 E0.03068
G1 X105.610 Y116.016 E0.04601
G1 X105.130 Y116.336 E0.05621
G1 X104.880 Y116.476 E0.06128
G1 X104.360 Y116.736 E0.07156
G1 X98.060 Y119.556 E0.19362
G1 X97.280 Y119.816 E0.20816
G1 X96.750 Y119.936 E0.21777
G1 X96.210 Y120.016 E0.22743
G1 X95.660 Y120.056 E0.23718
G1 X95.120 Y120.046 E0.24673
G1 X94.300 Y119.966 E0.26130
G1 X94.030 Y119.916 E0.26615
G1 X93.500 Y119.776 E0.27585
G1 X92.980 Y119.606 E0.28552
G1 X92.240 Y119.276 E0.29985
G1 X91.760 Y119.006 E0.30959
G1 X91.090 Y118.536 E0.32406
G1 X90.480 Y117.986 E0.33859
G1 X90.110 Y117.586 E0.34822
G1 X89.770 Y117.156 E0.35792
G1 X89.330 Y116.456 E0.37254
G1 X89.200 Y116.216 E0.37736
G1 X88.980 Y115.726 E0.38686
G1 X88.790 Y115.206 E0.39665
G1 X88.640 Y114.686 E0.40622
G1 X88.580 Y114.416 E0.41111
G1 X88.500 Y113.876 E0.42077
G1 X88.470 Y113.606 E0.42557
G1 X88.450 Y113.056 E0.43530
G1 X88.450 Y86.936 E0.89721
G1 X88.470 Y86.386 E0.90694
G1 X88.500 Y86.116 E0.91174
G1 X88.580 Y85.576 E0.92140
G1 X88.710 Y85.046 E0.93105
G1 X88.980 Y84.266 E0.94564
G1 X89.200 Y83.776 E0.95514
G1 X89.470 Y83.296 E0.96488
G1 X89.770 Y82.836 E0.97459
G1 X90.110 Y82.406 E0.98429
G1 X90.480 Y82.006 E0.99392
G1 X90.880 Y81.636 E1.00356
G1 X91.090 Y81.456 E1.00845
G1 X91.760 Y80.986 E1.02292
G1 X91.990 Y80.846 E1.02768
G1 X92.480 Y80.596 E1.03741
G1 X93.240 Y80.296 E1.05186
G1 X94.030 Y80.076 E1.06636
G1 X94.300 Y80.026 E1.07122
G1 X95.120 Y79.946 E1.08579
G1 X95.660 Y79.936 E1.09534
G1 X96.210 Y79.976 E1.10509
G1 X96.750 Y80.056 E1.11474
G1 X97.280 Y80.176 E1.12435
G1 X98.060 Y80.436 E1.13889
G1 X104.360 Y83.256 E1.26095
G1 X105.130 Y83.656 E1.27630
G1 X105.610 Y83.976 E1.28650
G1 X105.840 Y84.156 E1.29166
G1 X106.280 Y84.526 E1.30183
G1 X106.490 Y84.736 E1.30708
G1 X106.870 Y85.156 E1.31710
G1 X107.050 Y85.386 E1.32226
G1 X107.390 Y85.856 E1.33252
G1 X107.540 Y86.106 E1.33768
G1 X107.930 Y86.876 E1.35294
G1 X108.140 Y87.416 E1.36319
G1 X111.230 Y98.046 E1.55895
G1 X111.380 Y98.636 E1.56971
G1 X111.430 Y98.936 E1.57509
G1 X111.500 Y99.536 E1.58577
G1 X111.510 Y100.146 E1.59656
G1 X111.470 Y100.756 E1.60737
G1 X111.380 Y101.356 E1.61810
G1 X111.310 Y101.656 E1.62355
G1 X108.140 Y112.576 E1.82463
G1 X107.810 Y113.376 E1.83993
G1 X107.429 Y114.072 E1.85396
G1 X107.390 Y114.136 E1.85529
G1 X106.970 Y113.866 F7800.000
G1 X106.490 Y114.516 F900.000 E1.86958
G1 X106.130 Y114.906 E1.87896
G1 X105.740 Y115.276 E1.88847
G1 X105.100 Y115.756 E1.90262
G1 X104.870 Y115.906 E1.90747
G1 X104.400 Y116.166 E1.91697
G1 X97.860 Y119.096 E2.04370
G1 X97.370 Y119.266 E2.05287
G1 X96.860 Y119.406 E2.06223
G1 X96.330 Y119.496 E2.07173
G1 X95.810 Y119.546 E2.08097
G1 X95.280 Y119.556 E2.09034
G1 X95.020 Y119.546 E2.09495
G1 X94.490 Y119.486 E2.10438
G1 X93.970 Y119.386 E2.11374
G1 X93.460 Y119.246 E2.12309
G1 X92.970 Y119.066 E2.13233
G1 X92.490 Y118.846 E2.14166
G1 X92.030 Y118.586 E2.15101
G1 X91.590 Y118.286 E2.16042
G1 X91.180 Y117.956 E2.16973
G1 X90.790 Y117.596 E2.17912
G1 X90.440 Y117.196 E2.18852
G1 X90.120 Y116.776 E2.19785
G1 X89.970 Y116.556 E2.20256
G1 X89.710 Y116.106 E2.21175
G1 X89.380 Y115.386 E2.22576
G1 X89.140 Y114.626 E2.23985
G1 X89.080 Y114.366 E2.24457
G1 X89.000 Y113.846 E2.25388
G1 X88.970 Y113.586 E2.25850
G1 X88.950 Y113.056 E2.26788
G1 X88.950 Y86.936 E2.72979
G1 X88.970 Y86.406 E2.73916
G1 X89.000 Y86.146 E2.74379
G1 X89.080 Y85.626 E2.75310
G1 X89.210 Y85.116 E2.76240
G1 X89.290 Y84.856 E2.76721
G1 X89.480 Y84.366 E2.77651
G1 X89.710 Y83.886 E2.78592
G1 X89.970 Y83.436 E2.79511
G1 X90.280 Y82.996 E2.80463
G1 X90.610 Y82.596 E2.81380
G1 X90.790 Y82.396 E2.81856
G1 X91.380 Y81.866 E2.83258
G1 X92.030 Y81.406 E2.84666
G1 X92.490 Y81.146 E2.85601
G1 X92.970 Y80.926 E2.86535
G1 X93.460 Y80.746 E2.87458
G1 X93.970 Y80.606 E2.88393
G1 X94.490 Y80.506 E2.89329
G1 X95.020 Y80.446 E2.90273
G1 X95.810 Y80.446 E2.91670
G1 X96.600 Y80.536 E2.93076
G1 X96.860 Y80.586 E2.93544
G1 X97.370 Y80.726 E2.94479
G1 X97.860 Y80.896 E2.95396
G1 X104.160 Y83.716 E3.07602
G1 X104.400 Y83.826 E3.08069
G1 X104.870 Y84.086 E3.09019
G1 X105.530 Y84.546 E3.10442
G1 X105.740 Y84.716 E3.10919
G1 X106.130 Y85.086 E3.11870
G1 X106.660 Y85.686 E3.13286
G1 X106.970 Y86.126 E3.14238
G1 X107.240 Y86.586 E3.15181
G1 X107.470 Y87.076 E3.16138
G1 X107.740 Y87.826 E3.17548
G1 X110.750 Y98.176 E3.36609
G1 X110.890 Y98.726 E3.37612
G1 X110.970 Y99.286 E3.38613
G1 X111.000 Y99.576 E3.39128
G1 X111.010 Y100.136 E3.40119
G1 X110.970 Y100.706 E3.41129
G1 X110.890 Y101.266 E3.42130
G1 X110.750 Y101.816 E3.43133
G1 X107.740 Y112.166 E3.62194
G1 X107.570 Y112.666 E3.63128
G1 X107.360 Y113.166 E3.64087
G1 X107.009 Y113.802 E3.65372
G1 X106.970 Y113.866 E3.65504
G1 X101.002 Y110.025 F7800.000
G1 X95.960 Y112.286 F900.000 E3.75275
G1 X95.960 Y102.941 E3.91801
G1 X96.084 Y102.889 E3.92039
G1 X96.775 Y102.359 E3.93579
G1 X97.306 Y101.668 E3.95119
G1 X97.639 Y100.863 E3.96659
G1 X97.753 Y100.000 E3.98199
G1 X97.639 Y99.137 E3.99739
G1 X97.306 Y98.332 E4.01280
G1 X96.775 Y97.641 E4.02820
G1 X96.084 Y97.111 E4.04360
G1 X95.960 Y97.059 E4.04598
G1 X95.960 Y87.714 E4.21123
G1 X101.002 Y89.975 E4.30894
G1 X101.002 Y92.814 E4.35914
G1 X103.978 Y100.000 E4.49669
G1 X101.002 Y107.186 E4.63423
G1 X101.002 Y109.950 E4.68310
G1 X101.002 Y110.025 E4.68443
G1 X101.502 Y110.348 F7800.000
G1 X95.460 Y113.058 F900.000 E4.80152
G1 X95.460 Y102.607 E4.98634
G1 X95.832 Y102.452 E4.99346
G1 X96.419 Y102.002 E5.00654
G1 X96.869 Y101.416 E5.01961
G1 X97.152 Y100.733 E5.03268
G1 X97.248 Y100.000 E5.04575
G1 X97.152 Y99.267 E5.05883
G1 X96.869 Y98.584 E5.07190
G1 X96.419 Y97.998 E5.08497
G1 X95.832 Y97.548 E5.09805
G1 X95.460 Y97.393 E5.10517
G1 X95.460 Y86.942 E5.28999
G1 X101.502 Y89.652 E5.40708
G1 X101.502 Y92.715 E5.46124
G1 X104.519 Y100.000 E5.60069
G1 X101.502 Y107.286 E5.74014
G1 X101.502 Y110.273 E5.79298
G1 X101.502 Y110.348 E5.79431
G1 X101.016 Y110.228 F7800.000
G1 X96.685 Y111.513
G1 X96.235 Y111.513 F1500.000 E5.80228
G1 X96.235 Y111.013 E5.81114
G1 X97.801 Y111.013 E5.83887
G1 X98.918 Y110.512 E5.86053
G1 X96.235 Y110.512 E5.90802
G1 X96.235 Y110.012 E5.91688
G1 X100.034 Y110.012 E5.98414
G1 X100.727 Y109.511 E5.99927
G1 X96.235 Y109.511 E6.07879
G1 X96.235 Y109.011 E6.08765
G1 X100.727 Y109.011 E6.16717
G1 X100.727 Y108.510 E6.17604
G1 X96.235 Y108.510 E6.25556
G1 X96.235 Y108.009 E6.26442
G1 X100.727 Y108.009 E6.34394
G1 X100.727 Y107.509 E6.35280
G1 X96.235 Y107.509 E6.43232
G1 X96.235 Y107.008 E6.44119
G1 X100.759 Y107.008 E6.52128
G1 X100.967 Y106.508 E6.53088
G1 X96.235 Y106.508 E6.61464
G1 X96.235 Y106.007 E6.62351
G1 X101.174 Y106.007 E6.71094
G1 X101.381 Y105.506 E6.72054
G1 X96.235 Y105.506 E6.81165
G1 X96.235 Y105.006 E6.82051
G1 X101.589 Y105.006 E6.91529
G1 X101.796 Y104.505 E6.92488
G1 X96.235 Y104.505 E7.02334
G1 X96.235 Y104.005 E7.03220
G1 X102.003 Y104.005 E7.13432
G1 X102.211 Y103.504 E7.14391
G1 X96.235 Y103.504 E7.24971
G1 X96.532 Y103.004 E7.26001
G1 X102.418 Y103.004 E7.36422
G1 X102.625 Y102.503 E7.37382
G1 X97.070 Y102.503 E7.47217
G1 X97.454 Y102.002 E7.48334
G1 X102.833 Y102.002 E7.57857
G1 X103.040 Y101.502 E7.58816
G1 X97.691 Y101.502 E7.68287
G1 X97.898 Y101.001 E7.69246
G1 X103.247 Y101.001 E7.78717
G1 X103.455 Y100.501 E7.79677
G1 X97.966 Y100.501 E7.89394
G1 X98.032 Y100.000 E7.90288
G1 X103.662 Y100.000 E8.00256
G1 X103.455 Y99.499 E8.01216
G1 X97.966 Y99.499 E8.10933
G1 X97.898 Y98.999 E8.11828
G1 X103.247 Y98.999 E8.21299
G1 X103.040 Y98.498 E8.22258
G1 X97.691 Y98.498 E8.31729
G1 X97.454 Y97.998 E8.32709
G1 X102.833 Y97.998 E8.42232
G1 X102.625 Y97.497 E8.43191
G1 X97.070 Y97.497 E8.53026
G1 X96.532 Y96.996 E8.54328
G1 X102.418 Y96.996 E8.64749
G1 X102.211 Y96.496 E8.65709
G1 X96.235 Y96.496 E8.76288
G1 X96.235 Y95.995 E8.77174
G1 X102.003 Y95.995 E8.87386
G1 X101.796 Y95.495 E8.88346
G1 X96.235 Y95.495 E8.98191
G1 X96.235 Y94.994 E8.99077
G1 X101.589 Y94.994 E9.08555
G1 X101.381 Y94.494 E9.09514
G1 X96.235 Y94.494 E9.18625
G1 X96.235 Y93.993 E9.19512
G1 X101.174 Y93.993 E9.28255
G1 X100.967 Y93.492 E9.29215
G1 X96.235 Y93.492 E9.37591
G1 X96.235 Y92.992 E9.38478
G1 X100.759 Y92.992 E9.46487
G1 X100.727 Y92.491 E9.47375
G1 X96.235 Y92.491 E9.55327
G1 X96.235 Y91.991 E9.56214
G1 X100.727 Y91.991 E9.64166
G1 X100.727 Y91.490 E9.65052
G1 X96.235 Y91.490 E9.73004
G1 X96.235 Y90.989 E9.73890
G1 X100.727 Y90.989 E9.81842
G1 X100.727 Y90.489 E9.82728
G1 X96.235 Y90.489 E9.90680
G1 X96.235 Y89.988 E9.91567
G1 X100.034 Y89.988 E9.98292
G1 X98.918 Y89.488 E10.00458
G1 X96.235 Y89.488 E10.05207
G1 X96.235 Y88.987 E10.06093
G1 X97.802 Y88.987 E10.08866
G1 X96.685 Y88.486 E10.11032
G1 X96.235 Y88.486 E10.11829
M106 S255
G1 Z0.500 F7800.000
G1 X95.610 Y87.174
G1 X101.352 Y89.749 F631.593 E10.28439
G1 X101.352 Y92.744 E10.36347
G1 X104.357 Y100.000 E10.57077
G1 X101.352 Y107.256 E10.77808
G1 X101.352 Y110.251 E10.85715
G1 X95.610 Y112.826 E11.02325
G1 X95.610 Y102.707 E11.29037
G1 X95.908 Y102.583 E11.29888
G1 X96.526 Y102.109 E11.31944
G1 X97.000 Y101.492 E11.33999
G1 X97.298 Y100.772 E11.36055
G1 X97.399 Y100.000 E11.38111
G1 X97.298 Y99.228 E11.40166
G1 X97.000 Y98.508 E11.42222
G1 X96.526 Y97.891 E11.44278
G1 X95.908 Y97.417 E11.46333
G1 X95.610 Y97.293 E11.47184
G1 X95.610 Y87.286 E11.73601
G1 X95.610 Y87.174 E11.73896
G1 X96.356 Y87.991 F7800.000
G1 X96.356 Y97.156 F1052.654 E11.99803
G1 X97.156 Y97.822 E12.02742
G1 X97.156 Y88.349 E12.29517
G1 X97.955 Y88.707 E12.31993
G1 X97.955 Y99.200 E12.61651
G1 X96.356 Y102.844 F7800.000
G1 X96.356 Y112.009 F1052.654 E12.87557
G1 X97.156 Y111.651 E12.90033
G1 X97.156 Y102.179 E13.16807
G1 X97.955 Y100.800 E13.21311
G1 X97.955 Y111.293 E13.50969
G1 X98.754 Y110.934 E13.53444
G1 X98.754 Y89.066 E14.15257
G1 X99.553 Y89.424 E14.17733
G1 X99.553 Y110.576 E14.77519
G1 X100.352 Y110.217 E14.79994
G1 X100.352 Y89.783 E15.37754
G1 X101.152 Y93.876 F7800.000
G1 X101.152 Y106.124 F1052.654 E15.72376
G1 X101.951 Y104.195 E15.78279
G1 X101.951 Y95.805 E16.01994
G1 X102.750 Y97.734 E16.07896
G1 X102.750 Y102.266 E16.20704
G1 X103.549 Y100.336 E16.26607
G1 X103.549 Y99.664 E16.28507
G1 Z0.750 F7800.000
G1 X104.166 Y99.540
G1 X104.357 Y100.000 F690.859 E16.29822
G1 X101.352 Y107.256 E16.50553
G1 X101.352 Y110.251 E16.58460
G1 X95.610 Y112.826 E16.75070
G1 X95.610 Y102.707 E17.01782
G1 X95.908 Y102.583 E17.02633
G1 X96.526 Y102.109 E17.04689
G1 X97.000 Y101.492 E17.06744
G1 X97.298 Y100.772 E17.08800
G1 X97.399 Y100.000 E17.10856
G1 X97.298 Y99.228 E17.12911
G1 X97.000 Y98.508 E17.14967
G1 X96.526 Y97.891 E17.17023
G1 X95.908 Y97.417 E17.19078
G1 X95.610 Y97.293 E17.19929
G1 X95.610 Y87.174 E17.46641
G1 X101.352 Y89.749 E17.63251
G1 X101.352 Y92.744 E17.71158
G1 X104.123 Y99.436 E17.90278
G1 X104.166 Y99.540 E17.90574
G1 X96.692 Y88.326 F7800.000
G1 X96.021 Y88.326 F1151.431 E17.92363
G1 X96.021 Y89.080 E17.94369
G1 X98.372 Y89.080 E18.00632
G1 X100.051 Y89.833 E18.05534
G1 X96.021 Y89.833 E18.16270
G1 X96.021 Y90.586 E18.18276
G1 X100.941 Y90.586 E18.31383
G1 X100.941 Y91.339 E18.33389
G1 X96.021 Y91.339 E18.46496
G1 X96.021 Y92.092 E18.48502
G1 X100.941 Y92.092 E18.61609
G1 X100.941 Y92.845 E18.63615
G1 X96.021 Y92.845 E18.76722
G1 X96.021 Y93.598 E18.78728
G1 X101.233 Y93.598 E18.92613
G1 X101.545 Y94.351 E18.94785
G1 X96.021 Y94.351 E19.09501
G1 X96.021 Y95.105 E19.11508
G1 X101.857 Y95.105 E19.27055
G1 X102.169 Y95.858 E19.29226
G1 X96.021 Y95.858 E19.45605
G1 X96.021 Y96.611 E19.47611
G1 X102.481 Y96.611 E19.64820
G1 X102.793 Y97.364 E19.66991
G1 X96.726 Y97.364 E19.83151
G1 X97.304 Y98.117 E19.85680
G1 X103.105 Y98.117 E20.01132
G1 X103.417 Y98.870 E20.03303
G1 X97.622 Y98.870 E20.18741
G1 X97.767 Y99.623 E20.20784
G1 X103.729 Y99.623 E20.36666
G1 X103.729 Y100.377 E20.38672
G1 X97.767 Y100.377 E20.54554
G1 X97.622 Y101.130 E20.56597
G1 X103.417 Y101.130 E20.72034
G1 X103.105 Y101.883 E20.74206
G1 X97.304 Y101.883 E20.89657
G1 X96.726 Y102.636 E20.92186
G1 X102.793 Y102.636 E21.08346
G1 X102.481 Y103.389 E21.10517
G1 X96.021 Y103.389 E21.27727
G1 X96.021 Y104.142 E21.29733
G1 X102.169 Y104.142 E21.46111
G1 X101.857 Y104.895 E21.48282
G1 X96.021 Y104.895 E21.63830
G1 X96.021 Y105.648 E21.65836
G1 X101.545 Y105.648 E21.80552
G1 X101.233 Y106.402 E21.82724
G1 X96.021 Y106.402 E21.96609
G1 X96.021 Y107.155 E21.98615
G1 X100.941 Y107.155 E22.11722
G1 X100.941 Y107.908 E22.13728
G1 X96.021 Y107.908 E22.26835
G1 X96.021 Y108.661 E22.28841
G1 X100.941 Y108.661 E22.41948
G1 X100.941 Y109.414 E22.43954
G1 X96.021 Y109.414 E22.57061
G1 X96.021 Y110.167 E22.59067
G1 X100.051 Y110.167 E22.69803
G1 X98.372 Y110.920 E22.74705
G1 X96.021 Y110.920 E22.80968
G1 X96.021 Y111.674 E22.82974
G1 X96.693 Y111.674 E22.84764
G1 Z1.000 F7800.000
G1 X95.610 Y112.826
G1 X95.610 Y102.707 F631.593 E23.11476
G1 X95.908 Y102.583 E23.12327
G1 X96.526 Y102.109 E23.14383
G1 X97.000 Y101.492 E23.16438
G1 X97.298 Y100.772 E23.18494
G1 X97.399 Y100.000 E23.20550
G1 X97.298 Y99.228 E23.22605
G1 X97.000 Y98.508 E23.24661
G1 X96.526 Y97.891 E23.26717
G1 X95.908 Y97.417 E23.28772
G1 X95.610 Y97.293 E23.29623
G1 X95.610 Y87.174 E23.56335
G1 X101.352 Y89.749 E23.72945
G1 X101.352 Y92.744 E23.80852
G1 X104.357 Y100.000 E24.01583
G1 X101.352 Y107.256 E24.22314
G1 X101.352 Y110.251 E24.30221
G1 X95.712 Y112.780 E24.46535
G1 X95.610 Y112.826 E24.46831
G1 X96.356 Y102.844 F7800.000
G1 X96.356 Y112.009 F1052.654 E24.72737
G1 X97.156 Y111.651 E24.75213
G1 X97.156 Y102.179 E25.01988
G1 X97.955 Y100.800 E25.06491
G1 X97.955 Y111.293 E25.36148
G1 X98.754 Y110.934 E25.38624
G1 X98.754 Y89.066 E26.00437
G1 X99.553 Y89.424 E26.02912
G1 X99.553 Y110.576 E26.62698
G1 X100.352 Y110.217 E26.65174
G1 X100.352 Y89.783 E27.22934
G1 X101.152 Y93.876 F7800.000
G1 X101.152 Y106.125 F1052.654 E27.57556
G1 X101.951 Y104.195 E27.63459
G1 X101.951 Y95.805 E27.87174
G1 X102.750 Y97.734 E27.93077
G1 X102.750 Y102.266 E28.05884
G1 X103.549 Y100.336 E28.11787
G1 X103.549 Y99.664 E28.13687
G1 X97.955 Y99.200 F7800.000
G1 X97.955 Y88.707 F1052.654 E28.43345
G1 X97.156 Y88.349 E28.45820
G1 X97.156 Y97.822 E28.72595
G1 X96.356 Y97.156 E28.75535
G1 X96.356 Y87.991 E29.01441
G1 Z1.250 F7800.000
G1 X95.610 Y87.174
G1 X101.352 Y89.749 F757.916 E29.18052
G1 X101.352 Y92.744 E29.25959
G1 X104.357 Y100.000 E29.46689
G1 X101.352 Y107.256 E29.67420
G1 X101.352 Y110.251 E29.75327
G1 X95.610 Y112.826 E29.91937
G1 X95.610 Y102.707 E30.18649
G1 X95.908 Y102.583 E30.19500
G1 X96.526 Y102.109 E30.21556
G1 X97.000 Y101.492 E30.23611
G1 X97.298 Y100.772 E30.25667
G1 X97.399 Y100.000 E30.27723
G1 X97.298 Y99.228 E30.29778
G1 X97.000 Y98.508 E30.31834
G1 X96.526 Y97.891 E30.33890
G1 X95.908 Y97.417 E30.35945
G1 X95.610 Y97.293 E30.36796
G1 X95.610 Y87.286 E30.63213
G1 X95.610 Y87.174 E30.63508
G1 X96.021 Y88.454 F7800.000
G1 X96.976 Y88.454 F1010.555 E30.66031
G1 X98.825 Y89.283 E30.71380
