; generated by Slic3r 0.9.8 on 2013-06-14 at 11:09:59

; layer_height = .25
; perimeters = 1
; top_solid_layers = 4
; bottom_solid_layers = 4
; fill_density = .9
; perimeter_speed = 30
; infill_speed = 40
; travel_speed = 130
; scale = 1
; nozzle_diameter = 0.5
; filament_diameter = 3
; extrusion_multiplier = 1
; perimeters extrusion width = 0.80mm
; infill extrusion width = 0.80mm
; first layer extrusion width = 0.50mm

M107
M104 S220 ; set temperature
G28 ; home all axes
M109 S220 ; wait for temperature to be reached
G90 ; use absolute coordinates
G21 ; set units to millimeters
G92 E0
M82 ; use absolute distances for extrusion
G1 Z0.250 F7800.000
G1 X107.030 Y111.491
G1 X106.670 Y111.911 F900.000 E0.00978
G1 X106.270 Y112.311 E0.01979
G1 X105.850 Y112.671 E0.02957
G1 X105.160 Y113.141 E0.04433
G1 X104.670 Y113.411 E0.05423
G1 X98.320 Y116.271 E0.17738
G1 X97.550 Y116.561 E0.19193
G1 X96.760 Y116.761 E0.20634
G1 X96.220 Y116.841 E0.21600
G1 X95.670 Y116.881 E0.22575
G1 X95.400 Y116.881 E0.23052
G1 X94.580 Y116.831 E0.24505
G1 X94.310 Y116.791 E0.24988
G1 X93.510 Y116.611 E0.26438
G1 X92.990 Y116.431 E0.27411
G1 X92.480 Y116.221 E0.28386
G1 X91.760 Y115.831 E0.29834
G1 X91.090 Y115.361 E0.31282
G1 X90.480 Y114.811 E0.32734
G1 X90.110 Y114.411 E0.33698
G1 X89.770 Y113.981 E0.34667
G1 X89.330 Y113.291 E0.36114
G1 X89.090 Y112.801 E0.37079
G1 X88.880 Y112.291 E0.38054
G1 X88.710 Y111.771 E0.39022
G1 X88.580 Y111.241 E0.39987
G1 X88.470 Y110.431 E0.41432
G1 X88.450 Y109.881 E0.42406
G1 X88.450 Y90.111 E0.77367
G1 X88.470 Y89.561 E0.78340
G1 X88.580 Y88.751 E0.79785
G1 X88.790 Y87.961 E0.81231
G1 X88.980 Y87.441 E0.82210
G1 X89.330 Y86.701 E0.83658
G1 X89.770 Y86.011 E0.85105
G1 X89.940 Y85.791 E0.85596
G1 X90.480 Y85.181 E0.87037
G1 X91.090 Y84.631 E0.88490
G1 X91.530 Y84.311 E0.89452
G1 X92.000 Y84.021 E0.90428
G1 X92.480 Y83.771 E0.91385
G1 X92.990 Y83.561 E0.92361
G1 X93.510 Y83.381 E0.93334
G1 X93.770 Y83.311 E0.93810
G1 X94.580 Y83.161 E0.95267
G1 X95.120 Y83.121 E0.96224
G1 X95.670 Y83.111 E0.97197
G1 X96.220 Y83.151 E0.98172
G1 X96.760 Y83.231 E0.99138
G1 X97.550 Y83.431 E1.00579
G1 X98.320 Y83.721 E1.02034
G1 X104.680 Y86.591 E1.14373
G1 X105.450 Y87.031 E1.15941
G1 X105.690 Y87.201 E1.16461
G1 X106.140 Y87.571 E1.17491
G1 X106.570 Y87.971 E1.18530
G1 X106.770 Y88.191 E1.19056
G1 X107.320 Y88.881 E1.20616
G1 X107.630 Y89.381 E1.21656
G1 X108.020 Y90.171 E1.23214
G1 X110.980 Y97.311 E1.36883
G1 X111.180 Y97.851 E1.37901
G1 X111.390 Y98.691 E1.39432
G1 X111.440 Y98.981 E1.39953
G1 X111.500 Y99.551 E1.40966
G1 X111.510 Y100.131 E1.41992
G1 X111.500 Y100.421 E1.42505
G1 X111.440 Y101.001 E1.43536
G1 X111.330 Y101.571 E1.44563
G1 X111.180 Y102.121 E1.45571
G1 X110.980 Y102.671 E1.46606
G1 X107.910 Y110.071 E1.60773
G1 X107.510 Y110.811 E1.62261
G1 X107.076 Y111.432 E1.63600
G1 X107.030 Y111.491 E1.63733
G1 X106.580 Y111.261 F7800.000
G1 X106.020 Y111.861 F900.000 E1.65184
G1 X105.610 Y112.221 E1.66149
G1 X104.940 Y112.691 E1.67597
G1 X104.460 Y112.951 E1.68562
G1 X97.870 Y115.911 E1.81337
G1 X97.370 Y116.091 E1.82277
G1 X96.860 Y116.231 E1.83212
G1 X96.340 Y116.321 E1.84145
G1 X95.810 Y116.371 E1.85087
G1 X95.290 Y116.381 E1.86007
G1 X95.020 Y116.371 E1.86484
G1 X94.500 Y116.311 E1.87410
G1 X94.240 Y116.271 E1.87875
G1 X93.720 Y116.151 E1.88819
G1 X92.970 Y115.891 E1.90223
G1 X92.490 Y115.671 E1.91156
G1 X92.030 Y115.411 E1.92091
G1 X91.380 Y114.951 E1.93499
G1 X90.800 Y114.421 E1.94888
G1 X90.440 Y114.021 E1.95840
G1 X90.120 Y113.601 E1.96774
G1 X89.710 Y112.931 E1.98163
G1 X89.380 Y112.211 E1.99563
G1 X89.210 Y111.711 E2.00497
G1 X89.080 Y111.191 E2.01445
G1 X88.970 Y110.411 E2.02838
G1 X88.950 Y109.881 E2.03776
G1 X88.950 Y90.111 E2.38737
G1 X88.970 Y89.581 E2.39675
G1 X89.080 Y88.801 E2.41068
G1 X89.290 Y88.031 E2.42479
G1 X89.480 Y87.541 E2.43409
G1 X89.710 Y87.061 E2.44350
G1 X90.120 Y86.391 E2.45739
G1 X90.440 Y85.971 E2.46673
G1 X90.800 Y85.571 E2.47624
G1 X91.180 Y85.211 E2.48550
G1 X91.590 Y84.881 E2.49481
G1 X92.030 Y84.581 E2.50423
G1 X92.490 Y84.321 E2.51357
G1 X92.970 Y84.101 E2.52291
G1 X93.470 Y83.921 E2.53230
G1 X93.720 Y83.841 E2.53695
G1 X94.240 Y83.721 E2.54638
G1 X95.020 Y83.621 E2.56029
G1 X95.550 Y83.611 E2.56966
G1 X96.080 Y83.641 E2.57905
G1 X96.860 Y83.761 E2.59301
G1 X97.620 Y83.981 E2.60700
G1 X98.110 Y84.181 E2.61636
G1 X104.210 Y86.921 E2.73461
G1 X104.700 Y87.161 E2.74426
G1 X105.170 Y87.451 E2.75403
G1 X105.610 Y87.771 E2.76365
G1 X106.020 Y88.131 E2.77330
G1 X106.580 Y88.731 E2.78781
G1 X107.050 Y89.391 E2.80214
G1 X107.320 Y89.871 E2.81188
G1 X107.550 Y90.361 E2.82145
G1 X110.610 Y97.751 E2.96289
G1 X110.780 Y98.261 E2.97240
G1 X110.900 Y98.791 E2.98201
G1 X110.980 Y99.321 E2.99149
G1 X111.010 Y100.121 E3.00565
G1 X110.980 Y100.661 E3.01521
G1 X110.900 Y101.191 E3.02469
G1 X110.780 Y101.711 E3.03413
G1 X110.520 Y102.481 E3.04850
G1 X107.450 Y109.881 E3.19017
G1 X107.060 Y110.601 E3.20465
G1 X106.627 Y111.203 E3.21776
G1 X106.580 Y111.261 E3.21909
G1 X101.173 Y106.773 F7800.000
G1 X95.960 Y109.111 F900.000 E3.32011
G1 X95.960 Y102.941 E3.42922
G1 X96.084 Y102.889 E3.43160
G1 X96.775 Y102.359 E3.44700
G1 X97.306 Y101.668 E3.46240
G1 X97.639 Y100.863 E3.47780
G1 X97.753 Y100.000 E3.49321
G1 X97.639 Y99.137 E3.50861
G1 X97.306 Y98.332 E3.52401
G1 X96.775 Y97.641 E3.53941
G1 X96.084 Y97.111 E3.55481
G1 X95.960 Y97.059 E3.55719
G1 X95.960 Y90.889 E3.66630
G1 X101.173 Y93.227 E3.76733
G1 X103.978 Y100.000 E3.89696
G1 X101.201 Y106.704 E4.02528
G1 X101.173 Y106.773 E4.02660
G1 X101.559 Y107.148 F7800.000
G1 X95.460 Y109.883 F900.000 E4.14480
G1 X95.460 Y102.607 E4.27347
G1 X95.832 Y102.452 E4.28059
G1 X96.419 Y102.002 E4.29367
G1 X96.869 Y101.416 E4.30674
G1 X97.152 Y100.733 E4.31981
G1 X97.248 Y100.000 E4.33289
G1 X97.152 Y99.267 E4.34596
G1 X96.869 Y98.584 E4.35903
G1 X96.419 Y97.998 E4.37210
G1 X95.832 Y97.548 E4.38518
G1 X95.460 Y97.393 E4.39230
G1 X95.460 Y90.117 E4.52098
G1 X101.559 Y92.852 E4.63917
G1 X104.519 Y100.000 E4.77598
G1 X101.587 Y107.078 E4.91147
G1 X101.559 Y107.148 E4.91280
G1 X101.093 Y106.965 F7800.000
G1 X96.685 Y108.338
G1 X96.235 Y108.338 F1500.000 E4.92085
G1 X96.235 Y107.833 E4.92988
G1 X97.812 Y107.833 E4.95806
G1 X98.939 Y107.328 E4.98014
G1 X96.235 Y107.328 E5.02846
G1 X96.235 Y106.822 E5.03750
G1 X100.066 Y106.822 E5.10596
G1 X101.045 Y106.317 E5.12567
G1 X96.235 Y106.317 E5.21164
G1 X96.235 Y105.812 E5.22068
G1 X101.255 Y105.812 E5.31039
G1 X101.464 Y105.306 E5.32017
G1 X96.235 Y105.306 E5.41363
G1 X96.235 Y104.801 E5.42266
G1 X101.673 Y104.801 E5.51987
G1 X101.883 Y104.296 E5.52964
G1 X96.235 Y104.296 E5.63058
G1 X96.235 Y103.790 E5.63962
G1 X102.092 Y103.790 E5.74430
G1 X102.301 Y103.285 E5.75408
G1 X96.235 Y103.285 E5.86250
G1 X96.824 Y102.779 E5.87637
G1 X102.511 Y102.779 E5.97802
G1 X102.720 Y102.274 E5.98779
G1 X97.246 Y102.274 E6.08564
G1 X97.580 Y101.769 E6.09647
G1 X102.929 Y101.769 E6.19209
G1 X103.139 Y101.263 E6.20186
G1 X97.789 Y101.263 E6.29748
G1 X97.932 Y100.758 E6.30686
G1 X103.348 Y100.758 E6.40367
G1 X103.557 Y100.253 E6.41344
G1 X97.998 Y100.253 E6.51280
G1 X97.998 Y99.747 F7800.000
G1 X103.557 Y99.747 F1500.000 E6.61216
G1 X103.348 Y99.242 E6.62193
G1 X97.932 Y99.242 E6.71874
G1 X97.789 Y98.737 E6.72812
G1 X103.139 Y98.737 E6.82374
G1 X102.929 Y98.231 E6.83352
G1 X97.580 Y98.231 E6.92913
G1 X97.246 Y97.726 E6.93996
G1 X102.720 Y97.726 E7.03781
G1 X102.511 Y97.220 E7.04758
G1 X96.824 Y97.220 E7.14923
G1 X96.235 Y96.715 E7.16310
G1 X102.301 Y96.715 E7.27152
G1 X102.092 Y96.210 E7.28130
G1 X96.235 Y96.210 E7.38598
G1 X96.235 Y95.704 E7.39502
G1 X101.883 Y95.704 E7.49596
G1 X101.673 Y95.199 E7.50574
G1 X96.235 Y95.199 E7.60294
G1 X96.235 Y94.694 E7.61197
G1 X101.464 Y94.694 E7.70543
G1 X101.255 Y94.188 E7.71521
G1 X96.235 Y94.188 E7.80493
G1 X96.235 Y93.683 E7.81396
G1 X101.045 Y93.683 E7.89994
G1 X100.066 Y93.178 E7.91964
G1 X96.235 Y93.178 E7.98811
G1 X96.235 Y92.672 E7.99714
G1 X98.939 Y92.672 E8.04546
G1 X97.812 Y92.167 E8.06754
G1 X96.235 Y92.167 E8.09572
G1 X96.235 Y91.661 E8.10476
G1 X96.685 Y91.661 E8.11280
M106 S255
G1 Z0.500 F7800.000
G1 X95.610 Y90.349
G1 X101.443 Y92.965 F600.000 E8.28154
G1 X104.357 Y100.000 E8.48255
G1 X101.443 Y107.035 E8.68356
G1 X95.610 Y109.651 E8.85230
G1 X95.610 Y102.707 E9.03561
G1 X95.908 Y102.583 E9.04412
G1 X96.526 Y102.109 E9.06468
G1 X97.000 Y101.492 E9.08523
G1 X97.298 Y100.772 E9.10579
G1 X97.399 Y100.000 E9.12635
G1 X97.298 Y99.228 E9.14690
G1 X97.000 Y98.508 E9.16746
G1 X96.526 Y97.891 E9.18802
G1 X95.908 Y97.417 E9.20857
G1 X95.610 Y97.293 E9.21708
G1 X95.610 Y90.461 E9.39744
G1 X95.610 Y90.349 E9.40039
G1 X96.356 Y91.166 F7800.000
G1 X96.356 Y97.156 F821.001 E9.56972
G1 X97.156 Y97.822 E9.59911
G1 X97.156 Y91.524 E9.77712
G1 X97.955 Y91.882 E9.80188
G1 X97.955 Y99.200 E10.00871
G1 X96.356 Y102.844 F7800.000
G1 X96.356 Y108.834 F821.001 E10.17803
G1 X97.156 Y108.476 E10.20279
G1 X97.156 Y102.179 E10.38079
G1 X97.955 Y100.800 E10.42583
G1 X97.955 Y108.118 E10.63266
G1 X98.754 Y107.759 E10.65742
G1 X98.754 Y92.241 E11.09606
G1 X99.553 Y92.599 E11.12081
G1 X99.553 Y107.401 E11.53919
G1 X100.352 Y107.042 E11.56395
G1 X100.352 Y92.958 E11.96206
G1 X101.152 Y93.876 E11.99646
G1 X101.152 Y106.124 E12.34268
G1 X101.951 Y104.195 E12.40171
G1 X101.951 Y95.805 E12.63885
G1 X102.750 Y97.734 E12.69788
G1 X102.750 Y102.266 E12.82595
G1 X103.549 Y100.336 E12.88498
G1 X103.549 Y99.664 E12.90398
G1 Z0.750 F7800.000
G1 X104.165 Y99.537
G1 X104.357 Y100.000 F600.000 E12.91722
G1 X101.443 Y107.035 E13.11823
G1 X95.610 Y109.651 E13.28697
G1 X95.610 Y102.707 E13.47028
G1 X95.908 Y102.583 E13.47879
G1 X96.526 Y102.109 E13.49935
G1 X97.000 Y101.492 E13.51990
G1 X97.298 Y100.772 E13.54046
G1 X97.399 Y100.000 E13.56101
G1 X97.298 Y99.228 E13.58157
G1 X97.000 Y98.508 E13.60213
G1 X96.526 Y97.891 E13.62268
G1 X95.908 Y97.417 E13.64324
G1 X95.610 Y97.293 E13.65175
G1 X95.610 Y90.349 E13.83506
G1 X101.443 Y92.965 E14.00380
G1 X104.122 Y99.433 E14.18862
G1 X104.165 Y99.537 E14.19158
G1 X96.021 Y91.501 F7800.000
G1 X96.693 Y91.501 F868.345 E14.20994
G1 X98.415 Y92.274 E14.26153
G1 X96.021 Y92.274 E14.32696
G1 X96.021 Y93.047 E14.34807
G1 X100.138 Y93.047 E14.46057
G1 X101.325 Y93.819 E14.49928
G1 X96.021 Y93.819 E14.64422
G1 X96.021 Y94.592 E14.66533
G1 X101.645 Y94.592 E14.81902
G1 X101.965 Y95.364 E14.84187
G1 X96.021 Y95.364 E15.00430
G1 X96.021 Y96.137 E15.02541
G1 X102.285 Y96.137 E15.19659
G1 X102.605 Y96.910 E15.21944
G1 X96.137 Y96.910 E15.39617
G1 X96.971 Y97.682 E15.42722
G1 X102.925 Y97.682 E15.58993
G1 X103.245 Y98.455 E15.61278
G1 X97.449 Y98.455 E15.77114
G1 X97.715 Y99.227 E15.79346
G1 X103.565 Y99.227 E15.95333
G1 X103.885 Y100.000 E15.97618
G1 X97.816 Y100.000 E16.14200
G1 X97.715 Y100.773 E16.16329
G1 X103.565 Y100.773 E16.32316
G1 X103.245 Y101.545 E16.34601
G1 X97.449 Y101.545 E16.50438
G1 X96.971 Y102.318 E16.52921
G1 X102.925 Y102.318 E16.69192
G1 X102.605 Y103.090 E16.71477
G1 X96.137 Y103.090 E16.89150
G1 X96.021 Y103.863 E16.91285
G1 X102.285 Y103.863 E17.08403
G1 X101.965 Y104.636 E17.10688
G1 X96.021 Y104.636 E17.26931
G1 X96.021 Y105.408 E17.29042
G1 X101.645 Y105.408 E17.44411
G1 X101.325 Y106.181 E17.46696
G1 X96.021 Y106.181 E17.61190
G1 X96.021 Y106.953 E17.63301
G1 X100.138 Y106.953 E17.74552
G1 X98.415 Y107.726 E17.79710
G1 X96.021 Y107.726 E17.86254
G1 X96.021 Y108.499 E17.88365
G1 X96.693 Y108.499 E17.90201
G1 Z1.000 F7800.000
G1 X95.610 Y109.651
G1 X95.610 Y102.707 F600.000 E18.08532
G1 X95.908 Y102.583 E18.09383
G1 X96.526 Y102.109 E18.11439
G1 X97.000 Y101.492 E18.13494
G1 X97.298 Y100.772 E18.15550
G1 X97.399 Y100.000 E18.17606
G1 X97.298 Y99.228 E18.19661
G1 X97.000 Y98.508 E18.21717
G1 X96.526 Y97.891 E18.23773
G1 X95.908 Y97.417 E18.25828
G1 X95.610 Y97.293 E18.26679
G1 X95.610 Y90.349 E18.45010
G1 X101.443 Y92.965 E18.61884
G1 X104.357 Y100.000 E18.81985
G1 X101.443 Y107.035 E19.02086
G1 X95.712 Y109.605 E19.18665
G1 X95.610 Y109.651 E19.18960
G1 X96.356 Y102.844 F7800.000
G1 X96.356 Y108.834 F821.001 E19.35892
G1 X97.156 Y108.476 E19.38368
G1 X97.156 Y102.179 E19.56169
G1 X97.955 Y100.800 E19.60672
G1 X97.955 Y108.118 E19.81355
G1 X98.754 Y107.759 E19.83831
G1 X98.754 Y92.241 E20.27695
G1 X99.553 Y92.599 E20.30170
G1 X99.553 Y107.401 E20.72008
G1 X100.352 Y107.042 E20.74484
G1 X100.352 Y92.958 E21.14295
G1 X101.152 Y93.876 E21.17735
G1 X101.152 Y106.124 E21.52357
G1 X101.951 Y104.195 E21.58259
G1 X101.951 Y95.805 E21.81974
G1 X102.750 Y97.734 E21.87877
G1 X102.750 Y102.266 E22.00684
G1 X103.549 Y100.336 E22.06587
G1 X103.549 Y99.664 E22.08487
G1 X97.955 Y99.200 F7800.000
G1 X97.955 Y91.882 F821.001 E22.29170
G1 X97.156 Y91.524 E22.31646
G1 X97.156 Y97.822 E22.49447
G1 X96.356 Y97.156 E22.52386
G1 X96.356 Y91.166 E22.69319
G1 Z1.250 F7800.000
G1 X95.610 Y90.349
G1 X101.443 Y92.965 F600.000 E22.86193
G1 X104.357 Y100.000 E23.06294
G1 X101.443 Y107.035 E23.26395
G1 X95.610 Y109.651 E23.43269
G1 X95.610 Y102.707 E23.61600
G1 X95.908 Y102.583 E23.62451
G1 X96.526 Y102.109 E23.64506
G1 X97.000 Y101.492 E23.66562
G1 X97.298 Y100.772 E23.68618
G1 X97.399 Y100.000 E23.70673
G1 X97.298 Y99.228 E23.72729
G1 X97.000 Y98.508 E23.74785
G1 X96.526 Y97.891 E23.76840
G1 X95.908 Y97.417 E23.78896
G1 X95.610 Y97.293 E23.79747
G1 X95.610 Y90.461 E23.97782
G1 X95.610 Y90.349 E23.98078
G1 X96.021 Y91.913 F7800.000
G1 X97.610 Y91.913 F764.033 E24.02274
G1 X99.459 Y92.742 E24.07623
G1 X96.021 Y92.742 E24.16700
G1 X96.021 Y93.572 E24.18889
G1 X101.222 Y93.572 E24.32620
G1 X101.566 Y94.401 E24.34989
G1 X96.021 Y94.401 E24.49627
G1 X96.021 Y95.230 E24.51816
G1 X101.909 Y95.230 E24.67360
G1 X102.253 Y96.059 E24.69729
G1 X96.021 Y96.059 E24.86180
G1 X96.110 Y96.889 E24.88382
G1 X102.596 Y96.889 E25.05504
G1 X102.940 Y97.718 E25.07873
G1 X96.998 Y97.718 E25.23557
G1 X97.488 Y98.547 E25.26100
G1 X103.283 Y98.547 E25.41398
G1 X103.627 Y99.377 E25.43768
G1 X97.734 Y99.377 E25.59322
G1 X97.789 Y100.206 F7800.000
G1 X103.800 Y100.206 F764.033 E25.75188
G1 X103.456 Y101.035 E25.77558
G1 X97.661 Y101.035 E25.92856
G1 X97.317 Y101.864 E25.95225
G1 X103.113 Y101.864 E26.10524
G1 X102.769 Y102.694 E26.12893
G1 X96.654 Y102.694 E26.29035
G1 X96.021 Y103.523 E26.31789
G1 X102.426 Y103.523 E26.48697
G1 X102.082 Y104.352 E26.51067
G1 X96.021 Y104.352 E26.67067
G1 X96.021 Y105.181 E26.69257
G1 X101.739 Y105.181 E26.84351
G1 X101.395 Y106.011 E26.86720
G1 X96.021 Y106.011 E27.00908
G1 X96.021 Y106.840 E27.03097
G1 X100.391 Y106.840 E27.14632
G1 X98.542 Y107.669 E27.19981
G1 X96.021 Y107.669 E27.26635
G1 X96.021 Y108.499 E27.28824
G1 X96.693 Y108.499 E27.30598
G1 Z1.500 F7800.000
G1 X95.610 Y109.651
G1 X95.610 Y102.707 F600.000 E27.48929
G1 X95.908 Y102.583 E27.49780
G1 X96.526 Y102.109 E27.51835
G1 X97.000 Y101.492 E27.53891
G1 X97.298 Y100.772 E27.55947
G1 X97.399 Y100.000 E27.58002
G1 X97.298 Y99.228 E27.60058
G1 X97.000 Y98.508 E27.62114
G1 X96.526 Y97.891 E27.64169
G1 X95.908 Y97.417 E27.66225
G1 X95.610 Y97.293 E27.67076
G1 X95.610 Y90.349 E27.85407
G1 X101.443 Y92.965 E28.02281
G1 X104.357 Y100.000 E28.22382
G1 X101.443 Y107.035 E28.42483
G1 X95.712 Y109.605 E28.59062
G1 X95.610 Y109.651 E28.59357
G1 X96.915 Y108.584 F7800.000
G1 X96.915 Y102.416 F701.381 E28.75640
G1 X97.744 Y101.309 E28.79290
G1 X97.744 Y108.212 E28.97513
G1 X98.573 Y107.840 E28.99912
G1 X98.573 Y92.160 E29.41303
G1 X99.403 Y92.532 E29.43703
G1 X99.403 Y107.468 E29.83130
G1 X100.232 Y107.096 E29.85529
G1 X100.232 Y92.904 E30.22993
G1 X101.061 Y93.658 E30.25952
G1 X101.061 Y106.342 E30.59435
