; generated by Slic3r 0.9.8 on 2013-05-28 at 13:17:18

; layer_height = .25
; perimeters = 1
; top_solid_layers = 4
; bottom_solid_layers = 4
; fill_density = .9
; perimeter_speed = 30
; infill_speed = 40
; travel_speed = 130
; scale = 1
; nozzle_diameter = 0.5
; filament_diameter = 3
; extrusion_multiplier = 1
; perimeters extrusion width = 0.80mm
; infill extrusion width = 0.80mm
; first layer extrusion width = 0.50mm

M107
M104 S210 ; set temperature
G28 ; home all axes
M109 S210 ; wait for temperature to be reached
G90 ; use absolute coordinates
G21 ; set units to millimeters
G92 E0
M82 ; use absolute distances for extrusion
G1 F1800.000 E-1.00000
G92 E0
G1 Z0.250 F7800.000
G1 X104.388 Y120.468
G1 F1800.000 E1.00000
G1 X103.248 Y121.118 F900.000 E1.02321
G1 X102.998 Y121.248 E1.02819
G1 X102.478 Y121.468 E1.03817
G1 X101.678 Y121.718 E1.05300
G1 X101.128 Y121.828 E1.06291
G1 X100.568 Y121.898 E1.07289
G1 X100.008 Y121.918 E1.08280
G1 X99.448 Y121.898 E1.09271
G1 X98.618 Y121.778 E1.10754
G1 X97.808 Y121.568 E1.12234
G1 X97.278 Y121.368 E1.13236
G1 X96.768 Y121.128 E1.14233
G1 X70.168 Y105.938 E1.68401
G1 X69.508 Y105.468 E1.69834
G1 X69.088 Y105.108 E1.70812
G1 X68.528 Y104.518 E1.72251
G1 X68.038 Y103.858 E1.73704
G1 X67.758 Y103.398 E1.74657
G1 X67.398 Y102.658 E1.76112
G1 X67.138 Y101.888 E1.77549
G1 X67.008 Y101.358 E1.78514
G1 X66.958 Y101.088 E1.79000
G1 X66.898 Y100.548 E1.79961
G1 X66.878 Y99.998 E1.80934
G1 X66.898 Y99.458 E1.81889
G1 X66.958 Y98.908 E1.82868
G1 X67.068 Y98.378 E1.83825
G1 X67.218 Y97.848 E1.84799
G1 X67.398 Y97.338 E1.85755
G1 X67.628 Y96.848 E1.86713
G1 X67.888 Y96.368 E1.87678
G1 X68.358 Y95.698 E1.89125
G1 X68.708 Y95.278 E1.90092
G1 X69.088 Y94.888 E1.91055
G1 X69.718 Y94.368 E1.92500
G1 X69.938 Y94.208 E1.92981
G1 X70.408 Y93.918 E1.93957
G1 X96.528 Y78.988 E2.47161
G1 X97.018 Y78.728 E2.48142
G1 X97.278 Y78.618 E2.48641
G1 X97.798 Y78.418 E2.49626
G1 X98.068 Y78.338 E2.50124
G1 X98.608 Y78.208 E2.51106
G1 X99.158 Y78.118 E2.52092
G1 X99.438 Y78.088 E2.52590
G1 X99.998 Y78.068 E2.53581
G1 X100.558 Y78.088 E2.54572
G1 X100.838 Y78.118 E2.55070
G1 X101.658 Y78.268 E2.56544
G1 X102.198 Y78.418 E2.57535
G1 X102.718 Y78.618 E2.58520
G1 X103.228 Y78.858 E2.59517
G1 X129.578 Y93.918 E3.13188
G1 X130.048 Y94.208 E3.14164
G1 X130.488 Y94.538 E3.15137
G1 X130.898 Y94.888 E3.16090
G1 X131.088 Y95.078 E3.16565
G1 X131.458 Y95.488 E3.17542
G1 X131.798 Y95.918 E3.18511
G1 X131.948 Y96.138 E3.18982
G1 X132.098 Y96.368 E3.19468
G1 X132.358 Y96.848 E3.20433
G1 X132.588 Y97.338 E3.21390
G1 X132.848 Y98.118 E3.22844
G1 X132.978 Y98.648 E3.23809
G1 X133.028 Y98.918 E3.24295
G1 X133.088 Y99.458 E3.25256
G1 X133.108 Y99.998 E3.26211
G1 X133.088 Y100.548 E3.27185
G1 X133.028 Y101.088 E3.28145
G1 X132.918 Y101.618 E3.29103
G1 X132.768 Y102.148 E3.30077
G1 X132.588 Y102.658 E3.31033
G1 X132.228 Y103.398 E3.32488
G1 X131.788 Y104.088 E3.33935
G1 X131.458 Y104.518 E3.34894
G1 X131.278 Y104.718 E3.35370
G1 X130.898 Y105.108 E3.36333
G1 X130.478 Y105.468 E3.37311
G1 X129.818 Y105.938 E3.38744
G1 X129.578 Y106.078 E3.39235
G1 X104.454 Y120.430 E3.90404
G1 X104.388 Y120.468 E3.90537
G1 X104.138 Y120.028 F7800.000
G1 X103.008 Y120.678 F900.000 E3.92842
G1 X102.268 Y121.008 E3.94275
G1 X101.488 Y121.248 E3.95718
G1 X100.958 Y121.348 E3.96672
G1 X100.418 Y121.408 E3.97633
G1 X99.608 Y121.408 E3.99065
G1 X99.338 Y121.388 E3.99544
G1 X98.798 Y121.308 E4.00509
G1 X98.268 Y121.188 E4.01470
G1 X98.008 Y121.108 E4.01951
G1 X97.498 Y120.918 E4.02914
G1 X97.008 Y120.688 E4.03871
G1 X70.208 Y105.368 E4.58461
G1 X69.788 Y105.048 E4.59394
G1 X69.388 Y104.698 E4.60334
G1 X69.028 Y104.328 E4.61247
G1 X68.688 Y103.918 E4.62189
G1 X68.538 Y103.708 E4.62646
G1 X68.128 Y103.028 E4.64050
G1 X67.898 Y102.558 E4.64975
G1 X67.638 Y101.818 E4.66362
G1 X67.508 Y101.308 E4.67293
G1 X67.398 Y100.528 E4.68686
G1 X67.378 Y99.998 E4.69624
G1 X67.398 Y99.478 E4.70544
G1 X67.458 Y98.948 E4.71487
G1 X67.568 Y98.438 E4.72410
G1 X67.718 Y97.928 E4.73350
G1 X67.898 Y97.438 E4.74273
G1 X68.128 Y96.968 E4.75198
G1 X68.388 Y96.508 E4.76133
G1 X68.688 Y96.078 E4.77060
G1 X69.028 Y95.678 E4.77988
G1 X69.388 Y95.298 E4.78914
G1 X69.998 Y94.788 E4.80320
G1 X70.428 Y94.488 E4.81247
G1 X70.648 Y94.358 E4.81699
G1 X96.768 Y79.428 E5.34903
G1 X97.248 Y79.178 E5.35860
G1 X98.008 Y78.878 E5.37305
G1 X98.788 Y78.678 E5.38728
G1 X99.328 Y78.598 E5.39694
G1 X99.868 Y78.568 E5.40650
G1 X100.408 Y78.578 E5.41605
G1 X101.208 Y78.678 E5.43031
G1 X101.468 Y78.738 E5.43503
G1 X101.988 Y78.878 E5.44455
G1 X102.248 Y78.968 E5.44942
G1 X102.748 Y79.178 E5.45901
G1 X103.228 Y79.428 E5.46858
G1 X129.558 Y94.488 E6.00498
G1 X129.998 Y94.788 E6.01440
G1 X130.598 Y95.298 E6.02832
G1 X130.958 Y95.678 E6.03758
G1 X131.298 Y96.078 E6.04686
G1 X131.598 Y96.508 E6.05613
G1 X131.858 Y96.968 E6.06548
G1 X132.088 Y97.438 E6.07473
G1 X132.348 Y98.188 E6.08877
G1 X132.528 Y98.948 E6.10258
G1 X132.588 Y99.478 E6.11201
G1 X132.608 Y99.998 E6.12121
G1 X132.588 Y100.528 E6.13059
G1 X132.558 Y100.788 E6.13522
G1 X132.478 Y101.308 E6.14453
G1 X132.418 Y101.558 E6.14907
G1 X132.268 Y102.068 E6.15847
G1 X132.088 Y102.558 E6.16770
G1 X131.858 Y103.028 E6.17696
G1 X131.588 Y103.488 E6.18639
G1 X131.298 Y103.918 E6.19556
G1 X131.128 Y104.128 E6.20034
G1 X130.598 Y104.698 E6.21410
G1 X130.198 Y105.048 E6.22350
G1 X129.778 Y105.368 E6.23284
G1 X104.204 Y119.990 E6.75381
G1 X104.138 Y120.028 E6.75514
G1 F1800.000 E5.75514
G92 E0
G1 X100.676 Y113.962 F7800.000
G1 F1800.000 E1.00000
G1 X100.000 Y114.348 F900.000 E1.01377
G1 X74.890 Y100.000 E1.52519
G1 X100.000 Y85.652 E2.03662
G1 X125.110 Y100.000 E2.54804
G1 X100.741 Y113.925 E3.04437
G1 X100.676 Y113.962 E3.04569
G1 X100.924 Y114.396 F7800.000
G1 X100.000 Y114.924 F900.000 E3.06451
G1 X73.882 Y100.000 E3.59646
G1 X74.551 Y99.618 E3.61007
G1 X100.000 Y85.076 E4.12841
G1 X126.118 Y100.000 E4.66036
G1 X100.989 Y114.359 E5.17217
G1 X100.924 Y114.396 E5.17349
G1 X100.492 Y114.144 F7800.000
G1 X100.225 Y113.773
G1 X99.775 Y113.773 F1500.000 E5.18147
G1 X98.898 Y113.272 E5.19935
G1 X101.102 Y113.272 E5.23838
G1 X101.978 Y112.771 E5.25626
G1 X98.022 Y112.771 E5.32633
G1 X97.145 Y112.270 E5.34421
G1 X102.854 Y112.270 E5.44534
G1 X103.731 Y111.769 E5.46322
G1 X96.269 Y111.769 E5.59539
G1 X95.393 Y111.268 E5.61327
G1 X104.607 Y111.268 E5.77649
G1 X105.484 Y110.768 E5.79437
G1 X94.516 Y110.768 E5.98864
G1 X93.640 Y110.267 E6.00653
G1 X106.360 Y110.267 E6.23184
G1 X107.237 Y109.766 E6.24972
G1 X92.763 Y109.766 E6.50609
G1 X91.887 Y109.265 E6.52397
G1 X108.113 Y109.265 E6.81139
G1 X108.990 Y108.764 E6.82927
G1 X91.010 Y108.764 E7.14774
G1 X90.134 Y108.264 E7.16562
G1 X109.866 Y108.264 E7.51513
G1 X110.742 Y107.763 E7.53301
G1 X89.257 Y107.763 E7.91357
G1 X88.381 Y107.262 E7.93145
G1 X111.619 Y107.262 E8.34306
G1 X112.495 Y106.761 E8.36095
G1 X87.505 Y106.761 E8.80361
G1 X86.628 Y106.260 E8.82149
G1 X113.372 Y106.260 E9.29520
G1 X114.248 Y105.759 E9.31308
G1 X85.752 Y105.759 E9.81783
G1 X84.875 Y105.259 E9.83572
G1 X115.125 Y105.259 E10.37152
G1 X116.001 Y104.758 E10.38940
G1 X83.999 Y104.758 E10.95626
G1 X83.122 Y104.257 E10.97414
G1 X116.878 Y104.257 E11.57204
G1 X117.754 Y103.756 E11.58992
G1 X82.246 Y103.756 E12.21888
G1 X81.370 Y103.255 E12.23676
G1 X118.630 Y103.255 E12.89676
G1 X119.507 Y102.754 E12.91464
G1 X80.493 Y102.754 E13.60569
G1 X79.617 Y102.254 E13.62357
G1 X120.383 Y102.254 E14.34567
G1 X121.260 Y101.753 E14.36355
G1 X78.740 Y101.753 E15.11670
G1 X77.864 Y101.252 E15.13458
G1 X122.136 Y101.252 E15.91877
G1 X123.013 Y100.751 E15.93665
G1 X76.987 Y100.751 E16.75190
G1 X76.111 Y100.250 E16.76978
G1 X123.889 Y100.250 E17.61607
G1 X123.889 Y99.750 E17.62494
G1 X76.111 Y99.750 E18.47124
G1 X76.987 Y99.249 E18.48912
G1 X123.013 Y99.249 E19.30437
G1 X122.136 Y98.748 E19.32225
G1 X77.864 Y98.748 E20.10644
G1 X78.740 Y98.247 E20.12432
G1 X121.260 Y98.247 E20.87747
G1 X120.383 Y97.746 E20.89535
G1 X79.617 Y97.746 E21.61745
G1 X80.493 Y97.245 E21.63533
G1 X119.507 Y97.245 E22.32638
G1 X118.630 Y96.745 E22.34426
G1 X81.370 Y96.745 E23.00426
G1 X82.246 Y96.244 E23.02214
G1 X117.754 Y96.244 E23.65110
G1 X116.878 Y95.743 E23.66898
G1 X83.122 Y95.743 E24.26688
G1 X83.999 Y95.242 E24.28476
G1 X116.001 Y95.242 E24.85162
G1 X115.125 Y94.741 E24.86950
G1 X84.875 Y94.741 E25.40530
G1 X85.752 Y94.241 E25.42318
G1 X114.248 Y94.241 E25.92794
G1 X113.372 Y93.740 E25.94582
G1 X86.628 Y93.740 E26.41953
G1 X87.505 Y93.239 E26.43741
G1 X112.495 Y93.239 E26.88007
G1 X111.619 Y92.738 E26.89796
G1 X88.381 Y92.738 E27.30957
G1 X89.257 Y92.237 E27.32745
G1 X110.742 Y92.237 E27.70801
G1 X109.866 Y91.736 E27.72589
G1 X90.134 Y91.736 E28.07540
G1 X91.010 Y91.236 E28.09328
G1 X108.990 Y91.236 E28.41175
G1 X108.113 Y90.735 E28.42963
G1 X91.887 Y90.735 E28.71705
G1 X92.763 Y90.234 E28.73493
G1 X107.237 Y90.234 E28.99129
G1 X106.360 Y89.733 E29.00917
G1 X93.640 Y89.733 E29.23449
G1 X94.516 Y89.232 E29.25238
G1 X105.484 Y89.232 E29.44665
G1 X104.607 Y88.731 E29.46453
G1 X95.393 Y88.731 E29.62775
G1 X96.269 Y88.231 E29.64563
G1 X103.731 Y88.231 E29.77780
G1 X102.854 Y87.730 E29.79568
G1 X97.145 Y87.730 E29.89681
G1 X98.022 Y87.229 E29.91469
G1 X101.978 Y87.229 E29.98476
G1 X101.102 Y86.728 E30.00264
G1 X98.898 Y86.728 E30.04167
G1 X99.775 Y86.227 E30.05955
G1 X100.225 Y86.227 E30.06753
M106 S221
G1 F1800.000 E29.06753
G92 E0
G1 Z0.500 F7800.000
G1 X100.000 Y85.248
G1 F1800.000 E1.00000
G1 X125.815 Y100.000 F1800.000 E1.78485
G1 X102.946 Y113.068 E2.48014
G1 X100.000 Y114.752 E2.56970
G1 X74.185 Y100.000 E3.35455
G1 X99.903 Y85.304 E4.13644
G1 X100.000 Y85.248 E4.13939
G1 F1800.000 E3.13939
G92 E0
G1 X124.311 Y99.664 F7800.000
G1 F1800.000 E1.00000
G1 X124.311 Y100.336 F3000.000 E1.01778
G1 X123.563 Y100.763 E1.04057
G1 X123.563 Y99.237 E1.08097
G1 X122.815 Y98.809 E1.10376
G1 X122.815 Y101.191 E1.16677
G1 X122.067 Y101.618 E1.18956
G1 X122.067 Y98.382 E1.27519
G1 X121.319 Y97.954 E1.29799
G1 X121.319 Y102.046 E1.40623
G1 X120.571 Y102.473 E1.42903
G1 X120.571 Y97.527 E1.55989
G1 X119.823 Y97.099 E1.58268
G1 X119.823 Y102.901 E1.73616
G1 X119.075 Y103.328 E1.75896
G1 X119.075 Y96.672 E1.93505
G1 X118.327 Y96.244 E1.95785
G1 X118.327 Y103.756 E2.15656
G1 X117.579 Y104.183 E2.17935
G1 X117.579 Y95.817 E2.40069
G1 X116.831 Y95.390 E2.42348
G1 X116.831 Y104.610 E2.66743
G1 X116.083 Y105.038 E2.69022
G1 X116.083 Y94.962 E2.95679
G1 X115.335 Y94.535 E2.97958
G1 X115.335 Y105.465 E3.26877
G1 X114.587 Y105.893 E3.29156
G1 X114.587 Y94.107 E3.60336
G1 X113.839 Y93.680 E3.62616
G1 X113.839 Y106.320 E3.96058
G1 X113.091 Y106.748 E3.98337
G1 X113.091 Y93.252 E4.34040
G1 X112.342 Y92.825 E4.36320
G1 X112.342 Y107.175 E4.74285
G1 X111.594 Y107.603 E4.76565
G1 X111.594 Y92.397 E5.16792
G1 X110.846 Y91.970 E5.19071
G1 X110.846 Y108.030 E5.61560
G1 X110.098 Y108.457 E5.63839
G1 X110.098 Y91.543 E6.08590
G1 X109.350 Y91.115 E6.10869
G1 X109.350 Y108.885 E6.57881
G1 X108.602 Y109.312 E6.60161
G1 X108.602 Y90.688 E7.09435
G1 X107.854 Y90.260 E7.11714
G1 X107.854 Y109.740 E7.63250
G1 X107.106 Y110.167 E7.65529
G1 X107.106 Y89.833 E8.19327
G1 X106.358 Y89.405 E8.21606
G1 X106.358 Y110.595 E8.77665
G1 X105.610 Y111.022 E8.79945
G1 X105.610 Y88.978 E9.38266
G1 X104.862 Y88.550 E9.40545
G1 X104.862 Y111.450 E10.01128
G1 X104.114 Y111.877 E10.03407
G1 X104.114 Y88.123 E10.66251
G1 X103.366 Y87.696 E10.68531
G1 X103.366 Y112.304 E11.33637
G1 X102.618 Y112.732 E11.35916
G1 X102.618 Y87.268 E12.03284
G1 X101.870 Y86.841 E12.05563
G1 X101.870 Y113.159 E12.75193
G1 X101.122 Y113.587 E12.77472
G1 X101.122 Y86.413 E13.49363
G1 X100.374 Y85.986 E13.51643
G1 X100.374 Y114.014 E14.25796
G1 X99.626 Y114.014 E14.27774
G1 X99.626 Y85.986 E15.01927
G1 X98.878 Y86.413 E15.04207
G1 X98.878 Y113.587 E15.76098
G1 X98.130 Y113.159 E15.78377
G1 X98.130 Y86.841 E16.48006
G1 X97.382 Y87.268 E16.50286
G1 X97.382 Y112.732 E17.17654
G1 X96.634 Y112.304 E17.19933
G1 X96.634 Y87.696 E17.85039
G1 X95.886 Y88.123 E17.87318
G1 X95.886 Y111.877 E18.50163
G1 X95.138 Y111.450 E18.52442
G1 X95.138 Y88.550 E19.13024
G1 X94.390 Y88.978 E19.15303
G1 X94.390 Y111.022 E19.73624
G1 X93.642 Y110.595 E19.75904
G1 X93.642 Y89.405 E20.31963
G1 X92.894 Y89.833 E20.34242
G1 X92.894 Y110.167 E20.88040
G1 X92.146 Y109.740 E20.90319
G1 X92.146 Y90.260 E21.41854
G1 X91.398 Y90.688 E21.44134
G1 X91.398 Y109.312 E21.93408
G1 X90.650 Y108.885 E21.95687
G1 X90.650 Y91.115 E22.42699
G1 X89.902 Y91.543 E22.44979
G1 X89.902 Y108.457 E22.89729
G1 X89.153 Y108.030 E22.92009
G1 X89.153 Y91.970 E23.34497
G1 X88.405 Y92.397 E23.36777
G1 X88.405 Y107.603 E23.77004
G1 X87.657 Y107.175 E23.79283
G1 X87.657 Y92.825 E24.17248
G1 X86.909 Y93.252 E24.19528
G1 X86.909 Y106.748 E24.55231
G1 X86.161 Y106.320 E24.57511
G1 X86.161 Y93.680 E24.90952
G1 X85.413 Y94.107 E24.93232
G1 X85.413 Y105.893 E25.24412
G1 X84.665 Y105.465 E25.26691
G1 X84.665 Y94.535 E25.55610
G1 X83.917 Y94.962 E25.57889
G1 X83.917 Y105.038 E25.84545
G1 X83.169 Y104.610 E25.86825
G1 X83.169 Y95.390 E26.11220
G1 X82.421 Y95.817 E26.13499
G1 X82.421 Y104.183 E26.35632
G1 X81.673 Y103.756 E26.37912
G1 X81.673 Y96.244 E26.57783
G1 X80.925 Y96.672 E26.60062
G1 X80.925 Y103.328 E26.77672
G1 X80.177 Y102.901 E26.79951
G1 X80.177 Y97.099 E26.95299
G1 X79.429 Y97.527 E26.97579
G1 X79.429 Y102.473 E27.10665
G1 X78.681 Y102.046 E27.12944
G1 X78.681 Y97.954 E27.23769
G1 X77.933 Y98.382 E27.26048
G1 X77.933 Y101.618 E27.34611
G1 X77.185 Y101.191 E27.36890
G1 X77.185 Y98.809 E27.43191
G1 X76.437 Y99.237 E27.45471
G1 X76.437 Y100.763 E27.49510
G1 X75.689 Y100.336 E27.51789
G1 X75.689 Y99.664 E27.53567
M106 S223
G1 F1800.000 E26.53567
G92 E0
G1 Z0.750 F7800.000
G1 X76.022 Y98.950
G1 F1800.000 E1.00000
G1 X100.000 Y85.248 F1800.000 E1.72899
G1 X125.815 Y100.000 E2.51384
G1 X100.000 Y114.752 E3.29868
G1 X74.185 Y100.000 E4.08353
G1 X75.925 Y99.006 E4.13644
G1 X76.022 Y98.950 E4.13939
G1 F1800.000 E3.13939
G92 E0
G1 X100.336 Y86.108 F7800.000
G1 F1800.000 E1.00000
G1 X99.664 Y86.108 F3000.000 E1.01785
G1 X98.350 Y86.859 E1.05805
G1 X101.650 Y86.859 E1.14570
G1 X102.964 Y87.610 E1.18589
G1 X97.036 Y87.610 E1.34335
G1 X95.722 Y88.361 E1.38354
G1 X104.278 Y88.361 E1.61079
G1 X105.592 Y89.112 E1.65099
G1 X94.408 Y89.112 E1.94805
G1 X93.093 Y89.863 E1.98824
G1 X106.907 Y89.863 E2.35510
G1 X108.221 Y90.613 E2.39529
G1 X91.779 Y90.613 E2.83195
G1 X90.465 Y91.364 E2.87214
G1 X109.535 Y91.364 E3.37860
G1 X110.849 Y92.115 E3.41880
G1 X89.151 Y92.115 E3.99506
G1 X87.837 Y92.866 E4.03526
G1 X112.163 Y92.866 E4.68132
G1 X113.477 Y93.617 E4.72152
G1 X86.523 Y93.617 E5.43738
G1 X85.209 Y94.368 E5.47757
G1 X114.791 Y94.368 E6.26324
G1 X116.105 Y95.119 E6.30343
G1 X83.895 Y95.119 E7.15890
G1 X82.581 Y95.870 E7.19910
G1 X117.419 Y95.870 E8.12436
G1 X118.734 Y96.621 E8.16456
G1 X81.266 Y96.621 E9.15962
G1 X79.952 Y97.372 E9.19982
G1 X120.048 Y97.372 E10.26469
G1 X121.362 Y98.123 E10.30489
G1 X78.638 Y98.123 E11.43956
G1 X77.324 Y98.874 E11.47975
G1 X122.676 Y98.874 E12.68423
G1 X123.990 Y99.624 E12.72442
G1 X76.010 Y99.624 E13.99870
G1 X76.010 Y100.375 E14.01864
G1 X123.990 Y100.375 E15.29292
G1 X122.676 Y101.126 E15.33311
G1 X77.324 Y101.126 E16.53759
G1 X78.638 Y101.877 E16.57778
G1 X121.362 Y101.877 E17.71245
G1 X120.048 Y102.628 E17.75265
G1 X79.952 Y102.628 E18.81752
G1 X81.266 Y103.379 E18.85772
G1 X118.734 Y103.379 E19.85279
G1 X117.420 Y104.130 E19.89299
G1 X82.581 Y104.130 E20.81826
G1 X83.895 Y104.881 E20.85845
G1 X116.105 Y104.881 E21.71392
G1 X114.791 Y105.632 E21.75411
