; generated by Slic3r 0.9.8 on 2013-05-28 at 11:40:20

; layer_height = .25
; perimeters = 1
; top_solid_layers = 4
; bottom_solid_layers = 4
; fill_density = .9
; perimeter_speed = 30
; infill_speed = 40
; travel_speed = 130
; scale = 1
; nozzle_diameter = 0.5
; filament_diameter = 3
; extrusion_multiplier = 1
; perimeters extrusion width = 0.80mm
; infill extrusion width = 0.80mm
; first layer extrusion width = 0.50mm

M107
M104 S210 ; set temperature
G28 ; home all axes
M109 S210 ; wait for temperature to be reached
G90 ; use absolute coordinates
G21 ; set units to millimeters
G92 E0
M82 ; use absolute distances for extrusion
G1 F1800.000 E-1.00000
G92 E0
G1 Z0.250 F7800.000
G1 X116.338 Y105.626
G1 F1800.000 E1.00000
G1 X116.118 Y105.786 F900.000 E1.00481
G1 X115.648 Y106.076 E1.01458
G1 X103.468 Y113.036 E1.26265
G1 X102.978 Y113.296 E1.27246
G1 X102.198 Y113.606 E1.28730
G1 X101.928 Y113.686 E1.29228
G1 X101.388 Y113.816 E1.30211
G1 X100.558 Y113.936 E1.31694
G1 X99.998 Y113.956 E1.32685
G1 X99.438 Y113.936 E1.33676
G1 X99.158 Y113.906 E1.34173
G1 X98.608 Y113.816 E1.35159
G1 X97.798 Y113.606 E1.36639
G1 X97.028 Y113.296 E1.38107
G1 X96.528 Y113.036 E1.39103
G1 X84.338 Y106.076 E1.63926
G1 X83.648 Y105.626 E1.65383
G1 X83.028 Y105.106 E1.66814
G1 X82.458 Y104.516 E1.68265
G1 X82.128 Y104.086 E1.69223
G1 X81.688 Y103.396 E1.70670
G1 X81.438 Y102.906 E1.71643
G1 X81.328 Y102.656 E1.72126
G1 X81.148 Y102.146 E1.73082
G1 X80.998 Y101.616 E1.74057
G1 X80.888 Y101.086 E1.75014
G1 X80.828 Y100.536 E1.75992
G1 X80.808 Y99.996 E1.76948
G1 X80.828 Y99.456 E1.77903
G1 X80.888 Y98.906 E1.78882
G1 X80.998 Y98.376 E1.79839
G1 X81.148 Y97.846 E1.80813
G1 X81.328 Y97.336 E1.81769
G1 X81.688 Y96.596 E1.83225
G1 X81.968 Y96.136 E1.84177
G1 X82.458 Y95.476 E1.85631
G1 X82.828 Y95.076 E1.86594
G1 X83.438 Y94.526 E1.88047
G1 X83.878 Y94.206 E1.89009
G1 X84.338 Y93.916 E1.89970
G1 X96.528 Y86.956 E2.14793
G1 X97.278 Y86.586 E2.16272
G1 X97.798 Y86.386 E2.17257
G1 X98.338 Y86.236 E2.18248
G1 X98.888 Y86.126 E2.19240
G1 X99.438 Y86.056 E2.20221
G1 X99.998 Y86.036 E2.21212
G1 X100.558 Y86.056 E2.22203
G1 X100.838 Y86.086 E2.22701
G1 X101.388 Y86.176 E2.23686
G1 X102.198 Y86.386 E2.25166
G1 X102.978 Y86.696 E2.26650
G1 X103.468 Y86.956 E2.27631
G1 X115.888 Y94.056 E2.52930
G1 X116.548 Y94.526 E2.54363
G1 X116.968 Y94.886 E2.55341
G1 X117.528 Y95.476 E2.56779
G1 X117.858 Y95.906 E2.57738
G1 X118.158 Y96.366 E2.58709
G1 X118.548 Y97.086 E2.60157
G1 X118.658 Y97.336 E2.60640
G1 X118.838 Y97.846 E2.61597
G1 X118.988 Y98.376 E2.62571
G1 X119.098 Y98.906 E2.63528
G1 X119.158 Y99.456 E2.64506
G1 X119.178 Y99.996 E2.65462
G1 X119.158 Y100.536 E2.66417
G1 X119.098 Y101.086 E2.67396
G1 X118.918 Y101.876 E2.68829
G1 X118.658 Y102.656 E2.70283
G1 X118.428 Y103.146 E2.71240
G1 X118.158 Y103.626 E2.72214
G1 X117.858 Y104.086 E2.73185
G1 X117.528 Y104.516 E2.74143
G1 X117.348 Y104.716 E2.74619
G1 X116.968 Y105.106 E2.75582
G1 X116.397 Y105.580 E2.76894
G1 X116.338 Y105.626 E2.77027
G1 X116.058 Y105.206 F7800.000
G1 X115.628 Y105.506 F900.000 E2.77954
G1 X103.218 Y112.596 E3.03229
G1 X102.988 Y112.726 E3.03696
G1 X102.498 Y112.956 E3.04653
G1 X101.988 Y113.146 E3.05616
G1 X101.468 Y113.286 E3.06568
G1 X101.208 Y113.346 E3.07040
G1 X100.408 Y113.446 E3.08466
G1 X99.868 Y113.456 E3.09421
G1 X99.328 Y113.426 E3.10377
G1 X98.788 Y113.346 E3.11342
G1 X98.268 Y113.226 E3.12286
G1 X98.008 Y113.146 E3.12767
G1 X97.498 Y112.956 E3.13730
G1 X97.008 Y112.726 E3.14687
G1 X84.358 Y105.506 E3.40444
G1 X84.138 Y105.366 E3.40905
G1 X83.518 Y104.876 E3.42303
G1 X83.138 Y104.516 E3.43228
G1 X82.788 Y104.126 E3.44155
G1 X82.468 Y103.706 E3.45089
G1 X82.058 Y103.026 E3.46493
G1 X81.828 Y102.556 E3.47418
G1 X81.568 Y101.816 E3.48805
G1 X81.388 Y101.046 E3.50204
G1 X81.328 Y100.526 E3.51129
G1 X81.308 Y99.996 E3.52067
G1 X81.328 Y99.466 E3.53005
G1 X81.388 Y98.946 E3.53931
G1 X81.568 Y98.176 E3.55329
G1 X81.828 Y97.436 E3.56716
G1 X82.058 Y96.966 E3.57642
G1 X82.468 Y96.286 E3.59046
G1 X82.788 Y95.866 E3.59979
G1 X83.318 Y95.296 E3.61356
G1 X83.718 Y94.946 E3.62296
G1 X84.138 Y94.626 E3.63229
G1 X84.358 Y94.486 E3.63691
G1 X96.778 Y87.396 E3.88981
G1 X97.008 Y87.266 E3.89448
G1 X97.498 Y87.036 E3.90405
G1 X98.268 Y86.766 E3.91848
G1 X98.788 Y86.646 E3.92792
G1 X99.328 Y86.566 E3.93757
G1 X99.598 Y86.546 E3.94236
G1 X100.408 Y86.546 E3.95668
G1 X100.938 Y86.606 E3.96612
G1 X101.208 Y86.646 E3.97094
G1 X101.988 Y86.846 E3.98518
G1 X102.498 Y87.036 E3.99481
G1 X102.988 Y87.266 E4.00438
G1 X115.628 Y94.486 E4.26180
G1 X116.268 Y94.946 E4.27574
G1 X116.668 Y95.296 E4.28513
G1 X117.028 Y95.666 E4.29426
G1 X117.368 Y96.076 E4.30368
G1 X117.668 Y96.506 E4.31295
G1 X118.048 Y97.196 E4.32688
G1 X118.158 Y97.436 E4.33155
G1 X118.338 Y97.926 E4.34078
G1 X118.488 Y98.436 E4.35019
G1 X118.598 Y98.946 E4.35941
G1 X118.658 Y99.466 E4.36867
G1 X118.678 Y99.996 E4.37805
G1 X118.658 Y100.526 E4.38743
G1 X118.598 Y101.046 E4.39668
G1 X118.418 Y101.816 E4.41067
G1 X118.158 Y102.556 E4.42454
G1 X117.928 Y103.026 E4.43379
G1 X117.668 Y103.486 E4.44313
G1 X117.368 Y103.916 E4.45241
G1 X117.028 Y104.326 E4.46183
G1 X116.668 Y104.696 E4.47095
G1 X116.117 Y105.160 E4.48369
G1 X116.058 Y105.206 E4.48502
G1 F1800.000 E3.48502
G92 E0
G1 X111.178 Y100.000 F7800.000
G1 F1800.000 E1.00000
G1 X100.000 Y106.387 F900.000 E1.22766
G1 X88.822 Y100.000 E1.45533
G1 X100.000 Y93.613 E1.68299
G1 X111.113 Y99.963 E1.90932
G1 X111.178 Y100.000 E1.91065
G1 X112.186 Y100.000 F7800.000
G1 X100.000 Y106.963 F900.000 E2.15884
G1 X87.814 Y100.000 E2.40703
G1 X100.000 Y93.037 E2.65522
G1 X112.120 Y99.963 E2.90208
G1 X112.186 Y100.000 E2.90340
G1 X111.693 Y100.086 F7800.000
G1 F1800.000 E1.90340
G92 E0
G1 X100.225 Y105.811 F7800.000
G1 F1800.000 E1.00000
G1 X99.775 Y105.811 F1500.000 E1.00805
G1 X98.890 Y105.306 E1.02625
G1 X101.109 Y105.306 E1.06592
G1 X101.994 Y104.801 E1.08412
G1 X98.006 Y104.801 E1.15540
G1 X97.122 Y104.295 E1.17360
G1 X102.878 Y104.295 E1.27648
G1 X103.763 Y103.790 E1.29469
G1 X96.237 Y103.790 E1.42919
G1 X95.353 Y103.285 E1.44739
G1 X104.647 Y103.285 E1.61350
G1 X105.531 Y102.779 E1.63170
G1 X94.469 Y102.779 E1.82942
G1 X93.584 Y102.274 E1.84763
G1 X106.416 Y102.274 E2.07696
G1 X107.300 Y101.769 E2.09516
G1 X92.700 Y101.769 E2.35611
G1 X91.816 Y101.263 E2.37431
G1 X108.184 Y101.263 E2.66686
G1 X109.069 Y100.758 E2.68507
G1 X90.931 Y100.758 E3.00924
G1 X90.047 Y100.253 E3.02744
G1 X109.953 Y100.253 E3.38322
G1 X109.953 Y99.747 E3.39225
G1 X90.047 Y99.747 E3.74803
G1 X90.931 Y99.242 E3.76623
G1 X109.069 Y99.242 E4.09040
G1 X108.184 Y98.737 E4.10860
G1 X91.816 Y98.737 E4.40116
G1 X92.700 Y98.231 E4.41936
G1 X107.300 Y98.231 E4.68030
G1 X106.416 Y97.726 E4.69851
G1 X93.584 Y97.726 E4.92784
G1 X94.469 Y97.221 E4.94604
G1 X105.531 Y97.221 E5.14376
G1 X104.647 Y96.715 E5.16197
G1 X95.353 Y96.715 E5.32808
G1 X96.237 Y96.210 E5.34628
G1 X103.763 Y96.210 E5.48078
G1 X102.878 Y95.705 E5.49898
G1 X97.122 Y95.705 E5.60186
G1 X98.006 Y95.199 E5.62007
G1 X101.994 Y95.199 E5.69134
G1 X101.109 Y94.694 E5.70955
G1 X98.890 Y94.694 E5.74921
G1 X99.775 Y94.189 E5.76741
G1 X100.225 Y94.189 E5.77546
M106 S255
G1 F1800.000 E4.77546
G92 E0
G1 Z0.500 F7800.000
G1 X100.000 Y94.095
G1 F1800.000 E1.00000
G1 X110.333 Y100.000 F773.751 E1.31415
G1 X100.000 Y105.905 E1.62830
G1 X89.667 Y100.000 E1.94245
G1 X99.903 Y94.151 E2.25365
G1 X100.000 Y94.095 E2.25661
G1 X100.279 Y93.395 F7800.000
G1 X111.837 Y100.000 F773.751 E2.60802
G1 X100.000 Y106.764 E2.96790
G1 X88.163 Y100.000 E3.32779
G1 X100.000 Y93.236 E3.68767
G1 X100.182 Y93.340 E3.69320
G1 X100.279 Y93.395 E3.69615
G1 X100.282 Y94.141 F7800.000
G1 F1800.000 E2.69615
G92 E0
G1 X108.829 Y99.664 F7800.000
G1 F1800.000 E1.00000
G1 X108.829 Y100.336 F1289.585 E1.01824
G1 X108.061 Y100.775 E1.04225
G1 X108.061 Y99.225 E1.08432
G1 X107.293 Y98.787 E1.10833
G1 X107.293 Y101.213 E1.17422
G1 X106.526 Y101.652 E1.19823
G1 X106.526 Y98.348 E1.28795
G1 X105.758 Y97.909 E1.31196
G1 X105.758 Y102.091 E1.42550
G1 X104.990 Y102.529 E1.44950
G1 X104.990 Y97.471 E1.58687
G1 X104.223 Y97.032 E1.61088
G1 X104.223 Y102.968 E1.77206
G1 X103.455 Y103.407 E1.79607
G1 X103.455 Y96.593 E1.98108
G1 X102.687 Y96.154 E2.00509
G1 X102.687 Y103.846 E2.21393
G1 X101.919 Y104.284 E2.23793
G1 X101.919 Y95.716 E2.47059
G1 X101.152 Y95.277 E2.49460
G1 X101.152 Y104.723 E2.75108
G1 X100.384 Y105.162 E2.77509
G1 X100.384 Y94.838 E3.05540
G1 X99.616 Y94.838 E3.07624
G1 X99.616 Y105.162 E3.35655
G1 X98.848 Y104.723 E3.38056
G1 X98.848 Y95.277 E3.63704
G1 X98.081 Y95.716 E3.66105
G1 X98.081 Y104.284 E3.89371
G1 X97.313 Y103.846 E3.91772
G1 X97.313 Y96.154 E4.12655
G1 X96.545 Y96.593 E4.15056
G1 X96.545 Y103.407 E4.33557
G1 X95.778 Y102.968 E4.35958
G1 X95.778 Y97.032 E4.52077
G1 X95.010 Y97.471 E4.54477
G1 X95.010 Y102.529 E4.68214
G1 X94.242 Y102.091 E4.70615
G1 X94.242 Y97.909 E4.81969
G1 X93.474 Y98.348 E4.84370
G1 X93.474 Y101.652 E4.93341
G1 X92.707 Y101.213 E4.95742
G1 X92.707 Y98.787 E5.02331
G1 X91.939 Y99.225 E5.04732
G1 X91.939 Y100.775 E5.08939
G1 X91.171 Y100.336 E5.11340
G1 X91.171 Y99.664 E5.13164
G1 F1800.000 E4.13164
G92 E0
G1 Z0.750 F7800.000
G1 X89.713 Y100.000
G1 F1800.000 E1.00000
G1 X100.000 Y94.122 F748.536 E1.31276
G1 X110.287 Y100.000 E1.62552
G1 X100.000 Y105.878 E1.93828
G1 X89.810 Y100.056 E2.24808
G1 X89.713 Y100.000 E2.25104
G1 X88.208 Y100.000 F7800.000
G1 X100.000 Y93.262 F748.536 E2.60953
G1 X111.792 Y100.000 E2.96802
G1 X100.000 Y106.738 E3.32652
G1 X88.306 Y100.056 E3.68205
G1 X88.208 Y100.000 E3.68501
G1 X88.944 Y99.871 F7800.000
G1 F1800.000 E2.68501
G92 E0
G1 X100.336 Y94.981 F7800.000
G1 F1800.000 E1.00000
G1 X99.664 Y94.981 F1247.560 E1.01835
G1 X98.313 Y95.753 E1.06085
G1 X101.687 Y95.753 E1.15301
G1 X103.039 Y96.525 E1.19551
G1 X96.961 Y96.525 E1.36147
G1 X95.610 Y97.298 E1.40397
G1 X104.390 Y97.298 E1.64372
G1 X105.741 Y98.070 E1.68622
G1 X94.259 Y98.070 E1.99978
G1 X92.908 Y98.842 E2.04228
G1 X107.092 Y98.842 E2.42964
G1 X108.443 Y99.614 E2.47214
G1 X91.557 Y99.614 E2.93329
G1 X91.557 Y100.386 E2.95438
G1 X108.443 Y100.386 E3.41554
G1 X107.092 Y101.158 E3.45804
G1 X92.908 Y101.158 E3.84540
G1 X94.259 Y101.930 E3.88790
G1 X105.741 Y101.930 E4.20146
G1 X104.390 Y102.703 E4.24396
G1 X95.610 Y102.703 E4.48371
G1 X96.961 Y103.475 E4.52621
G1 X103.039 Y103.475 E4.69217
G1 X101.687 Y104.247 E4.73467
G1 X98.313 Y104.247 E4.82682
G1 X99.664 Y105.019 E4.86932
G1 X100.336 Y105.019 E4.88768
G1 F1800.000 E3.88768
G92 E0
G1 Z1.000 F7800.000
G1 X100.000 Y105.852
G1 F1800.000 E1.00000
G1 X89.759 Y100.000 F766.988 E1.31137
G1 X100.000 Y94.148 E1.62273
G1 X110.241 Y100.000 E1.93410
G1 X100.097 Y105.797 E2.24251
G1 X100.000 Y105.852 E2.24546
G1 X100.000 Y106.712 F7800.000
G1 X88.254 Y100.000 F766.988 E2.60257
G1 X100.000 Y93.288 E2.95967
G1 X111.746 Y100.000 E3.31677
G1 X100.097 Y106.656 E3.67091
G1 X100.000 Y106.712 E3.67387
G1 X99.744 Y106.011 F7800.000
G1 F1800.000 E2.67387
G92 E0
G1 X91.263 Y99.664 F7800.000
G1 F1800.000 E1.00000
G1 X91.263 Y100.336 F1278.314 E1.01805
G1 X92.022 Y100.770 E1.04157
G1 X92.022 Y99.230 E1.08296
G1 X92.782 Y98.796 E1.10647
G1 X92.782 Y101.204 E1.17119
G1 X93.542 Y101.638 E1.19471
G1 X93.542 Y98.362 E1.28276
G1 X94.302 Y97.927 E1.30627
G1 X94.302 Y102.073 E1.41765
G1 X95.062 Y102.507 E1.44117
G1 X95.062 Y97.493 E1.57588
G1 X95.821 Y97.059 E1.59940
G1 X95.821 Y102.941 E1.75744
G1 X96.581 Y103.375 E1.78096
G1 X96.581 Y96.625 E1.96233
G1 X97.341 Y96.191 E1.98585
G1 X97.341 Y103.809 E2.19056
G1 X98.101 Y104.243 E2.21407
G1 X98.101 Y95.757 E2.44211
G1 X98.860 Y95.323 E2.46563
G1 X98.860 Y104.677 E2.71700
G1 X99.620 Y105.112 E2.74051
G1 X99.620 Y94.888 E3.01522
G1 X100.380 Y94.888 E3.03563
G1 X100.380 Y105.112 E3.31034
G1 X101.140 Y104.677 E3.33385
G1 X101.140 Y95.323 E3.58523
G1 X101.899 Y95.757 E3.60874
G1 X101.899 Y104.243 E3.83678
G1 X102.659 Y103.809 E3.86029
G1 X102.659 Y96.191 E4.06500
G1 X103.419 Y96.625 E4.08852
G1 X103.419 Y103.375 E4.26990
G1 X104.179 Y102.941 E4.29341
G1 X104.179 Y97.059 E4.45146
G1 X104.938 Y97.493 E4.47497
G1 X104.938 Y102.507 E4.60969
G1 X105.698 Y102.073 E4.63320
G1 X105.698 Y97.927 E4.74459
G1 X106.458 Y98.362 E4.76810
G1 X106.458 Y101.638 E4.85615
G1 X107.218 Y101.204 E4.87967
G1 X107.218 Y98.796 E4.94439
G1 X107.977 Y99.230 E4.96790
G1 X107.977 Y100.770 E5.00929
G1 X108.737 Y100.336 E5.03280
G1 X108.737 Y99.664 E5.05086
G1 F1800.000 E4.05086
G92 E0
G1 Z1.250 F7800.000
G1 X110.196 Y100.000
G1 F1800.000 E1.00000
G1 X100.000 Y105.826 F795.076 E1.30997
G1 X89.804 Y100.000 E1.61995
G1 X100.000 Y94.174 E1.92992
G1 X110.098 Y99.944 E2.23694
G1 X110.196 Y100.000 E2.23989
G1 X110.277 Y100.813 F7800.000
G1 X100.000 Y106.686 F795.076 E2.55235
G1 X88.300 Y100.000 E2.90806
G1 X100.000 Y93.314 E3.26377
G1 X111.700 Y100.000 E3.61948
G1 X110.375 Y100.757 E3.65977
G1 X110.277 Y100.813 E3.66273
G1 X109.633 Y100.437 F7800.000
G1 F1800.000 E2.66273
G92 E0
G1 X101.755 Y95.844 F7800.000
G1 F1800.000 E1.00000
G1 X98.245 Y95.844 F1060.102 E1.09267
G1 X96.794 Y96.674 E1.13679
G1 X103.206 Y96.674 E1.30607
G1 X104.658 Y97.503 E1.35019
G1 X95.342 Y97.503 E1.59608
G1 X93.891 Y98.332 E1.64020
G1 X106.109 Y98.332 E1.96271
G1 X107.560 Y99.162 E2.00683
G1 X92.440 Y99.162 E2.40596
G1 X90.989 Y99.991 E2.45008
G1 X109.011 Y99.991 E2.92582
G1 X107.592 Y100.820 E2.96921
G1 X92.408 Y100.820 E3.37003
G1 X93.859 Y101.649 E3.41415
G1 X106.141 Y101.649 E3.73836
G1 X104.690 Y102.479 E3.78248
G1 X95.310 Y102.479 E4.03006
G1 X96.761 Y103.308 E4.07418
G1 X103.239 Y103.308 E4.24516
G1 X101.787 Y104.137 E4.28928
G1 X98.213 Y104.137 E4.38364
G1 X99.664 Y104.966 E4.42776
G1 X100.336 Y104.966 E4.44550
G1 F1800.000 E3.44550
G92 E0
G1 Z1.500 F7800.000
G1 X100.000 Y105.800
G1 F1800.000 E1.00000
G1 X89.850 Y100.000 F809.593 E1.30858
G1 X100.000 Y94.200 E1.61716
G1 X110.150 Y100.000 E1.92574
G1 X100.097 Y105.744 E2.23137
G1 X100.000 Y105.800 E2.23432
G1 X100.000 Y106.660 F7800.000
G1 X88.346 Y100.000 F809.593 E2.58864
G1 X100.000 Y93.340 E2.94295
G1 X111.654 Y100.000 E3.29727
G1 X100.097 Y106.604 E3.64863
G1 X100.000 Y106.660 E3.65159
G1 X99.744 Y105.959 F7800.000
G1 F1800.000 E2.65159
G92 E0
G1 X92.060 Y100.739 F7800.000
G1 F1800.000 E1.00000
G1 X92.060 Y99.261 F1079.457 E1.03902
G1 X92.889 Y98.787 E1.06424
G1 X92.889 Y101.213 E1.12828
G1 X93.719 Y101.687 E1.15349
G1 X93.719 Y98.313 E1.24255
G1 X94.548 Y97.839 E1.26776
G1 X94.548 Y102.161 E1.38184
G1 X95.377 Y102.635 E1.40705
G1 X95.377 Y97.365 E1.54614
G1 X96.206 Y96.891 E1.57135
G1 X96.206 Y103.109 E1.73546
G1 X97.036 Y103.582 E1.76067
G1 X97.036 Y96.418 E1.94980
G1 X97.865 Y95.944 E1.97501
G1 X97.865 Y104.056 E2.18916
G1 X98.694 Y104.530 E2.21437
G1 X98.694 Y95.470 E2.45353
G1 X99.523 Y94.996 E2.47874
G1 X99.523 Y105.004 E2.74292
G1 X100.353 Y105.075 E2.76489
G1 X100.353 Y94.925 E3.03280
G1 X101.182 Y95.399 E3.05801
G1 X101.182 Y104.601 E3.30091
G1 X102.011 Y104.127 E3.32612
G1 X102.011 Y95.873 E3.54400
G1 X102.841 Y96.347 E3.56921
G1 X102.841 Y103.653 E3.76207
G1 X103.670 Y103.179 E3.78728
G1 X103.670 Y96.821 E3.95512
G1 X104.499 Y97.295 E3.98034
G1 X104.499 Y102.705 E4.12316
G1 X105.328 Y102.231 E4.14837
G1 X105.328 Y97.769 E4.26618
G1 X106.158 Y98.242 E4.29139
G1 X106.158 Y101.758 E4.38418
G1 X106.987 Y101.284 E4.40939
G1 X106.987 Y98.716 E4.47716
G1 X107.816 Y99.190 E4.50238
G1 X107.816 Y100.810 E4.54513
G1 X108.646 Y100.336 E4.57034
G1 X108.646 Y99.664 E4.58808
G1 F1800.000 E3.58808
G92 E0
G1 Z1.750 F7800.000
G1 X110.104 Y100.000
G1 F1800.000 E1.00000
