; generated by Slic3r 0.9.8 on 2013-05-28 at 12:05:27

; layer_height = .25
; perimeters = 1
; top_solid_layers = 4
; bottom_solid_layers = 4
; fill_density = .9
; perimeter_speed = 30
; infill_speed = 40
; travel_speed = 130
; scale = 1
; nozzle_diameter = 0.5
; filament_diameter = 3
; extrusion_multiplier = 1
; perimeters extrusion width = 0.80mm
; infill extrusion width = 0.80mm
; first layer extrusion width = 0.50mm

M107
M104 S210 ; set temperature
G28 ; home all axes
M109 S210 ; wait for temperature to be reached
G90 ; use absolute coordinates
G21 ; set units to millimeters
G92 E0
M82 ; use absolute distances for extrusion
G1 F1800.000 E-1.00000
G92 E0
G1 Z0.250 F7800.000
G1 X116.049 Y105.622
G1 F1800.000 E1.00000
G1 X115.369 Y106.072 F900.000 E1.01442
G1 X103.479 Y112.872 E1.25664
G1 X102.719 Y113.242 E1.27159
G1 X102.199 Y113.442 E1.28144
G1 X101.659 Y113.592 E1.29135
G1 X101.119 Y113.702 E1.30110
G1 X100.559 Y113.772 E1.31108
G1 X99.999 Y113.792 E1.32098
G1 X99.439 Y113.772 E1.33089
G1 X99.159 Y113.742 E1.33587
G1 X98.609 Y113.652 E1.34573
G1 X97.799 Y113.442 E1.36053
G1 X97.019 Y113.132 E1.37537
G1 X96.529 Y112.872 E1.38518
G1 X84.389 Y105.932 E1.63246
G1 X83.939 Y105.622 E1.64213
G1 X83.309 Y105.102 E1.65657
G1 X82.929 Y104.712 E1.66620
G1 X82.579 Y104.292 E1.67587
G1 X82.109 Y103.622 E1.69034
G1 X81.849 Y103.142 E1.70000
G1 X81.619 Y102.652 E1.70957
G1 X81.359 Y101.872 E1.72411
G1 X81.179 Y101.072 E1.73861
G1 X81.119 Y100.532 E1.74822
G1 X81.099 Y99.992 E1.75777
G1 X81.119 Y99.442 E1.76751
G1 X81.149 Y99.172 E1.77231
G1 X81.229 Y98.632 E1.78196
G1 X81.439 Y97.842 E1.79642
G1 X81.729 Y97.082 E1.81080
G1 X81.979 Y96.592 E1.82053
G1 X82.259 Y96.132 E1.83005
G1 X82.749 Y95.472 E1.84459
G1 X83.119 Y95.072 E1.85423
G1 X83.729 Y94.522 E1.86875
G1 X84.169 Y94.202 E1.87837
G1 X84.629 Y93.912 E1.88799
G1 X96.529 Y87.122 E2.13027
G1 X97.279 Y86.752 E2.14506
G1 X97.799 Y86.552 E2.15491
G1 X98.339 Y86.402 E2.16483
G1 X98.889 Y86.292 E2.17474
G1 X99.439 Y86.222 E2.18455
G1 X99.999 Y86.202 E2.19446
G1 X100.559 Y86.222 E2.20437
G1 X100.839 Y86.252 E2.20935
G1 X101.389 Y86.342 E2.21920
G1 X102.199 Y86.552 E2.23400
G1 X102.979 Y86.862 E2.24884
G1 X103.469 Y87.122 E2.25865
G1 X115.599 Y94.052 E2.50570
G1 X116.259 Y94.522 E2.52003
G1 X116.669 Y94.882 E2.52967
G1 X117.059 Y95.272 E2.53943
G1 X117.409 Y95.682 E2.54896
G1 X117.729 Y96.132 E2.55872
G1 X118.139 Y96.832 E2.57307
G1 X118.459 Y97.582 E2.58749
G1 X118.629 Y98.102 E2.59716
G1 X118.759 Y98.632 E2.60681
G1 X118.869 Y99.442 E2.62127
G1 X118.889 Y99.992 E2.63100
G1 X118.869 Y100.532 E2.64056
G1 X118.809 Y101.072 E2.65017
G1 X118.699 Y101.612 E2.65991
G1 X118.469 Y102.392 E2.67429
G1 X118.259 Y102.902 E2.68405
G1 X117.879 Y103.622 E2.69844
G1 X117.579 Y104.072 E2.70801
G1 X117.059 Y104.712 E2.72259
G1 X116.679 Y105.102 E2.73222
G1 X116.108 Y105.576 E2.74534
G1 X116.049 Y105.622 E2.74667
G1 X115.779 Y105.202 F7800.000
G1 X115.119 Y105.632 F900.000 E2.76060
G1 X103.229 Y112.432 E3.00281
G1 X102.499 Y112.792 E3.01721
G1 X101.989 Y112.982 E3.02683
G1 X101.469 Y113.122 E3.03636
G1 X101.209 Y113.182 E3.04107
G1 X100.409 Y113.282 E3.05533
G1 X99.869 Y113.292 E3.06488
G1 X99.329 Y113.262 E3.07445
G1 X98.789 Y113.182 E3.08410
G1 X98.009 Y112.982 E3.09834
G1 X97.499 Y112.792 E3.10796
G1 X97.009 Y112.562 E3.11754
G1 X84.649 Y105.502 E3.36925
G1 X84.009 Y105.042 E3.38319
G1 X83.609 Y104.692 E3.39259
G1 X83.249 Y104.312 E3.40185
G1 X82.909 Y103.912 E3.41113
G1 X82.609 Y103.482 E3.42040
G1 X82.229 Y102.792 E3.43433
G1 X82.119 Y102.552 E3.43900
G1 X81.939 Y102.062 E3.44823
G1 X81.789 Y101.552 E3.45763
G1 X81.679 Y101.042 E3.46686
G1 X81.619 Y100.512 E3.47629
G1 X81.599 Y99.992 E3.48549
G1 X81.619 Y99.462 E3.49487
G1 X81.649 Y99.202 E3.49950
G1 X81.729 Y98.682 E3.50880
G1 X81.859 Y98.172 E3.51811
G1 X82.029 Y97.672 E3.52745
G1 X82.349 Y96.952 E3.54138
G1 X82.759 Y96.282 E3.55527
G1 X83.079 Y95.862 E3.56461
G1 X83.619 Y95.282 E3.57863
G1 X84.009 Y94.942 E3.58777
G1 X84.429 Y94.622 E3.59711
G1 X84.879 Y94.342 E3.60648
G1 X96.779 Y87.552 E3.84877
G1 X97.499 Y87.202 E3.86293
G1 X98.269 Y86.932 E3.87736
G1 X98.789 Y86.812 E3.88679
G1 X99.329 Y86.732 E3.89645
G1 X99.599 Y86.712 E3.90123
G1 X100.409 Y86.712 E3.91556
G1 X100.939 Y86.772 E3.92499
G1 X101.209 Y86.812 E3.92982
G1 X101.989 Y87.012 E3.94406
G1 X102.499 Y87.202 E3.95368
G1 X102.989 Y87.432 E3.96325
G1 X115.339 Y94.482 E4.21473
G1 X115.559 Y94.622 E4.21934
G1 X116.179 Y95.112 E4.23331
G1 X116.559 Y95.472 E4.24257
G1 X116.909 Y95.862 E4.25184
G1 X117.229 Y96.282 E4.26118
G1 X117.639 Y96.962 E4.27522
G1 X117.759 Y97.192 E4.27980
G1 X117.959 Y97.672 E4.28900
G1 X118.129 Y98.172 E4.29834
G1 X118.259 Y98.682 E4.30765
G1 X118.369 Y99.462 E4.32158
G1 X118.389 Y99.992 E4.33096
G1 X118.369 Y100.512 E4.34016
G1 X118.309 Y101.032 E4.34941
G1 X118.129 Y101.802 E4.36340
G1 X117.869 Y102.552 E4.37744
G1 X117.639 Y103.022 E4.38669
G1 X117.379 Y103.482 E4.39603
G1 X117.079 Y103.912 E4.40530
G1 X116.559 Y104.512 E4.41935
G1 X116.179 Y104.872 E4.42860
G1 X115.837 Y105.155 E4.43645
G1 X115.779 Y105.202 E4.43777
G1 F1800.000 E3.43777
G92 E0
G1 X110.887 Y100.000 F7800.000
G1 F1800.000 E1.00000
G1 X100.000 Y106.221 F900.000 E1.22174
G1 X89.113 Y100.000 E1.44348
G1 X100.000 Y93.779 E1.66521
G1 X110.822 Y99.963 E1.88563
G1 X110.887 Y100.000 E1.88695
G1 X111.895 Y100.000 F7800.000
G1 X100.000 Y106.797 F900.000 E2.12922
G1 X88.105 Y100.000 E2.37148
G1 X100.000 Y93.203 E2.61374
G1 X111.830 Y99.963 E2.85468
G1 X111.895 Y100.000 E2.85601
G1 X111.402 Y100.086 F7800.000
G1 F1800.000 E1.85601
G92 E0
G1 X100.225 Y105.645 F7800.000
G1 F1800.000 E1.00000
G1 X99.775 Y105.645 F1500.000 E1.00818
G1 X98.877 Y105.132 E1.02695
G1 X101.123 Y105.132 E1.06773
G1 X102.021 Y104.619 E1.08650
G1 X97.979 Y104.619 E1.15988
G1 X97.081 Y104.106 E1.17866
G1 X102.920 Y104.106 E1.28464
G1 X103.818 Y103.592 E1.30342
G1 X96.182 Y103.592 E1.44200
G1 X95.284 Y103.079 E1.46078
G1 X104.716 Y103.079 E1.63196
G1 X105.614 Y102.566 E1.65074
G1 X94.386 Y102.566 E1.85453
G1 X93.488 Y102.053 E1.87331
G1 X106.512 Y102.053 E2.10970
G1 X107.410 Y101.540 E2.12847
G1 X92.590 Y101.540 E2.39747
G1 X91.692 Y101.026 E2.41624
G1 X108.308 Y101.026 E2.71784
G1 X109.206 Y100.513 E2.73662
G1 X90.794 Y100.513 E3.07082
G1 X90.794 Y99.487 F7800.000
G1 X109.206 Y99.487 F1500.000 E3.40502
G1 X110.104 Y100.000 E3.42379
G1 X89.896 Y100.000 E3.79059
G1 F1800.000 E2.79059
G92 E0
G1 X91.692 Y98.974 F7800.000
G1 F1800.000 E1.00000
G1 X108.308 Y98.974 F1500.000 E1.30160
G1 X107.410 Y98.460 E1.32037
G1 X92.590 Y98.460 E1.58937
G1 X93.488 Y97.947 E1.60814
G1 X106.512 Y97.947 E1.84454
G1 X105.614 Y97.434 E1.86331
G1 X94.386 Y97.434 E2.06710
G1 X95.284 Y96.921 E2.08588
G1 X104.716 Y96.921 E2.25707
G1 X103.818 Y96.408 E2.27584
G1 X96.182 Y96.408 E2.41443
G1 X97.081 Y95.894 E2.43321
G1 X102.920 Y95.894 E2.53919
G1 X102.021 Y95.381 E2.55796
G1 X97.979 Y95.381 E2.63134
G1 X98.877 Y94.868 E2.65012
G1 X101.123 Y94.868 E2.69090
G1 X100.225 Y94.355 E2.70967
G1 X99.775 Y94.355 E2.71785
M106 S255
G1 F1800.000 E1.71785
G92 E0
G1 Z0.500 F7800.000
G1 X100.000 Y94.262
G1 F1800.000 E1.00000
G1 X110.042 Y100.000 F741.250 E1.30531
G1 X100.000 Y105.738 E1.61062
G1 X89.958 Y100.000 E1.91592
G1 X99.903 Y94.317 E2.21828
G1 X100.000 Y94.262 E2.22123
G1 X100.000 Y93.402 F7800.000
G1 X111.547 Y100.000 F741.250 E2.57227
G1 X100.332 Y106.408 E2.91322
G1 X100.332 Y106.788 E2.92324
G1 X88.453 Y100.000 E3.28438
G1 X99.903 Y93.458 E3.63247
G1 X100.000 Y93.402 E3.63542
G1 X100.256 Y94.103 F7800.000
G1 F1800.000 E2.63542
G92 E0
G1 X108.538 Y99.664 F7800.000
G1 F1800.000 E1.00000
G1 X108.538 Y100.336 F1235.417 E1.01845
G1 X107.762 Y100.780 E1.04299
G1 X107.762 Y99.221 E1.08579
G1 X106.986 Y98.777 E1.11033
G1 X106.986 Y101.223 E1.17747
G1 X106.209 Y101.667 E1.20201
G1 X106.209 Y98.333 E1.29351
G1 X105.433 Y97.890 E1.31805
G1 X105.433 Y102.110 E1.43390
G1 X104.657 Y102.554 E1.45845
G1 X104.657 Y97.446 E1.59865
G1 X103.881 Y97.003 E1.62319
G1 X103.881 Y102.997 E1.78774
G1 X103.105 Y103.441 E1.81228
G1 X103.105 Y96.559 E2.00119
G1 X102.329 Y96.116 E2.02573
G1 X102.329 Y103.884 E2.23898
G1 X101.552 Y104.328 E2.26353
G1 X101.552 Y95.672 E2.50113
G1 X100.776 Y95.229 E2.52567
G1 X100.776 Y104.771 E2.78763
G1 X100.000 Y105.215 E2.81217
G1 X100.000 Y94.785 E3.09847
G1 X99.224 Y95.229 E3.12301
G1 X99.224 Y104.771 E3.38497
G1 X98.448 Y104.328 E3.40951
G1 X98.448 Y95.672 E3.64712
G1 X97.671 Y96.116 E3.67166
G1 X97.671 Y103.884 E3.88491
G1 X96.895 Y103.441 E3.90945
G1 X96.895 Y96.559 E4.09836
G1 X96.119 Y97.003 E4.12290
G1 X96.119 Y102.997 E4.28745
G1 X95.343 Y102.554 E4.31199
G1 X95.343 Y97.446 E4.45219
G1 X94.567 Y97.890 E4.47673
G1 X94.567 Y102.110 E4.59259
G1 X93.791 Y101.667 E4.61713
G1 X93.791 Y98.333 E4.70863
G1 X93.014 Y98.777 E4.73317
G1 X93.014 Y101.223 E4.80031
G1 X92.238 Y100.780 E4.82486
G1 X92.238 Y99.221 E4.86765
G1 X91.462 Y99.664 E4.89219
G1 X91.462 Y100.336 E4.91064
G1 F1800.000 E3.91064
G92 E0
G1 Z0.750 F7800.000
G1 X90.004 Y100.000
G1 F1800.000 E1.00000
G1 X100.000 Y94.288 F727.247 E1.30392
G1 X109.996 Y100.000 E1.60783
G1 X100.000 Y105.712 E1.91175
G1 X90.101 Y100.056 E2.21271
G1 X90.004 Y100.000 E2.21566
G1 X88.499 Y100.000 F7800.000
G1 X100.000 Y93.428 F727.247 E2.56531
G1 X111.501 Y100.000 E2.91496
G1 X100.000 Y106.572 E3.26461
G1 X88.596 Y100.056 E3.61131
G1 X88.499 Y100.000 E3.61426
G1 X89.234 Y99.871 F7800.000
G1 F1800.000 E2.61426
G92 E0
G1 X100.336 Y95.147 F7800.000
G1 F1800.000 E1.00000
G1 X99.664 Y95.147 F1212.079 E1.01774
G1 X98.357 Y95.894 E1.05748
G1 X101.642 Y95.894 E1.14421
G1 X102.949 Y96.640 E1.18395
G1 X97.051 Y96.640 E1.33968
G1 X95.744 Y97.387 E1.37941
G1 X104.255 Y97.387 E1.60414
G1 X105.562 Y98.134 E1.64387
G1 X94.438 Y98.134 E1.93759
G1 X93.132 Y98.880 E1.97732
G1 X106.868 Y98.880 E2.34003
G1 X108.175 Y99.627 E2.37976
G1 X91.825 Y99.627 E2.81147
G1 X91.825 Y100.373 E2.83118
G1 X108.175 Y100.373 E3.26289
G1 X106.868 Y101.120 E3.30262
G1 X93.132 Y101.120 E3.66533
G1 X94.438 Y101.866 E3.70507
G1 X105.562 Y101.866 E3.99879
G1 X104.255 Y102.613 E4.03852
G1 X95.744 Y102.613 E4.26324
G1 X97.051 Y103.360 E4.30298
G1 X102.949 Y103.360 E4.45871
G1 X101.642 Y104.106 E4.49844
G1 X98.357 Y104.106 E4.58518
G1 X99.664 Y104.853 E4.62491
G1 X100.336 Y104.853 E4.64266
G1 F1800.000 E3.64266
G92 E0
G1 Z1.000 F7800.000
G1 X100.000 Y105.686
G1 F1800.000 E1.00000
G1 X90.049 Y100.000 F733.085 E1.30252
G1 X100.000 Y94.314 E1.60505
G1 X109.951 Y100.000 E1.90757
G1 X100.097 Y105.631 E2.20714
G1 X100.000 Y105.686 E2.21009
G1 X99.712 Y106.381 F7800.000
G1 X88.545 Y100.000 F733.085 E2.54960
G1 X100.000 Y93.454 E2.89786
G1 X111.455 Y100.000 E3.24612
G1 X100.000 Y106.546 E3.59438
G1 X99.810 Y106.437 E3.60017
G1 X99.712 Y106.381 E3.60312
G1 X99.709 Y105.635 F7800.000
G1 F1800.000 E2.60312
G92 E0
G1 X91.554 Y100.336 F7800.000
G1 F1800.000 E1.00000
G1 X91.554 Y99.664 F1221.808 E1.01825
G1 X92.322 Y99.225 E1.04227
G1 X92.322 Y100.775 E1.08434
G1 X93.089 Y101.214 E1.10836
G1 X93.089 Y98.787 E1.17427
G1 X93.857 Y98.348 E1.19829
G1 X93.857 Y101.652 E1.28803
G1 X94.625 Y102.091 E1.31205
G1 X94.625 Y97.909 E1.42562
G1 X95.393 Y97.470 E1.44964
G1 X95.393 Y102.530 E1.58704
G1 X96.161 Y102.969 E1.61106
G1 X96.161 Y97.031 E1.77230
G1 X96.929 Y96.593 E1.79631
G1 X96.929 Y103.407 E1.98138
G1 X97.696 Y103.846 E2.00540
G1 X97.696 Y96.154 E2.21430
G1 X98.464 Y95.715 E2.23831
G1 X98.464 Y104.285 E2.47105
G1 X99.232 Y104.724 E2.49506
G1 X99.232 Y95.276 E2.75162
G1 X100.000 Y94.838 E2.77564
G1 X100.000 Y105.162 E3.05603
G1 X100.768 Y104.724 E3.08004
G1 X100.768 Y95.276 E3.33660
G1 X101.536 Y95.715 E3.36062
G1 X101.536 Y104.285 E3.59335
G1 X102.304 Y103.846 E3.61737
G1 X102.304 Y96.154 E3.82627
G1 X103.071 Y96.593 E3.85028
G1 X103.071 Y103.407 E4.03535
G1 X103.839 Y102.969 E4.05937
G1 X103.839 Y97.031 E4.22061
G1 X104.607 Y97.470 E4.24462
G1 X104.607 Y102.530 E4.38203
G1 X105.375 Y102.091 E4.40604
G1 X105.375 Y97.909 E4.51962
G1 X106.143 Y98.348 E4.54363
G1 X106.143 Y101.652 E4.63338
G1 X106.911 Y101.214 E4.65740
G1 X106.911 Y98.787 E4.72331
G1 X107.678 Y99.225 E4.74732
G1 X107.678 Y100.775 E4.78940
G1 X108.446 Y100.336 E4.81342
G1 X108.446 Y99.664 E4.83167
G1 F1800.000 E3.83167
G92 E0
G1 Z1.250 F7800.000
G1 X109.905 Y100.000
G1 F1800.000 E1.00000
G1 X100.000 Y105.660 F762.017 E1.30113
G1 X90.095 Y100.000 E1.60226
G1 X100.000 Y94.340 E1.90339
G1 X109.808 Y99.944 E2.20156
G1 X109.905 Y100.000 E2.20452
G1 X110.623 Y99.551 F7800.000
G1 X111.409 Y100.000 F762.017 E2.22843
G1 X100.000 Y106.519 E2.57530
G1 X88.591 Y100.000 E2.92216
G1 X100.000 Y93.481 E3.26903
G1 X110.525 Y99.495 E3.58902
G1 X110.623 Y99.551 E3.59198
G1 X110.626 Y100.297 F7800.000
G1 F1800.000 E2.59198
G92 E0
G1 X101.173 Y95.678 F7800.000
G1 F1800.000 E1.00000
G1 X98.827 Y95.678 F1016.023 E1.06195
G1 X97.375 Y96.508 E1.10607
G1 X102.625 Y96.508 E1.24464
G1 X104.076 Y97.337 E1.28876
G1 X95.924 Y97.337 E1.50394
G1 X94.473 Y98.166 E1.54806
G1 X105.527 Y98.166 E1.83986
G1 X106.978 Y98.995 E1.88398
G1 X93.022 Y98.995 E2.25240
G1 X91.570 Y99.825 E2.29652
G1 X108.430 Y99.825 E2.74155
G1 X107.592 Y100.654 E2.77266
G1 X92.408 Y100.654 E3.17348
G1 X93.859 Y101.483 E3.21760
G1 X106.141 Y101.483 E3.54180
G1 X104.690 Y102.312 E3.58592
G1 X95.310 Y102.312 E3.83351
G1 X96.761 Y103.142 E3.87763
G1 X103.238 Y103.142 E4.04860
G1 X101.787 Y103.971 E4.09272
G1 X98.213 Y103.971 E4.18708
G1 X99.664 Y104.800 E4.23120
G1 X100.336 Y104.800 E4.24895
G1 F1800.000 E3.24895
G92 E0
G1 Z1.500 F7800.000
G1 X100.000 Y105.634
G1 F1800.000 E1.00000
G1 X90.141 Y100.000 F779.195 E1.29974
G1 X100.000 Y94.366 E1.59947
G1 X109.859 Y100.000 E1.89921
G1 X100.097 Y105.578 E2.19599
G1 X100.000 Y105.634 E2.19895
G1 X100.000 Y106.493 F7800.000
G1 X88.637 Y100.000 F779.195 E2.54442
G1 X100.000 Y93.507 E2.88989
G1 X111.363 Y100.000 E3.23537
G1 X100.097 Y106.438 E3.57788
G1 X100.000 Y106.493 E3.58084
G1 X99.744 Y105.792 F7800.000
G1 F1800.000 E2.58084
G92 E0
G1 X91.769 Y100.407 F7800.000
G1 F1800.000 E1.00000
G1 X91.769 Y99.593 F1038.926 E1.02147
G1 X92.598 Y99.119 E1.04668
G1 X92.598 Y100.881 E1.09317
G1 X93.428 Y101.355 E1.11839
G1 X93.428 Y98.646 E1.18990
G1 X94.257 Y98.172 E1.21511
G1 X94.257 Y101.828 E1.31163
G1 X95.086 Y102.302 E1.33685
G1 X95.086 Y97.698 E1.45839
G1 X95.916 Y97.224 E1.48360
G1 X95.916 Y102.776 E1.63016
G1 X96.745 Y103.250 E1.65537
G1 X96.745 Y96.750 E1.82695
G1 X97.574 Y96.276 E1.85216
G1 X97.574 Y103.724 E2.04875
G1 X98.403 Y104.198 E2.07396
G1 X98.403 Y95.802 E2.29557
G1 X99.233 Y95.328 E2.32079
G1 X99.233 Y104.672 E2.56742
G1 X100.062 Y105.075 E2.59176
G1 X100.062 Y94.925 E2.85967
G1 X100.891 Y95.399 E2.88488
G1 X100.891 Y104.601 E3.12777
G1 X101.720 Y104.127 E3.15298
G1 X101.720 Y95.873 E3.37086
G1 X102.550 Y96.347 E3.39607
G1 X102.550 Y103.653 E3.58893
G1 X103.379 Y103.179 E3.61415
G1 X103.379 Y96.821 E3.78199
G1 X104.208 Y97.295 E3.80720
G1 X104.208 Y102.705 E3.95002
G1 X105.038 Y102.231 E3.97523
G1 X105.038 Y97.769 E4.09304
G1 X105.867 Y98.242 E4.11825
G1 X105.867 Y101.758 E4.21104
G1 X106.696 Y101.284 E4.23626
G1 X106.696 Y98.716 E4.30403
G1 X107.525 Y99.190 E4.32924
G1 X107.525 Y100.810 E4.37199
G1 X108.355 Y100.336 E4.39720
G1 X108.355 Y99.664 E4.41494
G1 F1800.000 E3.41494
G92 E0
G1 Z1.750 F7800.000
G1 X109.813 Y100.000
G1 F1800.000 E1.00000
G1 X100.000 Y105.608 F751.678 E1.29834
G1 X90.187 Y100.000 E1.59669
G1 X100.000 Y94.392 E1.89503
G1 X109.716 Y99.944 E2.19042
G1 X109.813 Y100.000 E2.19338
G1 X109.911 Y99.196 F7800.000
G1 X111.317 Y100.000 F751.678 E2.23613
