; generated by Slic3r 0.9.8 on 2013-05-28 at 16:14:23

; layer_height = .25
; perimeters = 1
; top_solid_layers = 4
; bottom_solid_layers = 4
; fill_density = .9
; perimeter_speed = 30
; infill_speed = 40
; travel_speed = 130
; scale = 1
; nozzle_diameter = 0.5
; filament_diameter = 3
; extrusion_multiplier = 1
; perimeters extrusion width = 0.80mm
; infill extrusion width = 0.80mm
; first layer extrusion width = 0.50mm

M107
M104 S210 ; set temperature
G28 ; home all axes
M109 S210 ; wait for temperature to be reached
G90 ; use absolute coordinates
G21 ; set units to millimeters
G92 E0
M82 ; use absolute distances for extrusion
G1 F1800.000 E-1.00000
G92 E0
G1 Z0.250 F7800.000
G1 X128.124 Y106.079
G1 F1800.000 E1.00000
G1 X103.014 Y120.409 F900.000 E1.51126
G1 X102.494 Y120.629 E1.52125
G1 X101.964 Y120.809 E1.53115
G1 X101.134 Y120.999 E1.54620
G1 X100.864 Y121.039 E1.55103
G1 X100.584 Y121.069 E1.55601
G1 X99.734 Y121.089 E1.57105
G1 X99.174 Y121.039 E1.58099
G1 X98.624 Y120.949 E1.59084
G1 X98.074 Y120.819 E1.60084
G1 X97.544 Y120.649 E1.61068
G1 X97.024 Y120.429 E1.62067
G1 X96.524 Y120.169 E1.63063
G1 X71.864 Y106.079 E2.13288
G1 X71.624 Y105.939 E2.13779
G1 X71.174 Y105.629 E2.14746
G1 X70.544 Y105.109 E2.16190
G1 X69.984 Y104.519 E2.17629
G1 X69.494 Y103.859 E2.19082
G1 X69.214 Y103.399 E2.20035
G1 X68.854 Y102.659 E2.21490
G1 X68.594 Y101.889 E2.22927
G1 X68.414 Y101.089 E2.24377
G1 X68.354 Y100.549 E2.25338
G1 X68.334 Y99.999 E2.26311
G1 X68.354 Y99.459 E2.27267
G1 X68.414 Y98.909 E2.28245
G1 X68.464 Y98.649 E2.28713
G1 X68.674 Y97.849 E2.30176
G1 X68.854 Y97.339 E2.31132
G1 X68.964 Y97.089 E2.31615
G1 X69.344 Y96.369 E2.33055
G1 X69.814 Y95.699 E2.34502
G1 X70.354 Y95.079 E2.35956
G1 X70.544 Y94.889 E2.36431
G1 X71.174 Y94.369 E2.37876
G1 X71.624 Y94.059 E2.38842
G1 X96.974 Y79.579 E2.90469
G1 X97.494 Y79.359 E2.91467
G1 X98.024 Y79.179 E2.92457
G1 X98.854 Y78.989 E2.93963
G1 X99.124 Y78.949 E2.94446
G1 X99.404 Y78.919 E2.94943
G1 X100.254 Y78.899 E2.96447
G1 X100.814 Y78.949 E2.97441
G1 X101.374 Y79.039 E2.98444
G1 X101.914 Y79.169 E2.99426
G1 X102.454 Y79.349 E3.00433
G1 X102.974 Y79.559 E3.01425
G1 X103.464 Y79.819 E3.02406
G1 X128.124 Y93.919 E3.52639
G1 X128.364 Y94.059 E3.53131
G1 X128.814 Y94.369 E3.54097
G1 X129.444 Y94.889 E3.55542
G1 X129.634 Y95.079 E3.56017
G1 X130.174 Y95.699 E3.57471
G1 X130.344 Y95.919 E3.57962
G1 X130.644 Y96.369 E3.58919
G1 X131.024 Y97.089 E3.60358
G1 X131.134 Y97.339 E3.60841
G1 X131.314 Y97.859 E3.61815
G1 X131.524 Y98.649 E3.63260
G1 X131.574 Y98.919 E3.63746
G1 X131.634 Y99.459 E3.64706
G1 X131.654 Y99.999 E3.65662
G1 X131.634 Y100.549 E3.66635
G1 X131.574 Y101.089 E3.67596
G1 X131.394 Y101.889 E3.69046
G1 X131.134 Y102.659 E3.70483
G1 X130.904 Y103.159 E3.71457
G1 X130.494 Y103.859 E3.72891
G1 X130.004 Y104.519 E3.74345
G1 X129.444 Y105.109 E3.75783
G1 X128.814 Y105.629 E3.77228
G1 X128.188 Y106.041 E3.78552
G1 X128.124 Y106.079 E3.78685
G1 X127.874 Y105.639 F7800.000
G1 X103.024 Y119.839 F900.000 E4.29298
G1 X102.534 Y120.079 E4.30263
G1 X101.764 Y120.349 E4.31706
G1 X100.964 Y120.519 E4.33152
G1 X100.424 Y120.579 E4.34113
G1 X99.884 Y120.589 E4.35068
G1 X99.334 Y120.559 E4.36042
G1 X98.804 Y120.479 E4.36990
G1 X98.274 Y120.359 E4.37951
G1 X97.754 Y120.189 E4.38918
G1 X97.004 Y119.859 E4.40367
G1 X71.884 Y105.509 E4.91526
G1 X71.244 Y105.049 E4.92920
G1 X70.844 Y104.699 E4.93860
G1 X70.314 Y104.129 E4.95237
G1 X70.144 Y103.919 E4.95714
G1 X69.844 Y103.489 E4.96642
G1 X69.584 Y103.029 E4.97576
G1 X69.354 Y102.559 E4.98501
G1 X69.094 Y101.819 E4.99888
G1 X68.914 Y101.049 E5.01287
G1 X68.854 Y100.529 E5.02212
G1 X68.834 Y99.999 E5.03150
G1 X68.854 Y99.479 E5.04071
G1 X68.914 Y98.949 E5.05014
G1 X69.094 Y98.179 E5.06412
G1 X69.354 Y97.439 E5.07799
G1 X69.584 Y96.969 E5.08724
G1 X69.844 Y96.509 E5.09659
G1 X69.994 Y96.289 E5.10130
G1 X70.144 Y96.079 E5.10586
G1 X70.484 Y95.679 E5.11514
G1 X70.844 Y95.299 E5.12440
G1 X71.444 Y94.789 E5.13833
G1 X72.104 Y94.359 E5.15226
G1 X96.964 Y80.149 E5.65863
G1 X97.464 Y79.909 E5.66844
G1 X98.224 Y79.639 E5.68270
G1 X99.024 Y79.469 E5.69716
G1 X99.564 Y79.409 E5.70677
G1 X99.834 Y79.399 E5.71155
G1 X100.654 Y79.429 E5.72606
G1 X101.184 Y79.509 E5.73554
G1 X101.714 Y79.629 E5.74515
G1 X101.974 Y79.709 E5.74996
G1 X102.734 Y80.009 E5.76441
G1 X103.224 Y80.259 E5.77413
G1 X127.884 Y94.359 E6.27647
G1 X128.544 Y94.789 E6.29040
G1 X128.744 Y94.949 E6.29493
G1 X129.324 Y95.479 E6.30882
G1 X129.844 Y96.079 E6.32286
G1 X130.144 Y96.509 E6.33214
G1 X130.404 Y96.969 E6.34148
G1 X130.634 Y97.439 E6.35073
G1 X130.894 Y98.189 E6.36477
G1 X131.074 Y98.949 E6.37858
G1 X131.134 Y99.479 E6.38801
G1 X131.154 Y99.999 E6.39722
G1 X131.134 Y100.529 E6.40660
G1 X131.024 Y101.309 E6.42053
G1 X130.814 Y102.069 E6.43447
G1 X130.634 Y102.559 E6.44370
G1 X130.524 Y102.799 E6.44837
G1 X130.134 Y103.489 E6.46238
G1 X129.844 Y103.919 E6.47156
G1 X129.674 Y104.129 E6.47633
G1 X129.144 Y104.699 E6.49010
G1 X128.744 Y105.049 E6.49950
G1 X128.324 Y105.369 E6.50884
G1 X127.939 Y105.602 E6.51679
G1 X127.874 Y105.639 E6.51812
G1 F1800.000 E5.51812
G92 E0
G1 X123.655 Y100.000 F7800.000
G1 F1800.000 E1.00000
G1 X100.000 Y113.517 F900.000 E1.48178
G1 X76.345 Y100.000 E1.96357
G1 X100.000 Y86.483 E2.44535
G1 X123.590 Y99.963 E2.92581
G1 X123.655 Y100.000 E2.92714
G1 X124.662 Y100.000 F7800.000
G1 X100.000 Y114.093 F900.000 E3.42945
G1 X99.692 Y113.917 E3.43572
G1 X75.338 Y100.000 E3.93176
G1 X100.000 Y85.907 E4.43407
G1 X124.597 Y99.963 E4.93506
G1 X124.662 Y100.000 E4.93638
G1 X124.170 Y100.086 F7800.000
G1 F1800.000 E3.93638
G92 E0
G1 X100.225 Y112.941 F7800.000
G1 F1800.000 E1.00000
G1 X99.775 Y112.941 F1500.000 E1.00808
G1 X98.887 Y112.434 E1.02644
G1 X101.113 Y112.434 E1.06641
G1 X102.001 Y111.926 E1.08477
G1 X97.999 Y111.926 E1.15662
G1 X97.110 Y111.419 E1.17498
G1 X102.890 Y111.419 E1.27871
G1 X103.778 Y110.911 E1.29707
G1 X96.222 Y110.911 E1.43267
G1 X95.334 Y110.404 E1.45103
G1 X104.666 Y110.404 E1.61852
G1 X105.554 Y109.896 E1.63688
G1 X94.446 Y109.896 E1.83626
G1 X93.558 Y109.389 E1.85462
G1 X106.442 Y109.389 E2.08587
G1 X107.330 Y108.881 E2.10423
G1 X92.670 Y108.881 E2.36736
G1 X91.782 Y108.374 E2.38572
G1 X108.218 Y108.374 E2.68074
G1 X109.106 Y107.866 E2.69910
G1 X90.894 Y107.866 E3.02600
G1 X90.006 Y107.359 E3.04436
G1 X109.994 Y107.359 E3.40314
G1 X110.883 Y106.851 E3.42150
G1 X89.117 Y106.851 E3.81216
G1 X88.229 Y106.344 E3.83052
G1 X111.771 Y106.344 E4.25306
G1 X112.659 Y105.836 E4.27142
G1 X87.341 Y105.836 E4.72584
G1 X86.453 Y105.329 E4.74420
G1 X113.547 Y105.329 E5.23051
G1 X114.435 Y104.821 E5.24887
G1 X85.565 Y104.821 E5.76705
G1 X84.677 Y104.314 E5.78541
G1 X115.323 Y104.314 E6.33548
G1 X116.211 Y103.806 E6.35384
G1 X83.789 Y103.806 E6.93579
G1 X82.901 Y103.299 E6.95415
G1 X117.099 Y103.299 E7.56798
G1 X117.987 Y102.791 E7.58634
G1 X82.012 Y102.791 E8.23205
G1 X81.124 Y102.284 E8.25041
G1 X118.876 Y102.284 E8.92800
G1 X119.764 Y101.776 E8.94636
G1 X80.236 Y101.776 E9.65583
G1 X79.348 Y101.269 E9.67419
G1 X120.652 Y101.269 E10.41555
G1 X121.540 Y100.761 E10.43391
G1 X78.460 Y100.761 E11.20715
G1 X77.572 Y100.254 E11.22550
G1 X122.428 Y100.254 E12.03062
G1 X122.428 Y99.746 E12.03973
G1 X77.572 Y99.746 E12.84485
G1 X78.460 Y99.239 E12.86321
G1 X121.540 Y99.239 E13.63645
G1 X120.652 Y98.731 E13.65481
G1 X79.348 Y98.731 E14.39616
G1 X80.236 Y98.224 E14.41452
G1 X119.764 Y98.224 E15.12400
G1 X118.876 Y97.716 E15.14236
G1 X81.124 Y97.716 E15.81995
G1 X82.012 Y97.209 E15.83831
G1 X117.987 Y97.209 E16.48402
G1 X117.099 Y96.701 E16.50238
G1 X82.901 Y96.701 E17.11621
G1 X83.789 Y96.194 E17.13457
G1 X116.211 Y96.194 E17.71652
G1 X115.323 Y95.686 E17.73488
G1 X84.677 Y95.686 E18.28495
G1 X85.565 Y95.179 E18.30331
G1 X114.435 Y95.179 E18.82149
G1 X113.547 Y94.671 E18.83985
G1 X86.453 Y94.671 E19.32615
G1 X87.341 Y94.164 E19.34451
G1 X112.659 Y94.164 E19.79894
G1 X111.771 Y93.656 E19.81730
G1 X88.229 Y93.656 E20.23984
G1 X89.117 Y93.149 E20.25820
G1 X110.883 Y93.149 E20.64886
G1 X109.994 Y92.641 E20.66722
G1 X90.006 Y92.641 E21.02600
G1 X90.894 Y92.134 E21.04436
G1 X109.106 Y92.134 E21.37126
G1 X108.218 Y91.626 E21.38962
G1 X91.782 Y91.626 E21.68463
G1 X92.670 Y91.119 E21.70299
G1 X107.330 Y91.119 E21.96613
G1 X106.442 Y90.611 E21.98449
G1 X93.558 Y90.611 E22.21574
G1 X94.446 Y90.104 E22.23410
G1 X105.554 Y90.104 E22.43347
G1 X104.666 Y89.596 E22.45183
G1 X95.334 Y89.596 E22.61932
G1 X96.222 Y89.089 E22.63768
G1 X103.778 Y89.089 E22.77329
G1 X102.890 Y88.581 E22.79165
G1 X97.110 Y88.581 E22.89538
G1 X97.999 Y88.074 E22.91374
G1 X102.001 Y88.074 E22.98559
G1 X101.113 Y87.566 E23.00395
G1 X98.887 Y87.566 E23.04391
G1 X99.775 Y87.059 E23.06227
G1 X100.225 Y87.059 E23.07036
M106 S230
G1 F1800.000 E22.07036
G92 E0
G1 Z0.500 F7800.000
G1 X101.097 Y86.707
G1 F1800.000 E1.00000
G1 X124.360 Y100.000 F1800.000 E1.70726
G1 X100.000 Y113.920 E2.44787
G1 X98.903 Y113.293 E2.48121
G1 X75.640 Y100.000 E3.18848
G1 X100.000 Y86.080 E3.92908
G1 X101.000 Y86.651 E3.95947
G1 X101.097 Y86.707 E3.96243
G1 F1800.000 E2.96243
G92 E0
G1 X122.856 Y99.664 F7800.000
G1 F1800.000 E1.00000
G1 X122.856 Y100.336 F3000.000 E1.01781
G1 X122.106 Y100.764 E1.04068
G1 X122.106 Y99.236 E1.08119
G1 X121.357 Y98.808 E1.10407
G1 X121.357 Y101.192 E1.16727
G1 X120.608 Y101.621 E1.19015
G1 X120.608 Y98.379 E1.27605
G1 X119.858 Y97.951 E1.29893
G1 X119.858 Y102.049 E1.40753
G1 X119.109 Y102.477 E1.43041
G1 X119.109 Y97.523 E1.56171
G1 X118.360 Y97.095 E1.58458
G1 X118.360 Y102.905 E1.73858
G1 X117.610 Y103.333 E1.76146
G1 X117.610 Y96.667 E1.93815
G1 X116.861 Y96.238 E1.96103
G1 X116.861 Y103.762 E2.16042
G1 X116.111 Y104.190 E2.18330
G1 X116.111 Y95.810 E2.40539
G1 X115.362 Y95.382 E2.42827
G1 X115.362 Y104.618 E2.67306
G1 X114.613 Y105.046 E2.69594
G1 X114.613 Y94.954 E2.96343
G1 X113.863 Y94.525 E2.98630
G1 X113.863 Y105.474 E3.27649
G1 X113.114 Y105.903 E3.29937
G1 X113.114 Y94.097 E3.61226
G1 X112.365 Y93.669 E3.63513
G1 X112.365 Y106.331 E3.97072
G1 X111.615 Y106.759 E3.99359
G1 X111.615 Y93.241 E4.35188
G1 X110.866 Y92.813 E4.37475
G1 X110.866 Y107.187 E4.75573
G1 X110.116 Y107.616 E4.77861
G1 X110.116 Y92.384 E5.18229
G1 X109.367 Y91.956 E5.20516
G1 X109.367 Y108.044 E5.63154
G1 X108.618 Y108.472 E5.65442
G1 X108.618 Y91.528 E6.10350
G1 X107.868 Y91.100 E6.12637
G1 X107.868 Y108.900 E6.59815
G1 X107.119 Y109.328 E6.62102
G1 X107.119 Y90.672 E7.11550
G1 X106.370 Y90.243 E7.13837
G1 X106.370 Y109.757 E7.65554
G1 X105.620 Y110.185 E7.67842
G1 X105.620 Y89.815 E8.21829
G1 X104.871 Y89.387 E8.24117
G1 X104.871 Y110.613 E8.80374
G1 X104.122 Y111.041 E8.82661
G1 X104.122 Y88.959 E9.41188
G1 X103.372 Y88.530 E9.43475
G1 X103.372 Y111.469 E10.04272
G1 X102.623 Y111.898 E10.06559
G1 X102.623 Y88.102 E10.69626
G1 X101.873 Y87.674 E10.71913
G1 X101.873 Y112.326 E11.37250
G1 X101.124 Y112.754 E11.39537
G1 X101.124 Y87.246 E12.07143
G1 X100.375 Y86.818 E12.09431
G1 X100.375 Y113.182 E12.79307
G1 X99.625 Y113.182 E12.81293
G1 X99.625 Y86.818 E13.51169
G1 X98.876 Y87.246 E13.53456
G1 X98.876 Y112.754 E14.21062
G1 X98.127 Y112.326 E14.23350
G1 X98.127 Y87.674 E14.88686
G1 X97.377 Y88.102 E14.90974
G1 X97.377 Y111.898 E15.54040
G1 X96.628 Y111.469 E15.56328
G1 X96.628 Y88.531 E16.17124
G1 X95.878 Y88.959 E16.19411
G1 X95.878 Y111.041 E16.77938
G1 X95.129 Y110.613 E16.80225
G1 X95.129 Y89.387 E17.36482
G1 X94.380 Y89.815 E17.38770
G1 X94.380 Y110.185 E17.92757
G1 X93.630 Y109.757 E17.95044
G1 X93.630 Y90.243 E18.46762
G1 X92.881 Y90.672 E18.49049
G1 X92.881 Y109.328 E18.98496
G1 X92.132 Y108.900 E19.00784
G1 X92.132 Y91.100 E19.47961
G1 X91.382 Y91.528 E19.50249
G1 X91.382 Y108.472 E19.95157
G1 X90.633 Y108.044 E19.97444
G1 X90.633 Y91.956 E20.40082
G1 X89.883 Y92.384 E20.42370
G1 X89.883 Y107.616 E20.82738
G1 X89.134 Y107.187 E20.85025
G1 X89.134 Y92.813 E21.23123
G1 X88.385 Y93.241 E21.25411
G1 X88.385 Y106.759 E21.61239
G1 X87.635 Y106.331 E21.63527
G1 X87.635 Y93.669 E21.97085
G1 X86.886 Y94.097 E21.99373
G1 X86.886 Y105.903 E22.30661
G1 X86.137 Y105.474 E22.32949
G1 X86.137 Y94.525 E22.61968
G1 X85.387 Y94.954 E22.64255
G1 X85.387 Y105.046 E22.91004
G1 X84.638 Y104.618 E22.93292
G1 X84.638 Y95.382 E23.17771
G1 X83.888 Y95.810 E23.20059
G1 X83.888 Y104.190 E23.42268
G1 X83.139 Y103.762 E23.44556
G1 X83.139 Y96.238 E23.64495
G1 X82.390 Y96.667 E23.66782
G1 X82.390 Y103.333 E23.84452
G1 X81.640 Y102.905 E23.86740
G1 X81.640 Y97.095 E24.02140
G1 X80.891 Y97.523 E24.04427
G1 X80.891 Y102.477 E24.17557
G1 X80.142 Y102.049 E24.19844
G1 X80.142 Y97.951 E24.30705
G1 X79.392 Y98.379 E24.32992
G1 X79.392 Y101.621 E24.41582
G1 X78.643 Y101.192 E24.43870
G1 X78.643 Y98.808 E24.50191
G1 X77.893 Y99.236 E24.52478
G1 X77.893 Y100.764 E24.56529
G1 X77.144 Y100.336 E24.58816
G1 X77.144 Y99.664 E24.60597
M106 S233
G1 F1800.000 E23.60597
G92 E0
G1 Z0.750 F7800.000
G1 X77.191 Y99.114
G1 F1800.000 E1.00000
G1 X100.000 Y86.080 F1800.000 E1.69345
G1 X124.360 Y100.000 E2.43406
G1 X100.000 Y113.920 E3.17467
G1 X75.640 Y100.000 E3.91528
G1 X77.094 Y99.169 E3.95947
G1 X77.191 Y99.114 E3.96243
G1 X76.808 Y100.000 F7800.000
G1 X123.192 Y100.000 F3000.000 E5.22274
G1 X121.847 Y99.232 E5.26481
G1 X78.153 Y99.232 E6.45208
G1 X78.153 Y100.768 F7800.000
G1 X121.847 Y100.768 F3000.000 E7.63935
G1 X120.503 Y101.536 E7.68142
G1 X79.497 Y101.536 E8.79563
G1 X80.841 Y102.305 E8.83770
G1 X119.159 Y102.305 E9.87885
G1 X117.814 Y103.073 E9.92092
G1 X82.186 Y103.073 E10.88900
G1 X83.530 Y103.841 E10.93108
G1 X116.470 Y103.841 E11.82609
G1 X115.125 Y104.610 E11.86817
G1 X84.875 Y104.610 E12.69012
G1 X86.219 Y105.378 E12.73220
G1 X113.781 Y105.378 E13.48109
G1 X112.436 Y106.146 E13.52316
G1 X87.564 Y106.146 E14.19899
G1 X88.908 Y106.914 E14.24107
G1 X111.092 Y106.914 E14.84383
G1 X109.747 Y107.683 E14.88591
G1 X90.253 Y107.683 E15.41561
G1 X91.597 Y108.451 E15.45768
G1 X108.403 Y108.451 E15.91432
G1 X107.058 Y109.219 E15.95640
G1 X92.942 Y109.219 E16.33997
G1 X94.286 Y109.987 E16.38205
G1 X105.714 Y109.987 E16.69257
G1 X104.369 Y110.756 E16.73464
G1 X95.631 Y110.756 E16.97209
G1 X96.975 Y111.524 E17.01417
G1 X103.025 Y111.524 E17.17856
G1 X101.681 Y112.292 E17.22063
G1 X98.320 Y112.292 E17.31195
G1 X99.664 Y113.060 E17.35403
G1 X100.336 Y113.060 E17.37229
G1 F1800.000 E16.37229
G92 E0
G1 X79.497 Y98.463 F7800.000
G1 F1800.000 E1.00000
G1 X120.503 Y98.463 F3000.000 E2.11420
G1 X119.159 Y97.695 E2.15628
G1 X80.842 Y97.695 E3.19742
G1 X82.186 Y96.927 E3.23949
G1 X117.814 Y96.927 E4.20757
G1 X116.470 Y96.159 E4.24965
G1 X83.530 Y96.159 E5.14466
G1 X84.875 Y95.390 E5.18674
G1 X115.125 Y95.390 E6.00869
G1 X113.781 Y94.622 E6.05077
G1 X86.219 Y94.622 E6.79966
G1 X87.564 Y93.854 E6.84173
G1 X112.436 Y93.854 E7.51756
G1 X111.092 Y93.086 E7.55963
G1 X88.908 Y93.086 E8.16239
G1 X90.253 Y92.317 E8.20447
G1 X109.747 Y92.317 E8.73417
G1 X108.403 Y91.549 E8.77624
G1 X91.597 Y91.549 E9.23288
G1 X92.942 Y90.781 E9.27495
G1 X107.058 Y90.781 E9.65853
G1 X105.714 Y90.013 E9.70061
G1 X94.286 Y90.013 E10.01112
G1 X95.631 Y89.244 E10.05319
G1 X104.369 Y89.244 E10.29064
G1 X103.025 Y88.476 E10.33272
G1 X96.975 Y88.476 E10.49710
G1 X98.320 Y87.708 E10.53918
G1 X101.681 Y87.708 E10.63051
G1 X100.336 Y86.939 E10.67258
G1 X99.664 Y86.939 E10.69084
M106 S230
G1 F1800.000 E9.69084
G92 E0
G1 Z1.000 F7800.000
G1 X100.000 Y86.080
G1 F1800.000 E1.00000
G1 X124.360 Y100.000 F1800.000 E1.74061
G1 X102.824 Y112.306 E2.39537
G1 X100.000 Y113.920 E2.48121
G1 X75.640 Y100.000 E3.22182
G1 X99.903 Y86.135 E3.95947
G1 X100.000 Y86.080 E3.96243
