; generated by Slic3r 0.9.8 on 2013-05-28 at 10:43:51

; layer_height = .25
; perimeters = 1
; top_solid_layers = 4
; bottom_solid_layers = 4
; fill_density = .9
; perimeter_speed = 30
; infill_speed = 40
; travel_speed = 130
; scale = 1
; nozzle_diameter = 0.5
; filament_diameter = 3
; extrusion_multiplier = 1
; perimeters extrusion width = 0.80mm
; infill extrusion width = 0.80mm
; first layer extrusion width = 0.50mm

M107
M104 S210 ; set temperature
G28 ; home all axes
M109 S210 ; wait for temperature to be reached
G90 ; use absolute coordinates
G21 ; set units to millimeters
G92 E0
M82 ; use absolute distances for extrusion
G1 F1800.000 E-1.00000
G92 E0
G1 Z0.250 F7800.000
G1 X114.717 Y105.620
G1 F1800.000 E1.00000
G1 X114.037 Y106.070 F900.000 E1.01442
G1 X103.477 Y112.110 E1.22955
G1 X102.717 Y112.480 E1.24450
G1 X102.197 Y112.680 E1.25435
G1 X101.657 Y112.830 E1.26426
G1 X101.117 Y112.940 E1.27401
G1 X100.557 Y113.010 E1.28399
G1 X99.997 Y113.030 E1.29390
G1 X99.437 Y113.010 E1.30380
G1 X99.157 Y112.980 E1.30878
G1 X98.607 Y112.890 E1.31864
G1 X97.797 Y112.680 E1.33344
G1 X97.017 Y112.370 E1.34828
G1 X96.527 Y112.110 E1.35809
G1 X85.717 Y105.930 E1.57829
G1 X85.267 Y105.620 E1.58795
G1 X84.637 Y105.100 E1.60240
G1 X84.077 Y104.500 E1.61691
G1 X83.587 Y103.850 E1.63130
G1 X83.437 Y103.620 E1.63616
G1 X83.177 Y103.140 E1.64581
G1 X82.947 Y102.650 E1.65539
G1 X82.687 Y101.870 E1.66993
G1 X82.557 Y101.340 E1.67958
G1 X82.507 Y101.070 E1.68443
G1 X82.447 Y100.530 E1.69404
G1 X82.427 Y99.990 E1.70360
G1 X82.447 Y99.440 E1.71333
G1 X82.557 Y98.630 E1.72778
G1 X82.687 Y98.100 E1.73743
G1 X82.857 Y97.580 E1.74711
G1 X83.057 Y97.080 E1.75663
G1 X83.307 Y96.590 E1.76636
G1 X83.587 Y96.130 E1.77588
G1 X84.077 Y95.470 E1.79042
G1 X84.447 Y95.070 E1.80005
G1 X85.057 Y94.520 E1.81458
G1 X85.497 Y94.200 E1.82420
G1 X85.957 Y93.910 E1.83382
G1 X96.527 Y87.880 E2.04901
G1 X97.277 Y87.510 E2.06380
G1 X97.797 Y87.310 E2.07365
G1 X98.337 Y87.160 E2.08356
G1 X98.887 Y87.050 E2.09348
G1 X99.437 Y86.980 E2.10329
G1 X99.997 Y86.960 E2.11320
G1 X100.557 Y86.980 E2.12311
G1 X100.837 Y87.010 E2.12809
G1 X101.387 Y87.100 E2.13794
G1 X102.197 Y87.310 E2.15274
G1 X102.977 Y87.620 E2.16758
G1 X103.467 Y87.880 E2.17739
G1 X114.267 Y94.050 E2.39735
G1 X114.927 Y94.520 E2.41168
G1 X115.537 Y95.070 E2.42620
G1 X115.907 Y95.470 E2.43584
G1 X116.397 Y96.130 E2.45037
G1 X116.677 Y96.590 E2.45989
G1 X116.927 Y97.080 E2.46962
G1 X117.217 Y97.840 E2.48401
G1 X117.427 Y98.630 E2.49846
G1 X117.537 Y99.440 E2.51292
G1 X117.557 Y99.990 E2.52265
G1 X117.537 Y100.530 E2.53221
G1 X117.477 Y101.070 E2.54181
G1 X117.367 Y101.610 E2.55156
G1 X117.137 Y102.390 E2.56594
G1 X116.927 Y102.900 E2.57569
G1 X116.547 Y103.620 E2.59009
G1 X116.247 Y104.070 E2.59966
G1 X115.727 Y104.710 E2.61424
G1 X115.347 Y105.100 E2.62387
G1 X114.777 Y105.574 E2.63699
G1 X114.717 Y105.620 E2.63831
G1 X114.447 Y105.200 F7800.000
G1 X113.787 Y105.630 F900.000 E2.65224
G1 X103.227 Y111.670 E2.86737
G1 X102.497 Y112.030 E2.88177
G1 X101.987 Y112.220 E2.89139
G1 X101.207 Y112.420 E2.90563
G1 X100.407 Y112.520 E2.91989
G1 X100.137 Y112.530 E2.92467
G1 X99.327 Y112.500 E2.93900
G1 X98.787 Y112.420 E2.94865
G1 X98.007 Y112.220 E2.96289
G1 X97.747 Y112.130 E2.96776
G1 X97.007 Y111.800 E2.98209
G1 X85.977 Y105.500 E3.20671
G1 X85.337 Y105.040 E3.22065
G1 X84.937 Y104.690 E3.23005
G1 X84.577 Y104.310 E3.23931
G1 X84.237 Y103.910 E3.24859
G1 X83.937 Y103.480 E3.25786
G1 X83.557 Y102.790 E3.27179
G1 X83.447 Y102.550 E3.27646
G1 X83.267 Y102.060 E3.28569
G1 X83.117 Y101.550 E3.29509
G1 X83.007 Y101.040 E3.30432
G1 X82.947 Y100.510 E3.31375
G1 X82.927 Y99.990 E3.32296
G1 X82.947 Y99.460 E3.33233
G1 X82.977 Y99.200 E3.33696
G1 X83.057 Y98.680 E3.34627
G1 X83.187 Y98.170 E3.35557
G1 X83.357 Y97.670 E3.36491
G1 X83.677 Y96.950 E3.37885
G1 X84.087 Y96.280 E3.39274
G1 X84.407 Y95.860 E3.40207
G1 X84.947 Y95.280 E3.41609
G1 X85.337 Y94.940 E3.42524
G1 X85.757 Y94.620 E3.43457
G1 X86.207 Y94.340 E3.44395
G1 X96.777 Y88.310 E3.65914
G1 X97.497 Y87.960 E3.67330
G1 X98.267 Y87.690 E3.68773
G1 X98.787 Y87.570 E3.69717
G1 X99.327 Y87.490 E3.70682
G1 X99.867 Y87.460 E3.71638
G1 X100.407 Y87.470 E3.72594
G1 X101.207 Y87.570 E3.74019
G1 X101.987 Y87.770 E3.75443
G1 X102.247 Y87.860 E3.75930
G1 X102.987 Y88.190 E3.77363
G1 X114.007 Y94.480 E3.99801
G1 X114.227 Y94.620 E4.00262
G1 X114.647 Y94.940 E4.01196
G1 X115.047 Y95.290 E4.02136
G1 X115.407 Y95.660 E4.03049
G1 X115.897 Y96.280 E4.04446
G1 X116.177 Y96.730 E4.05384
G1 X116.427 Y97.190 E4.06309
G1 X116.717 Y97.920 E4.07699
G1 X116.927 Y98.680 E4.09093
G1 X117.037 Y99.460 E4.10486
G1 X117.057 Y99.990 E4.11424
G1 X117.037 Y100.510 E4.12344
G1 X116.977 Y101.030 E4.13270
G1 X116.797 Y101.800 E4.14668
G1 X116.537 Y102.550 E4.16072
G1 X116.307 Y103.020 E4.16997
G1 X116.047 Y103.480 E4.17932
G1 X115.747 Y103.910 E4.18859
G1 X115.227 Y104.510 E4.20263
G1 X114.847 Y104.870 E4.21188
G1 X114.506 Y105.153 E4.21973
G1 X114.447 Y105.200 E4.22105
G1 F1800.000 E3.22105
G92 E0
G1 X109.556 Y100.000 F7800.000
G1 F1800.000 E1.00000
G1 X100.000 Y105.461 F900.000 E1.19463
G1 X90.444 Y100.000 E1.38927
G1 X100.000 Y94.539 E1.58390
G1 X109.491 Y99.963 E1.77721
G1 X109.556 Y100.000 E1.77853
G1 X110.564 Y100.000 F7800.000
G1 X100.000 Y106.036 F900.000 E1.99369
G1 X89.436 Y100.000 E2.20885
G1 X100.000 Y93.964 E2.42401
G1 X110.499 Y99.963 E2.63784
G1 X110.564 Y100.000 E2.63917
G1 X110.071 Y100.086 F7800.000
G1 F1800.000 E1.63917
G92 E0
G1 X100.225 Y104.885 F7800.000
G1 F1800.000 E1.00000
G1 X99.775 Y104.885 F1500.000 E1.00819
G1 X98.875 Y104.371 E1.02704
G1 X101.125 Y104.371 E1.06796
G1 X102.025 Y103.856 E1.08680
G1 X97.975 Y103.856 E1.16045
G1 X97.075 Y103.342 E1.17929
G1 X102.925 Y103.342 E1.28567
G1 X103.825 Y102.828 E1.30452
G1 X96.176 Y102.828 E1.44362
G1 X95.276 Y102.314 E1.46246
G1 X104.724 Y102.314 E1.63429
G1 X105.624 Y101.800 E1.65314
G1 X94.376 Y101.800 E1.85769
G1 X93.476 Y101.285 E1.87654
G1 X106.524 Y101.285 E2.11383
G1 X107.424 Y100.771 E2.13267
G1 X92.576 Y100.771 E2.40269
G1 X91.676 Y100.257 E2.42153
G1 X108.324 Y100.257 E2.72427
G1 X108.324 Y99.743 E2.73362
G1 X91.676 Y99.743 E3.03636
G1 X92.576 Y99.229 E3.05521
G1 X107.424 Y99.229 E3.32522
G1 X106.524 Y98.714 E3.34407
G1 X93.476 Y98.714 E3.58135
G1 X94.376 Y98.200 E3.60020
G1 X105.624 Y98.200 E3.80475
G1 X104.724 Y97.686 E3.82360
G1 X95.276 Y97.686 E3.99543
G1 X96.176 Y97.172 E4.01428
G1 X103.825 Y97.172 E4.15338
G1 X102.925 Y96.658 E4.17222
G1 X97.075 Y96.658 E4.27860
G1 X97.975 Y96.144 E4.29745
G1 X102.025 Y96.144 E4.37109
G1 X101.125 Y95.629 E4.38994
G1 X98.875 Y95.629 E4.43086
G1 X99.775 Y95.115 E4.44970
G1 X100.225 Y95.115 E4.45789
M106 S255
G1 F1800.000 E3.45789
G92 E0
G1 Z0.500 F7800.000
G1 X100.000 Y95.047
G1 F1800.000 E1.00000
G1 X108.668 Y100.000 F600.000 E1.26352
G1 X100.000 Y104.953 E1.52704
G1 X91.332 Y100.000 E1.79056
G1 X99.903 Y95.103 E2.05113
G1 X100.000 Y95.047 E2.05408
G1 X100.000 Y94.187 F7800.000
G1 X110.172 Y100.000 F924.361 E2.36334
G1 X100.000 Y105.813 E2.67259
G1 X89.828 Y100.000 E2.98185
G1 X99.903 Y94.243 E3.28814
G1 X100.000 Y94.187 E3.29110
G1 X100.256 Y94.888 F7800.000
G1 F1800.000 E2.29110
G92 E0
G1 X107.163 Y99.664 F7800.000
G1 F1800.000 E1.00000
G1 X107.163 Y100.336 F1540.601 E1.01792
G1 X106.409 Y100.767 E1.04108
G1 X106.409 Y99.233 E1.08198
G1 X105.655 Y98.802 E1.10514
G1 X105.655 Y101.198 E1.16903
G1 X104.901 Y101.629 E1.19219
G1 X104.901 Y98.371 E1.27906
G1 X104.147 Y97.940 E1.30222
G1 X104.147 Y102.060 E1.41207
G1 X103.393 Y102.490 E1.43523
G1 X103.393 Y97.510 E1.56807
G1 X102.639 Y97.079 E1.59123
G1 X102.639 Y102.921 E1.74704
G1 X101.885 Y103.352 E1.77020
G1 X101.885 Y96.648 E1.94900
G1 X101.131 Y96.217 E1.97216
G1 X101.131 Y103.783 E2.17394
G1 X100.377 Y104.214 E2.19710
G1 X100.377 Y95.786 E2.42187
G1 X99.623 Y95.786 E2.44197
G1 X99.623 Y104.214 E2.66674
G1 X98.869 Y103.783 E2.68990
G1 X98.869 Y96.217 E2.89168
G1 X98.115 Y96.648 E2.91484
G1 X98.115 Y103.352 E3.09364
G1 X97.361 Y102.921 E3.11680
G1 X97.361 Y97.079 E3.27261
G1 X96.607 Y97.510 E3.29577
G1 X96.607 Y102.490 E3.42860
G1 X95.853 Y102.060 E3.45177
G1 X95.853 Y97.941 E3.56162
G1 X95.099 Y98.371 E3.58478
G1 X95.099 Y101.629 E3.67164
G1 X94.345 Y101.198 E3.69480
G1 X94.345 Y98.802 E3.75869
G1 X93.591 Y99.233 E3.78185
G1 X93.591 Y100.767 E3.82276
G1 X92.837 Y100.336 E3.84592
G1 X92.837 Y99.664 E3.86384
G1 F1800.000 E2.86384
G92 E0
G1 Z0.750 F7800.000
G1 X91.422 Y100.000
G1 F1800.000 E1.00000
G1 X100.000 Y95.098 F600.000 E1.26080
G1 X108.578 Y100.000 E1.52160
G1 X100.000 Y104.902 E1.78240
G1 X91.519 Y100.056 E2.04024
G1 X91.422 Y100.000 E2.04320
G1 X89.917 Y100.000 F7800.000
G1 X100.000 Y94.239 F878.845 E2.34973
G1 X110.083 Y100.000 E2.65627
G1 X100.000 Y105.761 E2.96280
G1 X90.015 Y100.056 E3.26638
G1 X89.917 Y100.000 E3.26933
G1 X90.653 Y99.871 F7800.000
G1 X92.590 Y100.000
G1 X107.410 Y100.000 F1464.742 E3.69307
G1 X105.995 Y99.191 E3.73966
G1 X94.005 Y99.191 E4.08251
G1 X94.005 Y100.808 F7800.000
G1 X105.995 Y100.808 F1464.742 E4.42535
G1 X104.580 Y101.617 E4.47194
G1 X95.420 Y101.617 E4.73388
G1 X96.834 Y102.425 E4.78048
G1 X103.166 Y102.425 E4.96151
G1 X101.751 Y103.234 E5.00810
G1 X98.249 Y103.234 E5.10823
G1 X99.664 Y104.042 E5.15482
G1 X100.336 Y104.042 E5.17404
G1 F1800.000 E4.17404
G92 E0
G1 X95.420 Y98.383 F7800.000
G1 F1800.000 E1.00000
G1 X104.580 Y98.383 F1464.742 E1.26194
G1 X103.166 Y97.575 E1.30853
G1 X96.834 Y97.575 E1.48956
G1 X98.249 Y96.766 E1.53616
G1 X101.751 Y96.766 E1.63628
G1 X100.336 Y95.958 E1.68287
G1 X99.664 Y95.958 E1.70209
G1 F1800.000 E0.70209
G92 E0
G1 Z1.000 F7800.000
G1 X100.000 Y95.149
G1 F1800.000 E1.00000
G1 X108.489 Y100.000 F600.000 E1.25808
G1 X100.000 Y104.851 E1.51616
G1 X91.511 Y100.000 E1.77424
G1 X99.903 Y95.205 E2.02936
G1 X100.000 Y95.149 E2.03231
G1 X100.000 Y94.290 F7800.000
G1 X109.993 Y100.000 F895.115 E2.33613
G1 X100.000 Y105.710 E2.63994
G1 X90.007 Y100.000 E2.94376
G1 X99.903 Y94.345 E3.24461
G1 X100.000 Y94.290 E3.24757
G1 X100.256 Y94.991 F7800.000
G1 F1800.000 E2.24757
G92 E0
G1 X106.984 Y99.664 F7800.000
G1 F1800.000 E1.00000
G1 X106.984 Y100.336 F1491.858 E1.01844
G1 X106.208 Y100.779 E1.04298
G1 X106.208 Y99.221 E1.08576
G1 X105.432 Y98.777 E1.11030
G1 X105.432 Y101.223 E1.17742
G1 X104.656 Y101.666 E1.20196
G1 X104.656 Y98.334 E1.29343
G1 X103.880 Y97.890 E1.31796
G1 X103.880 Y102.110 E1.43378
G1 X103.104 Y102.553 E1.45831
G1 X103.104 Y97.447 E1.59847
G1 X102.328 Y97.003 E1.62300
G1 X102.328 Y102.997 E1.78751
G1 X101.552 Y103.440 E1.81204
G1 X101.552 Y96.560 E2.00089
G1 X100.776 Y96.116 E2.02542
G1 X100.776 Y103.884 E2.23861
G1 X100.000 Y104.327 E2.26315
G1 X100.000 Y95.673 E2.50067
G1 X99.224 Y96.116 E2.52520
G1 X99.224 Y103.884 E2.73839
G1 X98.448 Y103.440 E2.76293
G1 X98.448 Y96.560 E2.95177
G1 X97.672 Y97.003 E2.97631
G1 X97.672 Y102.997 E3.14081
G1 X96.896 Y102.553 E3.16534
G1 X96.896 Y97.447 E3.30550
G1 X96.120 Y97.890 E3.33004
G1 X96.120 Y102.110 E3.44585
G1 X95.344 Y101.666 E3.47039
G1 X95.344 Y98.334 E3.56186
G1 X94.568 Y98.777 E3.58639
G1 X94.568 Y101.223 E3.65352
G1 X93.792 Y100.779 E3.67805
G1 X93.792 Y99.221 E3.72084
G1 X93.015 Y99.664 E3.74538
G1 X93.015 Y100.336 E3.76382
G1 F1800.000 E2.76382
G92 E0
G1 Z1.250 F7800.000
G1 X91.601 Y100.000
G1 F1800.000 E1.00000
G1 X100.000 Y95.200 F600.000 E1.25536
G1 X108.399 Y100.000 E1.51072
G1 X100.000 Y104.800 E1.76607
G1 X91.698 Y100.056 E2.01848
G1 X91.601 Y100.000 E2.02143
G1 X90.096 Y100.000 F7800.000
G1 X100.000 Y94.341 F906.451 E2.32253
G1 X109.904 Y100.000 E2.62362
G1 X100.000 Y105.659 E2.92471
G1 X90.194 Y100.056 E3.22285
G1 X90.096 Y100.000 E3.22580
G1 X90.832 Y99.871 F7800.000
G1 F1800.000 E2.22580
G92 E0
G1 X100.336 Y103.940 F7800.000
G1 F1800.000 E1.00000
G1 X99.664 Y103.940 F1208.602 E1.01774
G1 X98.213 Y103.111 E1.06186
G1 X101.787 Y103.111 E1.15622
G1 X103.239 Y102.281 E1.20034
G1 X96.761 Y102.281 E1.37131
G1 X95.310 Y101.452 E1.41543
G1 X104.690 Y101.452 E1.66302
G1 X106.141 Y100.623 E1.70714
G1 X93.859 Y100.623 E2.03135
G1 X93.130 Y99.794 E2.06049
G1 X106.870 Y99.794 E2.42317
G1 X105.419 Y98.964 E2.46729
G1 X94.581 Y98.964 E2.75336
G1 X96.033 Y98.135 E2.79748
G1 X103.967 Y98.135 E3.00693
G1 X102.516 Y97.306 E3.05105
G1 X97.484 Y97.306 E3.18388
G1 X98.935 Y96.476 E3.22801
G1 X101.065 Y96.476 E3.28422
G1 F1800.000 E2.28422
G92 E0
G1 Z1.500 F7800.000
G1 X100.000 Y95.252
G1 F1800.000 E1.00000
G1 X108.310 Y100.000 F600.000 E1.25264
G1 X100.000 Y104.748 E1.50527
G1 X91.690 Y100.000 E1.75791
G1 X99.903 Y95.307 E2.00759
G1 X100.000 Y95.252 E2.01055
G1 X100.000 Y94.392 F7800.000
G1 X109.175 Y99.635 F913.003 E2.28950
G1 X109.921 Y100.000 E2.31142
G1 X109.175 Y100.365 E2.33335
G1 X100.000 Y105.608 E2.61230
G1 X90.825 Y100.365 E2.89124
G1 X90.079 Y100.000 E2.91317
G1 X90.825 Y99.635 E2.93509
G1 X99.903 Y94.447 E3.21109
G1 X100.000 Y94.392 E3.21404
G1 X100.256 Y95.093 F7800.000
G1 F1800.000 E2.21404
G92 E0
G1 X106.805 Y99.664 F7800.000
G1 F1800.000 E1.00000
G1 X106.805 Y100.336 F1217.337 E1.01774
G1 X105.976 Y100.810 E1.04295
G1 X105.976 Y99.190 E1.08570
G1 X105.147 Y98.716 E1.11092
G1 X105.147 Y101.284 E1.17869
G1 X104.318 Y101.758 E1.20390
G1 X104.318 Y98.242 E1.29669
G1 X103.488 Y97.769 E1.32190
G1 X103.488 Y102.231 E1.43971
G1 X102.659 Y102.705 E1.46492
G1 X102.659 Y97.295 E1.60775
G1 X101.830 Y96.821 E1.63296
G1 X101.830 Y103.179 E1.80080
G1 X101.000 Y103.653 E1.82601
G1 X101.000 Y96.347 E2.01887
G1 X100.171 Y95.873 E2.04408
G1 X100.171 Y104.127 E2.26196
G1 X99.342 Y103.849 E2.28504
G1 X99.342 Y96.151 E2.48824
G1 X98.513 Y96.625 E2.51345
G1 X98.513 Y103.375 E2.69162
G1 X97.683 Y102.901 E2.71683
G1 X97.683 Y97.099 E2.86999
G1 X96.854 Y97.573 E2.89520
G1 X96.854 Y102.427 E3.02334
G1 X96.025 Y101.953 E3.04855
G1 X96.025 Y98.047 E3.15167
G1 X95.196 Y98.521 E3.17689
G1 X95.196 Y101.479 E3.25499
G1 X94.366 Y101.006 E3.28020
G1 X94.366 Y98.994 E3.33329
G1 X93.537 Y99.468 E3.35850
G1 X93.537 Y100.532 E3.38657
G1 F1800.000 E2.38657
G92 E0
G1 Z1.750 F7800.000
G1 X91.780 Y100.000
G1 F1800.000 E1.00000
G1 X100.000 Y95.303 F600.000 E1.24992
G1 X108.220 Y100.000 E1.49983
G1 X100.000 Y104.697 E1.74975
G1 X91.877 Y100.056 E1.99671
G1 X91.780 Y100.000 E1.99967
G1 X91.143 Y99.504 F7800.000
G1 X100.000 Y94.443 F883.992 E2.26894
G1 X108.857 Y99.504 E2.53821
G1 X109.870 Y100.000 E2.56799
G1 X108.857 Y100.496 E2.59776
G1 X100.000 Y105.557 E2.86704
G1 X91.143 Y100.496 E3.13631
G1 X90.130 Y100.000 E3.16608
G1 X91.042 Y99.553 E3.19290
G1 X91.143 Y99.504 E3.19586
G1 X91.780 Y99.894 F7800.000
G1 F1800.000 E2.19586
G92 E0
G1 X100.336 Y103.838 F7800.000
G1 F1800.000 E1.00000
G1 X99.664 Y103.838 F1178.655 E1.01774
G1 X98.213 Y103.008 E1.06186
G1 X101.787 Y103.008 E1.15622
G1 X103.239 Y102.179 E1.20034
G1 X96.761 Y102.179 E1.37131
G1 X95.310 Y101.350 E1.41543
G1 X104.690 Y101.350 E1.66302
G1 X106.141 Y100.521 E1.70714
G1 X93.859 Y100.521 E2.03135
G1 X93.488 Y99.691 E2.05533
G1 X106.512 Y99.691 E2.39911
G1 X105.061 Y98.862 E2.44323
G1 X94.939 Y98.862 E2.71040
G1 X96.391 Y98.033 E2.75452
G1 X103.609 Y98.033 E2.94507
G1 X102.158 Y97.203 E2.98919
G1 X97.842 Y97.203 E3.10313
G1 X99.293 Y96.374 E3.14725
G1 X100.707 Y96.374 E3.18457
G1 F1800.000 E2.18457
G92 E0
G1 Z2.000 F7800.000
G1 X100.000 Y95.354
G1 F1800.000 E1.00000
G1 X108.131 Y100.000 F600.000 E1.24720
G1 X100.000 Y104.646 E1.49439
G1 X91.869 Y100.000 E1.74159
G1 X99.903 Y95.409 E1.98583
G1 X100.000 Y95.354 E1.98878
G1 X100.000 Y94.494 F7800.000
G1 X108.539 Y99.374 F886.424 E2.24838
G1 X109.819 Y100.000 E2.28601
