; generated by Slic3r 0.9.8 on 2013-05-28 at 15:22:09

; layer_height = .25
; perimeters = 1
; top_solid_layers = 4
; bottom_solid_layers = 4
; fill_density = .9
; perimeter_speed = 30
; infill_speed = 40
; travel_speed = 130
; scale = 1
; nozzle_diameter = 0.5
; filament_diameter = 3
; extrusion_multiplier = 1
; perimeters extrusion width = 0.80mm
; infill extrusion width = 0.80mm
; first layer extrusion width = 0.50mm

M107
M104 S210 ; set temperature
G28 ; home all axes
M109 S210 ; wait for temperature to be reached
G90 ; use absolute coordinates
G21 ; set units to millimeters
G92 E0
M82 ; use absolute distances for extrusion
G1 F1800.000 E-1.00000
G92 E0
G1 Z0.250 F7800.000
G1 X104.095 Y120.594
G1 F1800.000 E1.00000
G1 X103.285 Y120.994 F900.000 E1.01598
G1 X102.425 Y121.284 E1.03202
G1 X101.825 Y121.414 E1.04288
G1 X100.925 Y121.504 E1.05888
G1 X99.365 Y121.514 E1.08646
G1 X98.455 Y121.454 E1.10259
G1 X98.165 Y121.414 E1.10777
G1 X97.565 Y121.284 E1.11862
G1 X96.705 Y120.994 E1.13467
G1 X95.895 Y120.594 E1.15065
G1 X71.015 Y106.384 E1.65733
G1 X70.535 Y106.084 E1.66734
G1 X70.075 Y105.744 E1.67745
G1 X69.455 Y105.174 E1.69235
G1 X69.075 Y104.744 E1.70249
G1 X68.735 Y104.294 E1.71247
G1 X68.575 Y104.064 E1.71742
G1 X68.295 Y103.574 E1.72740
G1 X67.945 Y102.794 E1.74252
G1 X67.845 Y102.534 E1.74745
G1 X67.625 Y101.714 E1.76246
G1 X67.535 Y101.154 E1.77249
G1 X67.505 Y100.874 E1.77747
G1 X67.485 Y100.304 E1.78756
G1 X67.505 Y99.114 E1.80860
G1 X67.625 Y98.274 E1.82361
G1 X67.845 Y97.454 E1.83862
G1 X68.165 Y96.674 E1.85353
G1 X68.575 Y95.924 E1.86865
G1 X69.075 Y95.244 E1.88357
G1 X69.655 Y94.614 E1.89872
G1 X70.075 Y94.244 E1.90861
G1 X70.535 Y93.904 E1.91873
G1 X71.015 Y93.604 E1.92874
G1 X96.155 Y79.254 E2.44064
G1 X96.705 Y78.994 E2.45140
G1 X96.995 Y78.884 E2.45688
G1 X97.565 Y78.704 E2.46745
G1 X98.165 Y78.574 E2.47831
G1 X99.065 Y78.484 E2.49430
G1 X100.625 Y78.474 E2.52189
G1 X101.535 Y78.534 E2.53802
G1 X101.825 Y78.574 E2.54320
G1 X102.425 Y78.704 E2.55405
G1 X103.285 Y78.994 E2.57010
G1 X103.835 Y79.254 E2.58086
G1 X128.975 Y93.604 E3.09276
G1 X129.455 Y93.904 E3.10277
G1 X129.915 Y94.244 E3.11288
G1 X130.335 Y94.614 E3.12278
G1 X130.915 Y95.244 E3.13793
G1 X131.415 Y95.924 E3.15285
G1 X131.695 Y96.414 E3.16283
G1 X132.045 Y97.194 E3.17795
G1 X132.225 Y97.724 E3.18785
G1 X132.365 Y98.274 E3.19788
G1 X132.485 Y99.114 E3.21289
G1 X132.505 Y99.684 E3.22298
G1 X132.485 Y100.874 E3.24402
G1 X132.365 Y101.714 E3.25903
G1 X132.145 Y102.534 E3.27404
G1 X131.825 Y103.314 E3.28895
G1 X131.415 Y104.064 E3.30407
G1 X130.915 Y104.744 E3.31899
G1 X130.535 Y105.174 E3.32914
G1 X129.915 Y105.744 E3.34403
G1 X129.455 Y106.084 E3.35415
G1 X128.975 Y106.384 E3.36416
G1 X104.160 Y120.557 E3.86951
G1 X104.095 Y120.594 E3.87084
G1 X103.845 Y120.154 F7800.000
G1 X103.605 Y120.294 F900.000 E3.87575
G1 X103.095 Y120.524 E3.88564
G1 X102.295 Y120.794 E3.90058
G1 X101.465 Y120.964 E3.91556
G1 X101.185 Y120.994 E3.92054
G1 X100.625 Y121.014 E3.93045
G1 X99.365 Y121.014 E3.95273
G1 X98.805 Y120.994 E3.96264
G1 X98.525 Y120.964 E3.96762
G1 X97.975 Y120.864 E3.97750
G1 X97.425 Y120.714 E3.98758
G1 X96.895 Y120.524 E3.99754
G1 X96.385 Y120.294 E4.00743
G1 X71.265 Y105.944 E4.51903
G1 X70.795 Y105.654 E4.52879
G1 X70.155 Y105.154 E4.54316
G1 X69.765 Y104.774 E4.55278
G1 X69.235 Y104.144 E4.56734
G1 X68.935 Y103.684 E4.57705
G1 X68.665 Y103.204 E4.58679
G1 X68.345 Y102.454 E4.60121
G1 X68.125 Y101.664 E4.61572
G1 X68.075 Y101.394 E4.62057
G1 X68.005 Y100.854 E4.63020
G1 X67.985 Y100.304 E4.63993
G1 X68.005 Y99.134 E4.66063
G1 X68.125 Y98.324 E4.67511
G1 X68.345 Y97.534 E4.68961
G1 X68.665 Y96.784 E4.70403
G1 X68.935 Y96.304 E4.71377
G1 X69.235 Y95.844 E4.72348
G1 X69.765 Y95.214 E4.73804
G1 X70.155 Y94.834 E4.74767
G1 X70.575 Y94.494 E4.75722
G1 X70.795 Y94.334 E4.76203
G1 X71.265 Y94.044 E4.77180
G1 X96.385 Y79.694 E5.28339
G1 X96.895 Y79.464 E5.29329
G1 X97.165 Y79.364 E5.29838
G1 X97.975 Y79.124 E5.31332
G1 X98.525 Y79.024 E5.32320
G1 X98.805 Y78.994 E5.32818
G1 X99.365 Y78.974 E5.33809
G1 X100.625 Y78.974 E5.36037
G1 X101.185 Y78.994 E5.37028
G1 X101.465 Y79.024 E5.37526
G1 X102.015 Y79.124 E5.38515
G1 X102.565 Y79.274 E5.39523
G1 X103.095 Y79.464 E5.40519
G1 X103.605 Y79.694 E5.41508
G1 X128.725 Y94.044 E5.92667
G1 X129.195 Y94.334 E5.93644
G1 X129.835 Y94.834 E5.95080
G1 X130.035 Y95.024 E5.95568
G1 X130.415 Y95.424 E5.96543
G1 X130.755 Y95.844 E5.97499
G1 X131.055 Y96.304 E5.98470
G1 X131.325 Y96.784 E5.99444
G1 X131.645 Y97.534 E6.00886
G1 X131.865 Y98.324 E6.02336
G1 X131.985 Y99.134 E6.03784
G1 X132.005 Y99.684 E6.04758
G1 X131.985 Y100.854 E6.06827
G1 X131.865 Y101.664 E6.08275
G1 X131.645 Y102.454 E6.09725
G1 X131.325 Y103.204 E6.11167
G1 X131.055 Y103.684 E6.12141
G1 X130.755 Y104.144 E6.13112
G1 X130.225 Y104.774 E6.14568
G1 X129.835 Y105.154 E6.15531
G1 X129.415 Y105.494 E6.16486
G1 X129.195 Y105.654 E6.16968
G1 X128.725 Y105.944 E6.17944
G1 X103.910 Y120.117 E6.68479
G1 X103.845 Y120.154 E6.68612
G1 F1800.000 E5.68612
G92 E0
G1 X100.495 Y114.024 F7800.000
G1 F1800.000 E1.00000
G1 X99.505 Y114.024 F900.000 E1.01752
G1 X89.195 Y108.133 E1.22750
G1 X89.195 Y107.203 E1.24395
G1 X86.676 Y105.910 E1.29402
G1 X85.305 Y105.910 E1.31827
G1 X74.963 Y100.000 E1.52890
G1 X99.505 Y85.976 E2.02876
G1 X100.495 Y85.976 E2.04628
G1 X110.805 Y91.867 E2.25626
G1 X110.805 Y92.797 E2.27270
G1 X113.324 Y94.090 E2.32278
G1 X114.695 Y94.090 E2.34703
G1 X125.037 Y100.000 E2.55766
G1 X100.560 Y113.987 E3.05619
G1 X100.495 Y114.024 E3.05751
G1 X100.628 Y114.524 F7800.000
G1 X99.372 Y114.524 F900.000 E3.07973
G1 X88.695 Y108.423 E3.29719
G1 X88.695 Y107.508 E3.31337
G1 X86.555 Y106.410 E3.35591
G1 X85.172 Y106.410 E3.38037
G1 X74.495 Y100.308 E3.59783
G1 X74.495 Y99.692 E3.60874
G1 X75.730 Y98.986 E3.63388
G1 X99.372 Y85.476 E4.11542
G1 X100.628 Y85.476 E4.13763
G1 X111.305 Y91.577 E4.35509
G1 X111.305 Y92.492 E4.37127
G1 X113.445 Y93.590 E4.41381
G1 X114.828 Y93.590 E4.43827
G1 X125.505 Y99.692 E4.65573
G1 X125.505 Y100.308 E4.66664
G1 X100.693 Y114.487 E5.17199
G1 X100.628 Y114.524 E5.17332
G1 X100.307 Y114.140 F7800.000
G1 X100.588 Y113.524
G1 X99.412 Y113.524 F1500.000 E5.19414
G1 X98.536 Y113.023 E5.21203
G1 X101.464 Y113.023 E5.26391
G1 X102.341 Y112.522 E5.28179
G1 X97.659 Y112.522 E5.36473
G1 X96.783 Y112.021 E5.38262
G1 X103.217 Y112.021 E5.49661
G1 X104.094 Y111.520 E5.51450
G1 X95.906 Y111.520 E5.65955
G1 X95.029 Y111.019 E5.67743
G1 X104.970 Y111.019 E5.85354
G1 X105.847 Y110.519 E5.87142
G1 X94.153 Y110.519 E6.07859
G1 X93.276 Y110.018 E6.09647
G1 X106.724 Y110.018 E6.33469
G1 X107.600 Y109.517 E6.35258
G1 X92.400 Y109.517 E6.62185
G1 X91.523 Y109.016 E6.63974
G1 X108.477 Y109.016 E6.94007
G1 X109.353 Y108.515 E6.95796
G1 X90.647 Y108.515 E7.28934
G1 X89.770 Y108.014 E7.30723
G1 X110.230 Y108.014 E7.66968
G1 X111.106 Y107.513 E7.68756
G1 X89.470 Y107.513 E8.07086
G1 X89.470 Y107.012 E8.07973
G1 X111.983 Y107.012 E8.47855
G1 X112.859 Y106.512 E8.49644
G1 X88.718 Y106.512 E8.92410
G1 X87.742 Y106.011 E8.94354
G1 X113.736 Y106.011 E9.40402
G1 X114.613 Y105.510 E9.42190
G1 X86.766 Y105.510 E9.91520
G1 X84.511 Y105.009 E9.95613
G1 X115.489 Y105.009 E10.50492
G1 X116.366 Y104.508 E10.52280
G1 X83.634 Y104.508 E11.10265
G1 X82.758 Y104.007 E11.12053
G1 X117.242 Y104.007 E11.73143
G1 X118.119 Y103.506 E11.74931
G1 X81.881 Y103.506 E12.39127
G1 X81.005 Y103.005 E12.40915
G1 X118.995 Y103.005 E13.08216
G1 X119.872 Y102.504 E13.10005
G1 X80.128 Y102.504 E13.80412
G1 X79.252 Y102.004 E13.82200
G1 X120.748 Y102.004 E14.55712
G1 X121.625 Y101.503 E14.57501
G1 X78.375 Y101.503 E15.34119
G1 X77.499 Y101.002 E15.35907
G1 X122.501 Y101.002 E16.15631
G1 X123.378 Y100.501 E16.17419
G1 X76.622 Y100.501 E17.00249
G1 X76.622 Y99.499 F7800.000
G1 X123.378 Y99.499 F1500.000 E17.83078
G1 X124.254 Y100.000 E17.84866
G1 X75.746 Y100.000 E18.70800
G1 F1800.000 E17.70800
G92 E0
G1 X77.498 Y98.998 F7800.000
G1 F1800.000 E1.00000
G1 X122.501 Y98.998 F1500.000 E1.79724
G1 X121.625 Y98.497 E1.81512
G1 X78.375 Y98.497 E2.58130
G1 X79.252 Y97.996 E2.59918
G1 X120.748 Y97.996 E3.33431
G1 X119.872 Y97.496 E3.35219
G1 X80.128 Y97.496 E4.05626
G1 X81.005 Y96.995 E4.07414
G1 X118.995 Y96.995 E4.74715
G1 X118.119 Y96.494 E4.76504
G1 X81.881 Y96.494 E5.40699
G1 X82.758 Y95.993 E5.42487
G1 X117.242 Y95.993 E6.03577
G1 X116.366 Y95.492 E6.05366
G1 X83.634 Y95.492 E6.63350
G1 X84.511 Y94.991 E6.65138
G1 X115.489 Y94.991 E7.20017
G1 X113.234 Y94.490 E7.24110
G1 X85.387 Y94.490 E7.73439
G1 X86.264 Y93.989 E7.75228
G1 X112.258 Y93.989 E8.21276
G1 X111.282 Y93.489 E8.23219
G1 X87.141 Y93.489 E8.65986
G1 X88.017 Y92.988 E8.67774
G1 X110.530 Y92.988 E9.07656
G1 X110.530 Y92.487 E9.08544
G1 X88.894 Y92.487 E9.46873
G1 X89.770 Y91.986 E9.48661
G1 X110.230 Y91.986 E9.84906
G1 X109.353 Y91.485 E9.86694
G1 X90.647 Y91.485 E10.19833
G1 X91.523 Y90.984 E10.21622
G1 X108.477 Y90.984 E10.51655
G1 X107.600 Y90.483 E10.53443
G1 X92.400 Y90.483 E10.80371
G1 X93.276 Y89.982 E10.82159
G1 X106.724 Y89.982 E11.05981
G1 X105.847 Y89.481 E11.07770
G1 X94.153 Y89.481 E11.28486
G1 X95.029 Y88.981 E11.30275
G1 X104.970 Y88.981 E11.47885
G1 X104.094 Y88.480 E11.49674
G1 X95.906 Y88.480 E11.64179
G1 X96.783 Y87.979 E11.65968
G1 X103.217 Y87.979 E11.77367
G1 X102.341 Y87.478 E11.79155
G1 X97.659 Y87.478 E11.87449
G1 X98.536 Y86.977 E11.89238
G1 X101.464 Y86.977 E11.94426
G1 X100.588 Y86.476 E11.96214
G1 X99.412 Y86.476 E11.98297
M106 S223
G1 F1800.000 E10.98297
G92 E0
G1 Z0.500 F7800.000
G1 X99.412 Y85.626
G1 F1800.000 E1.00000
G1 X100.588 Y85.626 F1800.000 E1.03106
G1 X111.155 Y91.664 E1.35231
G1 X111.155 Y92.584 E1.37658
G1 X113.409 Y93.740 E1.44345
G1 X114.788 Y93.740 E1.47987
G1 X125.743 Y100.000 E1.81290
G1 X100.588 Y114.374 E2.57765
G1 X99.412 Y114.374 E2.60871
G1 X88.845 Y108.336 E2.92997
G1 X88.845 Y107.416 E2.95423
G1 X86.591 Y106.260 E3.02111
G1 X85.212 Y106.260 E3.05752
G1 X74.257 Y100.000 E3.39056
G1 X99.314 Y85.682 E4.15235
G1 X99.412 Y85.626 E4.15531
G1 F1800.000 E3.15531
G92 E0
G1 X75.762 Y100.336 F7800.000
G1 F1800.000 E1.00000
G1 X75.762 Y99.664 F3000.000 E1.01800
G1 X76.519 Y99.231 E1.04137
G1 X76.519 Y100.769 E1.08256
G1 X77.277 Y101.202 E1.10593
G1 X77.277 Y98.798 E1.17031
G1 X78.034 Y98.366 E1.19369
G1 X78.034 Y101.634 E1.28126
G1 X78.791 Y102.067 E1.30463
G1 X78.791 Y97.933 E1.41539
G1 X79.549 Y97.500 E1.43876
G1 X79.549 Y102.500 E1.57271
G1 X80.306 Y102.933 E1.59608
G1 X80.306 Y97.067 E1.75322
G1 X81.064 Y96.634 E1.77659
G1 X81.064 Y103.366 E1.95692
G1 X81.821 Y103.799 E1.98029
G1 X81.821 Y96.201 E2.18381
G1 X82.579 Y95.769 E2.20719
G1 X82.579 Y104.231 E2.43390
G1 X83.336 Y104.664 E2.45727
G1 X83.336 Y95.336 E2.70717
G1 X84.094 Y94.903 E2.73054
G1 X84.094 Y105.097 E3.00364
G1 X84.851 Y105.530 E3.02701
G1 X84.851 Y94.470 E3.32329
G1 X85.608 Y94.037 E3.34666
G1 X85.608 Y105.849 E3.66309
G1 X86.366 Y105.849 E3.68339
G1 X86.366 Y93.604 E4.01141
G1 X87.123 Y93.172 E4.03478
G1 X87.123 Y106.030 E4.37924
G1 X87.881 Y106.419 E4.40205
G1 X87.881 Y92.739 E4.76852
G1 X88.638 Y92.306 E4.79189
G1 X88.638 Y106.807 E5.18037
G1 X89.396 Y107.196 E5.20318
G1 X89.396 Y91.873 E5.61367
G1 X90.153 Y91.440 E5.63704
G1 X90.153 Y108.560 E6.09566
G1 X90.911 Y108.992 E6.11903
G1 X90.911 Y91.007 E6.60083
G1 X91.668 Y90.575 E6.62420
G1 X91.668 Y109.425 E7.12920
G1 X92.426 Y109.858 E7.15257
G1 X92.426 Y90.142 E7.68075
G1 X93.183 Y89.709 E7.70412
G1 X93.183 Y110.291 E8.25550
G1 X93.940 Y110.724 E8.27887
G1 X93.940 Y89.276 E8.85343
G1 X94.698 Y88.843 E8.87680
G1 X94.698 Y111.157 E9.47456
G1 X95.455 Y111.589 E9.49793
G1 X95.455 Y88.411 E10.11888
G1 X96.213 Y87.978 E10.14225
G1 X96.213 Y112.022 E10.78638
G1 X96.970 Y112.455 E10.80975
G1 X96.970 Y87.545 E11.47708
G1 X97.728 Y87.112 E11.50045
G1 X97.728 Y112.888 E12.19097
G1 X98.485 Y113.321 E12.21434
G1 X98.485 Y86.679 E12.92804
G1 X99.243 Y86.246 E12.95141
G1 X99.243 Y113.754 E13.68831
G1 X100.000 Y113.963 E13.70936
G1 X100.000 Y86.037 E14.45750
G1 X100.757 Y86.246 E14.47856
G1 X100.757 Y113.754 E15.21546
G1 X101.515 Y113.321 E15.23883
G1 X101.515 Y86.679 E15.95253
G1 X102.272 Y87.112 E15.97591
G1 X102.272 Y112.888 E16.66642
G1 X103.030 Y112.455 E16.68979
G1 X103.030 Y87.545 E17.35712
G1 X103.787 Y87.978 E17.38049
G1 X103.787 Y112.022 E18.02463
G1 X104.545 Y111.589 E18.04800
G1 X104.545 Y88.410 E18.66895
G1 X105.302 Y88.843 E18.69232
G1 X105.302 Y111.157 E19.29007
G1 X106.060 Y110.724 E19.31344
G1 X106.060 Y89.276 E19.88801
G1 X106.817 Y89.709 E19.91138
G1 X106.817 Y110.291 E20.46276
G1 X107.574 Y109.858 E20.48613
G1 X107.574 Y90.142 E21.01431
G1 X108.332 Y90.575 E21.03769
G1 X108.332 Y109.425 E21.54268
G1 X109.089 Y108.992 E21.56605
G1 X109.089 Y91.007 E22.04786
G1 X109.847 Y91.440 E22.07123
G1 X109.847 Y108.560 E22.52984
G1 X110.604 Y108.127 E22.55321
G1 X110.604 Y92.804 E22.96371
G1 X111.362 Y93.193 E22.98652
G1 X111.362 Y107.694 E23.37500
G1 X112.119 Y107.261 E23.39837
G1 X112.119 Y93.581 E23.76484
G1 X112.877 Y93.970 E23.78765
G1 X112.877 Y106.828 E24.13212
G1 X113.634 Y106.396 E24.15548
G1 X113.634 Y94.151 E24.48351
G1 X114.391 Y94.151 E24.50380
G1 X114.391 Y105.963 E24.82023
G1 X115.149 Y105.530 E24.84361
G1 X115.149 Y94.470 E25.13989
G1 X115.906 Y94.903 E25.16326
G1 X115.906 Y105.097 E25.43635
G1 X116.664 Y104.664 E25.45972
G1 X116.664 Y95.336 E25.70963
G1 X117.421 Y95.769 E25.73300
G1 X117.421 Y104.231 E25.95971
G1 X118.179 Y103.799 E25.98308
G1 X118.179 Y96.201 E26.18660
G1 X118.936 Y96.634 E26.20997
G1 X118.936 Y103.366 E26.39031
G1 X119.694 Y102.933 E26.41368
G1 X119.694 Y97.067 E26.57082
G1 X120.451 Y97.500 E26.59419
G1 X120.451 Y102.500 E26.72814
G1 X121.209 Y102.067 E26.75151
G1 X121.209 Y97.933 E26.86228
G1 X121.966 Y98.366 E26.88565
G1 X121.966 Y101.634 E26.97322
G1 X122.723 Y101.202 E26.99659
G1 X122.723 Y98.798 E27.06097
G1 X123.481 Y99.231 E27.08434
G1 X123.481 Y100.769 E27.12553
G1 X124.238 Y100.336 E27.14891
G1 X124.238 Y99.664 E27.16691
M106 S225
G1 F1800.000 E26.16691
G92 E0
G1 Z0.750 F7800.000
G1 X125.743 Y100.000
G1 F1800.000 E1.00000
G1 X100.588 Y114.374 F1800.000 E1.76475
G1 X99.412 Y114.374 E1.79581
G1 X88.845 Y108.336 E2.11706
G1 X88.845 Y107.416 E2.14133
G1 X86.591 Y106.260 E2.20821
G1 X85.212 Y106.260 E2.24462
G1 X74.257 Y100.000 E2.57765
G1 X99.412 Y85.626 E3.34241
G1 X100.588 Y85.626 E3.37347
G1 X111.155 Y91.664 E3.69472
G1 X111.155 Y92.584 E3.71899
G1 X113.409 Y93.740 E3.78586
G1 X114.788 Y93.740 E3.82227
G1 X125.645 Y99.944 E4.15235
G1 X125.743 Y100.000 E4.15531
G1 X124.574 Y100.000 F7800.000
G1 X75.426 Y100.000 F3000.000 E5.47133
G1 X76.751 Y99.243 E5.51218
G1 X123.249 Y99.243 E6.75726
G1 X123.250 Y100.757 F7800.000
G1 X76.751 Y100.757 F3000.000 E8.00234
G1 X78.075 Y101.514 E8.04320
G1 X121.925 Y101.514 E9.21732
G1 X120.600 Y102.271 E9.25818
G1 X79.400 Y102.271 E10.36135
G1 X80.725 Y103.028 E10.40221
G1 X119.275 Y103.028 E11.43443
G1 X117.950 Y103.785 E11.47529
G1 X82.050 Y103.785 E12.43656
G1 X83.375 Y104.543 E12.47742
G1 X116.625 Y104.543 E13.36774
G1 X115.300 Y105.300 E13.40860
G1 X84.700 Y105.300 E14.22796
G1 X87.494 Y106.057 E14.30548
G1 X113.975 Y106.057 E15.01454
G1 X112.650 Y106.814 E15.05540
G1 X88.969 Y106.814 E15.68950
G1 X89.255 Y107.571 F7800.000
G1 X111.325 Y107.571 F3000.000 E16.28046
G1 X110.000 Y108.328 E16.32132
G1 X90.000 Y108.328 E16.85687
G1 X91.324 Y109.085 E16.89773
G1 X108.676 Y109.085 E17.36233
G1 X107.351 Y109.842 E17.40319
G1 X92.649 Y109.842 E17.79684
G1 X93.974 Y110.599 E17.83770
G1 X106.026 Y110.599 E18.16040
G1 X104.701 Y111.356 E18.20126
