; generated by Slic3r 0.9.8 on 2013-05-28 at 14:48:44

; layer_height = .25
; perimeters = 1
; top_solid_layers = 4
; bottom_solid_layers = 4
; fill_density = .9
; perimeter_speed = 30
; infill_speed = 40
; travel_speed = 130
; scale = 1
; nozzle_diameter = 0.5
; filament_diameter = 3
; extrusion_multiplier = 1
; perimeters extrusion width = 0.80mm
; infill extrusion width = 0.80mm
; first layer extrusion width = 0.50mm

M107
M104 S210 ; set temperature
G28 ; home all axes
M109 S210 ; wait for temperature to be reached
G90 ; use absolute coordinates
G21 ; set units to millimeters
G92 E0
M82 ; use absolute distances for extrusion
G1 F1800.000 E-1.00000
G92 E0
G1 Z0.250 F7800.000
G1 X121.875 Y102.321
G1 F1800.000 E1.00000
G1 X96.735 Y116.681 F900.000 E1.51199
G1 X96.185 Y116.941 E1.52275
G1 X95.615 Y117.141 E1.53343
G1 X95.325 Y117.231 E1.53880
G1 X94.735 Y117.361 E1.54948
G1 X94.135 Y117.431 E1.56016
G1 X93.525 Y117.461 E1.57096
G1 X92.265 Y117.461 E1.59325
G1 X91.355 Y117.401 E1.60937
G1 X90.765 Y117.301 E1.61995
G1 X90.175 Y117.141 E1.63076
G1 X89.605 Y116.941 E1.64145
G1 X89.055 Y116.681 E1.65221
G1 X78.115 Y110.441 E1.87492
G1 X77.635 Y110.141 E1.88493
G1 X77.175 Y109.801 E1.89505
G1 X76.755 Y109.431 E1.90495
G1 X76.175 Y108.801 E1.92009
G1 X75.675 Y108.121 E1.93502
G1 X75.265 Y107.371 E1.95013
G1 X74.945 Y106.591 E1.96504
G1 X74.725 Y105.771 E1.98006
G1 X74.675 Y105.491 E1.98509
G1 X74.605 Y104.931 E1.99507
G1 X74.585 Y103.741 E2.01611
G1 X74.605 Y103.171 E2.02620
G1 X74.725 Y102.331 E2.04120
G1 X74.945 Y101.511 E2.05622
G1 X75.155 Y100.981 E2.06630
G1 X75.395 Y100.471 E2.07627
G1 X75.675 Y99.981 E2.08625
G1 X75.835 Y99.751 E2.09120
G1 X76.175 Y99.301 E2.10117
G1 X76.755 Y98.671 E2.11632
G1 X77.175 Y98.301 E2.12622
G1 X77.635 Y97.961 E2.13633
G1 X78.115 Y97.661 E2.14634
G1 X102.995 Y83.451 E2.65302
G1 X103.535 Y83.171 E2.66378
G1 X104.095 Y82.941 E2.67448
G1 X104.665 Y82.761 E2.68505
G1 X105.265 Y82.631 E2.69591
G1 X105.555 Y82.591 E2.70109
G1 X106.465 Y82.531 E2.71721
G1 X107.725 Y82.531 E2.73950
G1 X108.635 Y82.591 E2.75562
G1 X109.225 Y82.691 E2.76620
G1 X109.815 Y82.851 E2.77702
G1 X110.385 Y83.051 E2.78770
G1 X110.935 Y83.311 E2.79846
G1 X121.875 Y89.551 E3.02118
G1 X122.355 Y89.851 E3.03118
G1 X122.815 Y90.191 E3.04130
G1 X123.235 Y90.561 E3.05120
G1 X123.815 Y91.191 E3.06634
G1 X124.315 Y91.871 E3.08127
G1 X124.725 Y92.621 E3.09638
G1 X125.045 Y93.401 E3.11129
G1 X125.265 Y94.221 E3.12631
G1 X125.315 Y94.501 E3.13134
G1 X125.385 Y95.061 E3.14132
G1 X125.405 Y96.241 E3.16219
G1 X125.385 Y96.811 E3.17227
G1 X125.265 Y97.651 E3.18728
G1 X125.045 Y98.471 E3.20229
G1 X124.845 Y98.991 E3.21214
G1 X124.595 Y99.511 E3.22235
G1 X124.315 Y100.001 E3.23233
G1 X124.155 Y100.231 E3.23728
G1 X123.635 Y100.901 E3.25228
G1 X123.025 Y101.501 E3.26741
G1 X122.815 Y101.681 E3.27230
G1 X122.355 Y102.021 E3.28242
G1 X121.939 Y102.283 E3.29110
G1 X121.875 Y102.321 E3.29243
G1 X121.635 Y101.881 F7800.000
G1 X96.505 Y116.241 F900.000 E3.80426
G1 X95.995 Y116.471 E3.81415
G1 X95.465 Y116.661 E3.82411
G1 X94.925 Y116.811 E3.83402
G1 X94.365 Y116.911 E3.84408
G1 X94.085 Y116.941 E3.84906
G1 X93.525 Y116.961 E3.85897
G1 X92.265 Y116.961 E3.88125
G1 X91.705 Y116.941 E3.89116
G1 X91.145 Y116.861 E3.90116
G1 X90.595 Y116.741 E3.91112
G1 X89.795 Y116.471 E3.92605
G1 X89.285 Y116.241 E3.93594
G1 X78.125 Y109.861 E4.16327
G1 X77.675 Y109.551 E4.17293
G1 X77.255 Y109.211 E4.18249
G1 X76.865 Y108.831 E4.19212
G1 X76.335 Y108.201 E4.20668
G1 X76.035 Y107.741 E4.21639
G1 X75.765 Y107.261 E4.22613
G1 X75.445 Y106.511 E4.24055
G1 X75.225 Y105.721 E4.25505
G1 X75.105 Y104.911 E4.26953
G1 X75.085 Y104.361 E4.27926
G1 X75.105 Y103.191 E4.29995
G1 X75.175 Y102.651 E4.30958
G1 X75.225 Y102.381 E4.31444
G1 X75.365 Y101.851 E4.32413
G1 X75.545 Y101.341 E4.33370
G1 X75.765 Y100.841 E4.34336
G1 X75.895 Y100.601 E4.34818
G1 X76.335 Y99.901 E4.36280
G1 X76.865 Y99.271 E4.37736
G1 X77.255 Y98.891 E4.38699
G1 X77.675 Y98.551 E4.39655
G1 X78.125 Y98.241 E4.40621
G1 X103.485 Y83.751 E4.92272
G1 X103.995 Y83.521 E4.93261
G1 X104.525 Y83.331 E4.94257
G1 X105.075 Y83.181 E4.95265
G1 X105.625 Y83.081 E4.96253
G1 X105.905 Y83.051 E4.96751
G1 X106.465 Y83.031 E4.97742
G1 X107.725 Y83.031 E4.99971
G1 X108.285 Y83.051 E5.00961
G1 X108.845 Y83.131 E5.01962
G1 X109.395 Y83.251 E5.02957
G1 X110.195 Y83.521 E5.04450
G1 X110.705 Y83.751 E5.05440
G1 X121.865 Y90.131 E5.28172
G1 X122.315 Y90.441 E5.29139
G1 X122.735 Y90.781 E5.30094
G1 X123.125 Y91.161 E5.31057
G1 X123.655 Y91.791 E5.32513
G1 X123.955 Y92.251 E5.33484
G1 X124.225 Y92.731 E5.34458
G1 X124.545 Y93.481 E5.35900
G1 X124.765 Y94.271 E5.37350
G1 X124.885 Y95.081 E5.38798
G1 X124.905 Y95.631 E5.39772
G1 X124.885 Y96.791 E5.41823
G1 X124.765 Y97.601 E5.43271
G1 X124.625 Y98.131 E5.44241
G1 X124.445 Y98.641 E5.45197
G1 X124.225 Y99.141 E5.46163
G1 X123.815 Y99.851 E5.47613
G1 X123.315 Y100.501 E5.49063
G1 X122.735 Y101.091 E5.50526
G1 X122.095 Y101.591 E5.51962
G1 X121.699 Y101.842 E5.52791
G1 X121.635 Y101.881 E5.52924
G1 F1800.000 E4.52924
G92 E0
G1 X117.937 Y95.943 F7800.000
G1 F1800.000 E1.00000
G1 X93.395 Y109.967 F900.000 E1.49985
G1 X92.405 Y109.967 E1.51737
G1 X82.063 Y104.057 E1.72801
G1 X106.605 Y90.033 E2.22786
G1 X107.595 Y90.033 E2.24538
G1 X117.872 Y95.906 E2.45469
G1 X117.937 Y95.943 E2.45601
G1 X118.405 Y95.634 F7800.000
G1 X118.405 Y96.251 F900.000 E2.46693
G1 X93.528 Y110.467 E2.97360
G1 X92.272 Y110.467 E2.99582
G1 X81.595 Y104.366 E3.21328
G1 X81.595 Y103.749 E3.22419
G1 X106.472 Y89.533 E3.73087
G1 X107.728 Y89.533 E3.75309
G1 X118.340 Y95.597 E3.96922
G1 X118.405 Y95.634 E3.97055
G1 X118.084 Y96.018 F7800.000
G1 F1800.000 E2.97055
G92 E0
G1 X107.688 Y90.533 F7800.000
G1 F1800.000 E1.00000
G1 X106.512 Y90.533 F1500.000 E1.02128
G1 X105.617 Y91.045 E1.03994
G1 X108.583 Y91.045 E1.09363
G1 X109.479 Y91.557 E1.11230
G1 X104.721 Y91.557 E1.19840
G1 X103.826 Y92.068 E1.21707
G1 X110.374 Y92.068 E1.33559
G1 X111.270 Y92.580 E1.35425
G1 X102.930 Y92.580 E1.50519
G1 X102.035 Y93.092 E1.52385
G1 X112.165 Y93.092 E1.70720
G1 X113.061 Y93.604 E1.72586
G1 X101.139 Y93.604 E1.94162
G1 X100.244 Y94.115 E1.96029
G1 X113.956 Y94.115 E2.20846
G1 X114.852 Y94.627 E2.22713
G1 X99.348 Y94.627 E2.50772
G1 X98.453 Y95.139 E2.52638
G1 X115.747 Y95.139 E2.83939
G1 X116.643 Y95.650 E2.85805
G1 X97.557 Y95.650 E3.20347
G1 X96.662 Y96.162 E3.22213
G1 X116.771 Y96.162 E3.58607
G1 X115.875 Y96.674 E3.60474
G1 X95.766 Y96.674 E3.96868
G1 X94.871 Y97.186 E3.98734
G1 X114.980 Y97.186 E4.35128
G1 X114.084 Y97.697 E4.36995
G1 X93.975 Y97.697 E4.73389
G1 X93.080 Y98.209 E4.75255
G1 X113.189 Y98.209 E5.11649
G1 X112.293 Y98.721 E5.13516
G1 X92.184 Y98.721 E5.49910
G1 X91.289 Y99.232 E5.51777
G1 X111.398 Y99.232 E5.88170
G1 X110.502 Y99.744 E5.90037
G1 X90.393 Y99.744 E6.26431
G1 X89.498 Y100.256 E6.28298
G1 X109.607 Y100.256 E6.64692
G1 X108.711 Y100.768 E6.66558
G1 X88.602 Y100.768 E7.02952
G1 X87.707 Y101.279 E7.04819
G1 X107.816 Y101.279 E7.41212
G1 X106.920 Y101.791 E7.43079
G1 X86.811 Y101.791 E7.79473
G1 X85.916 Y102.303 E7.81340
G1 X106.025 Y102.303 E8.17734
G1 X105.129 Y102.814 E8.19600
G1 X85.020 Y102.814 E8.55994
G1 X84.125 Y103.326 E8.57861
G1 X104.234 Y103.326 E8.94254
G1 X103.338 Y103.838 E8.96121
G1 X83.229 Y103.838 E9.32515
G1 X83.357 Y104.350 E9.33469
G1 X102.443 Y104.350 E9.68011
G1 X101.547 Y104.861 E9.69877
G1 X84.253 Y104.861 E10.01177
G1 X85.148 Y105.373 E10.03044
G1 X100.652 Y105.373 E10.31103
G1 X99.756 Y105.885 E10.32969
G1 X86.044 Y105.885 E10.57787
G1 X86.939 Y106.396 E10.59653
G1 X98.861 Y106.396 E10.81229
G1 X97.965 Y106.908 E10.83096
G1 X87.835 Y106.908 E11.01430
G1 X88.730 Y107.420 E11.03297
G1 X97.070 Y107.420 E11.18390
G1 X96.174 Y107.932 E11.20256
G1 X89.626 Y107.932 E11.32108
G1 X90.521 Y108.443 E11.33975
G1 X95.279 Y108.443 E11.42585
G1 X94.383 Y108.955 E11.44451
G1 X91.417 Y108.955 E11.49820
G1 X92.312 Y109.467 E11.51687
G1 X93.488 Y109.467 E11.53814
M106 S255
G1 F1800.000 E10.53814
G92 E0
G1 Z0.500 F7800.000
G1 X93.488 Y110.317
G1 F1800.000 E1.00000
G1 X92.312 Y110.317 F1385.796 E1.03106
G1 X81.357 Y104.057 E1.36409
G1 X106.512 Y89.683 E2.12885
G1 X107.688 Y89.683 E2.15990
G1 X118.643 Y95.943 E2.49294
G1 X93.585 Y110.261 E3.25474
G1 X93.488 Y110.317 E3.25769
G1 F1800.000 E2.25769
G92 E0
G1 X82.862 Y103.721 F7800.000
G1 F1800.000 E1.00000
G1 X82.862 Y104.393 F2309.660 E1.01810
G1 X83.623 Y104.828 E1.04173
G1 X83.623 Y103.286 E1.08329
G1 X84.385 Y102.851 E1.10692
G1 X84.385 Y105.264 E1.17193
G1 X85.147 Y105.699 E1.19556
G1 X85.147 Y102.415 E1.28402
G1 X85.908 Y101.980 E1.30765
G1 X85.908 Y106.134 E1.41956
G1 X86.670 Y106.569 E1.44319
G1 X86.670 Y101.545 E1.57855
G1 X87.432 Y101.110 E1.60219
G1 X87.432 Y107.005 E1.76100
G1 X88.194 Y107.440 E1.78463
G1 X88.194 Y100.674 E1.96689
G1 X88.955 Y100.239 E1.99053
G1 X88.955 Y107.875 E2.19624
G1 X89.717 Y108.310 E2.21988
G1 X89.717 Y99.804 E2.44904
G1 X90.479 Y99.369 E2.47267
G1 X90.479 Y108.746 E2.72529
G1 X91.240 Y109.181 E2.74892
G1 X91.240 Y98.933 E3.02499
G1 X92.002 Y98.498 E3.04862
G1 X92.002 Y109.616 E3.34814
G1 X92.764 Y109.906 E3.37010
G1 X92.764 Y98.063 E3.68916
G1 X93.526 Y97.628 E3.71279
G1 X93.526 Y109.772 E4.03996
G1 X94.287 Y109.337 E4.06359
G1 X94.287 Y97.192 E4.39075
G1 X95.049 Y96.757 E4.41439
G1 X95.049 Y108.901 E4.74155
G1 X95.811 Y108.466 E4.76518
G1 X95.811 Y96.322 E5.09234
G1 X96.572 Y95.887 E5.11598
G1 X96.572 Y108.031 E5.44314
G1 X97.334 Y107.596 E5.46677
G1 X97.334 Y95.451 E5.79393
G1 X98.096 Y95.016 E5.81757
G1 X98.096 Y107.160 E6.14473
G1 X98.857 Y106.725 E6.16836
G1 X98.857 Y94.581 E6.49552
G1 X99.619 Y94.146 E6.51916
G1 X99.619 Y106.290 E6.84632
G1 X100.381 Y105.854 E6.86995
G1 X100.381 Y93.710 E7.19711
G1 X101.143 Y93.275 E7.22075
G1 X101.143 Y105.419 E7.54791
G1 X101.904 Y104.984 E7.57154
G1 X101.904 Y92.840 E7.89870
G1 X102.666 Y92.405 E7.92234
G1 X102.666 Y104.549 E8.24950
G1 X103.428 Y104.113 E8.27313
G1 X103.428 Y91.969 E8.60029
G1 X104.189 Y91.534 E8.62393
G1 X104.189 Y103.678 E8.95109
G1 X104.951 Y103.243 E8.97473
G1 X104.951 Y91.099 E9.30189
G1 X105.713 Y90.663 E9.32552
G1 X105.713 Y102.808 E9.65268
G1 X106.474 Y102.372 E9.67632
G1 X106.474 Y90.228 E10.00348
G1 X107.236 Y90.094 E10.02432
G1 X107.236 Y101.937 E10.34337
G1 X107.998 Y101.502 E10.36701
G1 X107.998 Y90.384 E10.66653
G1 X108.760 Y90.819 E10.69016
G1 X108.760 Y101.067 E10.96623
G1 X109.521 Y100.631 E10.98986
G1 X109.521 Y91.254 E11.24248
G1 X110.283 Y91.690 E11.26611
G1 X110.283 Y100.196 E11.49528
G1 X111.045 Y99.761 E11.51891
G1 X111.045 Y92.125 E11.72463
G1 X111.806 Y92.560 E11.74826
G1 X111.806 Y99.326 E11.93052
G1 X112.568 Y98.890 E11.95416
G1 X112.568 Y92.995 E12.11297
G1 X113.330 Y93.431 E12.13660
G1 X113.330 Y98.455 E12.27196
G1 X114.091 Y98.020 E12.29560
G1 X114.091 Y93.866 E12.40750
G1 X114.853 Y94.301 E12.43114
G1 X114.853 Y97.585 E12.51959
G1 X115.615 Y97.149 E12.54323
G1 X115.615 Y94.736 E12.60823
G1 X116.377 Y95.172 E12.63187
G1 X116.377 Y96.714 E12.67342
G1 X117.138 Y96.279 E12.69705
G1 X117.138 Y95.607 E12.71516
G1 F1800.000 E11.71516
G92 E0
G1 Z0.750 F7800.000
G1 X118.643 Y95.943
G1 F1800.000 E1.00000
G1 X93.488 Y110.317 F1347.552 E1.76475
G1 X92.312 Y110.317 E1.79581
G1 X81.357 Y104.057 E2.12885
G1 X106.512 Y89.683 E2.89360
G1 X107.688 Y89.683 E2.92466
G1 X118.545 Y95.887 E3.25474
G1 X118.643 Y95.943 E3.25769
G1 F1800.000 E2.25769
G92 E0
G1 X107.826 Y90.430 F7800.000
G1 F1800.000 E1.00000
G1 X106.374 Y90.430 F2245.920 E1.03933
G1 X105.034 Y91.195 E1.08111
G1 X109.166 Y91.195 E1.19300
G1 X110.506 Y91.961 E1.23479
G1 X103.694 Y91.961 E1.41924
G1 X102.354 Y92.726 E1.46103
G1 X111.846 Y92.726 E1.71804
G1 X113.186 Y93.492 E1.75983
G1 X101.014 Y93.492 E2.08941
G1 X99.675 Y94.258 E2.13119
G1 X114.525 Y94.258 E2.53333
G1 X115.865 Y95.023 E2.57512
G1 X98.335 Y95.023 E3.04982
G1 X96.995 Y95.789 E3.09161
G1 X117.205 Y95.789 E3.63887
G1 X116.404 Y96.555 E3.66889
G1 X95.655 Y96.555 E4.23073
G1 X94.315 Y97.320 E4.27252
G1 X115.064 Y97.320 E4.83437
G1 X113.724 Y98.086 E4.87615
G1 X92.975 Y98.086 E5.43800
G1 X91.635 Y98.852 E5.47979
G1 X112.384 Y98.852 E6.04163
G1 X111.044 Y99.617 E6.08342
G1 X90.296 Y99.617 E6.64526
G1 X88.956 Y100.383 E6.68705
G1 X109.704 Y100.383 E7.24889
G1 X108.365 Y101.148 E7.29068
G1 X87.616 Y101.148 E7.85253
G1 X86.276 Y101.914 E7.89431
G1 X107.025 Y101.914 E8.45616
G1 X105.685 Y102.680 E8.49794
G1 X84.936 Y102.680 E9.05979
G1 X83.596 Y103.445 E9.10158
G1 X104.345 Y103.445 E9.66342
G1 X103.005 Y104.211 E9.70521
G1 X82.795 Y104.211 E10.25248
G1 X84.135 Y104.977 E10.29426
G1 X101.665 Y104.977 E10.76897
G1 X100.325 Y105.742 E10.81076
G1 X85.475 Y105.742 E11.21290
G1 X86.814 Y106.508 E11.25469
G1 X98.986 Y106.508 E11.58427
G1 X97.646 Y107.273 E11.62605
G1 X88.154 Y107.273 E11.88307
G1 X89.494 Y108.039 E11.92486
G1 X96.306 Y108.039 E12.10931
G1 X94.966 Y108.805 E12.15110
G1 X90.834 Y108.805 E12.26299
G1 X92.174 Y109.570 E12.30478
G1 X93.626 Y109.570 E12.34410
G1 F1800.000 E11.34410
G92 E0
G1 Z1.000 F7800.000
G1 X93.488 Y110.317
G1 F1800.000 E1.00000
G1 X92.312 Y110.317 F1385.796 E1.03106
G1 X81.357 Y104.057 E1.36409
G1 X106.512 Y89.683 E2.12885
G1 X107.688 Y89.683 E2.15990
G1 X118.643 Y95.943 E2.49294
G1 X93.585 Y110.261 E3.25474
G1 X93.488 Y110.317 E3.25769
G1 F1800.000 E2.25769
G92 E0
G1 X82.862 Y103.721 F7800.000
G1 F1800.000 E1.00000
G1 X82.862 Y104.393 F2309.660 E1.01810
G1 X83.623 Y104.828 E1.04173
G1 X83.623 Y103.286 E1.08329
G1 X84.385 Y102.851 E1.10692
G1 X84.385 Y105.264 E1.17193
G1 X85.147 Y105.699 E1.19556
G1 X85.147 Y102.415 E1.28402
G1 X85.908 Y101.980 E1.30765
G1 X85.908 Y106.134 E1.41956
G1 X86.670 Y106.569 E1.44319
G1 X86.670 Y101.545 E1.57855
G1 X87.432 Y101.110 E1.60219
G1 X87.432 Y107.005 E1.76100
G1 X88.194 Y107.440 E1.78463
G1 X88.194 Y100.674 E1.96689
G1 X88.955 Y100.239 E1.99053
G1 X88.955 Y107.875 E2.19624
G1 X89.717 Y108.310 E2.21988
G1 X89.717 Y99.804 E2.44904
G1 X90.479 Y99.369 E2.47267
G1 X90.479 Y108.746 E2.72529
G1 X91.240 Y109.181 E2.74892
G1 X91.240 Y98.933 E3.02499
G1 X92.002 Y98.498 E3.04862
G1 X92.002 Y109.616 E3.34814
G1 X92.764 Y109.906 E3.37010
G1 X92.764 Y98.063 E3.68916
G1 X93.526 Y97.628 E3.71279
G1 X93.526 Y109.772 E4.03996
G1 X94.287 Y109.337 E4.06359
G1 X94.287 Y97.192 E4.39075
G1 X95.049 Y96.757 E4.41439
G1 X95.049 Y108.901 E4.74155
G1 X95.811 Y108.466 E4.76518
G1 X95.811 Y96.322 E5.09234
G1 X96.572 Y95.887 E5.11598
G1 X96.572 Y108.031 E5.44314
G1 X97.334 Y107.596 E5.46677
G1 X97.334 Y95.451 E5.79393
G1 X98.096 Y95.016 E5.81757
G1 X98.096 Y107.160 E6.14473
G1 X98.857 Y106.725 E6.16836
G1 X98.857 Y94.581 E6.49552
G1 X99.619 Y94.146 E6.51916
G1 X99.619 Y106.290 E6.84632
G1 X100.381 Y105.854 E6.86995
G1 X100.381 Y93.710 E7.19711
G1 X101.143 Y93.275 E7.22075
G1 X101.143 Y105.419 E7.54791
G1 X101.904 Y104.984 E7.57154
G1 X101.904 Y92.840 E7.89870
G1 X102.666 Y92.405 E7.92234
G1 X102.666 Y104.549 E8.24950
G1 X103.428 Y104.113 E8.27313
G1 X103.428 Y91.969 E8.60029
G1 X104.189 Y91.534 E8.62393
G1 X104.189 Y103.678 E8.95109
G1 X104.951 Y103.243 E8.97473
G1 X104.951 Y91.099 E9.30189
G1 X105.713 Y90.663 E9.32552
G1 X105.713 Y102.808 E9.65268
G1 X106.474 Y102.372 E9.67632
G1 X106.474 Y90.228 E10.00348
G1 X107.236 Y90.094 E10.02432
G1 X107.236 Y101.937 E10.34337
G1 X107.998 Y101.502 E10.36701
G1 X107.998 Y90.384 E10.66653
G1 X108.760 Y90.819 E10.69016
G1 X108.760 Y101.067 E10.96623
G1 X109.521 Y100.631 E10.98986
G1 X109.521 Y91.254 E11.24248
G1 X110.283 Y91.690 E11.26611
G1 X110.283 Y100.196 E11.49528
G1 X111.045 Y99.761 E11.51891
