; generated by Slic3r 0.9.8 on 2013-05-28 at 12:30:18

; layer_height = .25
; perimeters = 1
; top_solid_layers = 4
; bottom_solid_layers = 4
; fill_density = .9
; perimeter_speed = 30
; infill_speed = 40
; travel_speed = 130
; scale = 1
; nozzle_diameter = 0.5
; filament_diameter = 3
; extrusion_multiplier = 1
; perimeters extrusion width = 0.80mm
; infill extrusion width = 0.80mm
; first layer extrusion width = 0.50mm

M107
M104 S210 ; set temperature
G28 ; home all axes
M109 S210 ; wait for temperature to be reached
G90 ; use absolute coordinates
G21 ; set units to millimeters
G92 E0
M82 ; use absolute distances for extrusion
G1 F1800.000 E-1.00000
G92 E0
G1 Z0.250 F7800.000
G1 X103.470 Y120.603
G1 F1800.000 E1.00000
G1 X102.980 Y120.863 F900.000 E1.00981
G1 X102.200 Y121.173 E1.02465
G1 X101.390 Y121.383 E1.03945
G1 X100.560 Y121.503 E1.05428
G1 X100.000 Y121.523 E1.06419
G1 X99.440 Y121.503 E1.07410
G1 X98.610 Y121.383 E1.08893
G1 X97.800 Y121.173 E1.10373
G1 X97.020 Y120.863 E1.11857
G1 X96.530 Y120.603 E1.12838
G1 X71.100 Y106.073 E1.64631
G1 X70.630 Y105.783 E1.65608
G1 X70.200 Y105.463 E1.66555
G1 X69.780 Y105.103 E1.67534
G1 X69.400 Y104.713 E1.68497
G1 X69.220 Y104.513 E1.68972
G1 X68.890 Y104.083 E1.69931
G1 X68.450 Y103.393 E1.71378
G1 X68.090 Y102.653 E1.72833
G1 X67.830 Y101.883 E1.74271
G1 X67.650 Y101.083 E1.75721
G1 X67.590 Y100.533 E1.76699
G1 X67.570 Y99.993 E1.77655
G1 X67.590 Y99.453 E1.78610
G1 X67.650 Y98.903 E1.79589
G1 X67.700 Y98.643 E1.80057
G1 X67.910 Y97.843 E1.81519
G1 X68.090 Y97.333 E1.82476
G1 X68.200 Y97.083 E1.82959
G1 X68.450 Y96.593 E1.83932
G1 X68.730 Y96.133 E1.84884
G1 X69.220 Y95.473 E1.86338
G1 X69.780 Y94.883 E1.87776
G1 X70.410 Y94.363 E1.89221
G1 X70.630 Y94.203 E1.89702
G1 X71.100 Y93.913 E1.90678
G1 X96.770 Y79.253 E2.42954
G1 X97.020 Y79.123 E2.43452
G1 X97.800 Y78.813 E2.44937
G1 X98.340 Y78.663 E2.45928
G1 X99.160 Y78.513 E2.47402
G1 X99.440 Y78.483 E2.47900
G1 X100.000 Y78.463 E2.48891
G1 X100.560 Y78.483 E2.49882
G1 X100.840 Y78.513 E2.50380
G1 X101.660 Y78.663 E2.51854
G1 X102.200 Y78.813 E2.52845
G1 X102.980 Y79.123 E2.54329
G1 X103.230 Y79.253 E2.54827
G1 X128.890 Y93.913 E3.07088
G1 X129.360 Y94.203 E3.08064
G1 X130.000 Y94.703 E3.09501
G1 X130.210 Y94.883 E3.09990
G1 X130.590 Y95.273 E3.10953
G1 X131.100 Y95.903 E3.12386
G1 X131.410 Y96.363 E3.13367
G1 X131.790 Y97.083 E3.14807
G1 X131.900 Y97.333 E3.15290
G1 X132.080 Y97.843 E3.16246
G1 X132.290 Y98.643 E3.17709
G1 X132.340 Y98.903 E3.18177
G1 X132.400 Y99.453 E3.19155
G1 X132.420 Y99.993 E3.20111
G1 X132.400 Y100.533 E3.21066
G1 X132.340 Y101.083 E3.22045
G1 X132.290 Y101.343 E3.22513
G1 X132.080 Y102.143 E3.23976
G1 X131.900 Y102.653 E3.24932
G1 X131.670 Y103.143 E3.25889
G1 X131.410 Y103.623 E3.26855
G1 X131.260 Y103.853 E3.27340
G1 X130.770 Y104.503 E3.28780
G1 X130.210 Y105.103 E3.30231
G1 X129.580 Y105.623 E3.31676
G1 X129.360 Y105.783 E3.32157
G1 X128.890 Y106.073 E3.33133
G1 X103.535 Y120.565 E3.84778
G1 X103.470 Y120.603 E3.84911
G1 X103.230 Y120.163 F7800.000
G1 X102.750 Y120.413 F900.000 E3.85868
G1 X101.990 Y120.713 E3.87313
G1 X101.210 Y120.913 E3.88737
G1 X100.410 Y121.013 E3.90163
G1 X99.600 Y121.013 E3.91595
G1 X99.330 Y120.993 E3.92074
G1 X98.790 Y120.913 E3.93039
G1 X98.010 Y120.713 E3.94463
G1 X97.250 Y120.413 E3.95908
G1 X96.780 Y120.163 E3.96849
G1 X71.120 Y105.503 E4.49110
G1 X70.480 Y105.043 E4.50504
G1 X69.900 Y104.513 E4.51893
G1 X69.380 Y103.913 E4.53297
G1 X69.080 Y103.483 E4.54224
G1 X68.820 Y103.023 E4.55159
G1 X68.590 Y102.553 E4.56084
G1 X68.330 Y101.813 E4.57471
G1 X68.150 Y101.043 E4.58869
G1 X68.090 Y100.523 E4.59795
G1 X68.070 Y99.993 E4.60733
G1 X68.090 Y99.463 E4.61671
G1 X68.150 Y98.943 E4.62596
G1 X68.200 Y98.683 E4.63065
G1 X68.410 Y97.923 E4.64459
G1 X68.590 Y97.433 E4.65382
G1 X68.700 Y97.193 E4.65849
G1 X69.080 Y96.503 E4.67242
G1 X69.380 Y96.073 E4.68169
G1 X69.550 Y95.863 E4.68647
G1 X70.080 Y95.293 E4.70023
G1 X70.480 Y94.943 E4.70963
G1 X71.120 Y94.483 E4.72357
G1 X97.010 Y79.693 E5.25085
G1 X97.750 Y79.363 E5.26517
G1 X98.010 Y79.273 E5.27004
G1 X98.530 Y79.133 E5.27956
G1 X98.790 Y79.073 E5.28428
G1 X99.330 Y78.993 E5.29393
G1 X100.140 Y78.963 E5.30827
G1 X100.410 Y78.973 E5.31305
G1 X101.210 Y79.073 E5.32730
G1 X101.990 Y79.273 E5.34154
G1 X102.750 Y79.573 E5.35599
G1 X103.230 Y79.823 E5.36556
G1 X128.650 Y94.353 E5.88334
G1 X129.090 Y94.633 E5.89256
G1 X129.510 Y94.943 E5.90179
G1 X129.910 Y95.293 E5.91119
G1 X130.440 Y95.863 E5.92496
G1 X130.610 Y96.073 E5.92974
G1 X130.910 Y96.503 E5.93901
G1 X131.170 Y96.963 E5.94835
G1 X131.400 Y97.433 E5.95760
G1 X131.660 Y98.173 E5.97147
G1 X131.840 Y98.943 E5.98546
G1 X131.900 Y99.463 E5.99472
G1 X131.920 Y99.993 E6.00409
G1 X131.900 Y100.523 E6.01347
G1 X131.840 Y101.043 E6.02273
G1 X131.660 Y101.813 E6.03671
G1 X131.400 Y102.553 E6.05058
G1 X131.170 Y103.023 E6.05984
G1 X130.910 Y103.483 E6.06918
G1 X130.760 Y103.703 E6.07389
G1 X130.440 Y104.123 E6.08323
G1 X129.910 Y104.693 E6.09699
G1 X129.300 Y105.203 E6.11105
G1 X128.870 Y105.503 E6.12032
G1 X128.650 Y105.633 E6.12484
G1 X103.295 Y120.125 E6.64129
G1 X103.230 Y120.163 E6.64262
G1 F1800.000 E5.64262
G92 E0
G1 X100.000 Y113.954 F7800.000
G1 F1800.000 E1.00000
G1 X75.581 Y100.000 F900.000 E1.49735
G1 X100.000 Y86.046 E1.99469
G1 X124.419 Y100.000 E2.49204
G1 X100.065 Y113.916 E2.98806
G1 X100.000 Y113.954 E2.98939
G1 X100.000 Y114.529 F7800.000
G1 X74.573 Y100.000 F900.000 E3.50726
G1 X100.000 Y85.471 E4.02513
G1 X125.427 Y100.000 E4.54300
G1 X100.065 Y114.492 E5.05955
G1 X100.000 Y114.529 E5.06088
G1 X99.828 Y114.060 F7800.000
G1 X100.225 Y113.378
G1 X99.775 Y113.378 F1500.000 E5.06892
G1 X98.891 Y112.873 E5.08708
G1 X101.109 Y112.873 E5.12667
G1 X101.992 Y112.368 E5.14484
G1 X98.008 Y112.368 E5.21597
G1 X97.124 Y111.863 E5.23414
G1 X102.875 Y111.863 E5.33682
G1 X103.759 Y111.358 E5.35499
G1 X96.241 Y111.358 E5.48922
G1 X95.358 Y110.854 E5.50738
G1 X104.642 Y110.854 E5.67315
G1 X105.526 Y110.349 E5.69132
G1 X94.474 Y110.349 E5.88864
G1 X93.591 Y109.844 E5.90680
G1 X106.409 Y109.844 E6.13567
G1 X107.293 Y109.339 E6.15384
G1 X92.707 Y109.339 E6.41425
G1 X91.824 Y108.834 E6.43241
G1 X108.176 Y108.834 E6.72437
G1 X109.060 Y108.329 E6.74254
G1 X90.940 Y108.329 E7.06604
G1 X90.057 Y107.825 E7.08421
G1 X109.943 Y107.825 E7.43926
G1 X110.826 Y107.320 E7.45742
G1 X89.174 Y107.320 E7.84402
G1 X88.290 Y106.815 E7.86219
G1 X111.710 Y106.815 E8.28033
G1 X112.593 Y106.310 E8.29849
G1 X87.407 Y106.310 E8.74818
G1 X86.523 Y105.805 E8.76635
G1 X113.477 Y105.805 E9.24758
G1 X114.360 Y105.301 E9.26575
G1 X85.640 Y105.301 E9.77853
G1 X84.756 Y104.796 E9.79670
G1 X115.244 Y104.796 E10.34102
G1 X116.127 Y104.291 E10.35919
G1 X83.873 Y104.291 E10.93506
G1 X82.990 Y103.786 E10.95323
G1 X117.010 Y103.786 E11.56065
G1 X117.894 Y103.281 E11.57882
G1 X82.106 Y103.281 E12.21778
G1 X81.223 Y102.776 E12.23595
G1 X118.777 Y102.776 E12.90645
G1 X119.661 Y102.272 E12.92462
G1 X80.339 Y102.272 E13.62668
G1 X79.456 Y101.767 E13.64484
G1 X120.544 Y101.767 E14.37845
G1 X121.428 Y101.262 E14.39661
G1 X78.572 Y101.262 E15.16176
G1 X77.689 Y100.757 E15.17993
G1 X122.311 Y100.757 E15.97662
G1 X123.194 Y100.252 E15.99479
G1 X76.806 Y100.252 E16.82303
G1 X76.806 Y99.748 E16.83205
G1 X123.194 Y99.748 E17.66029
G1 X122.311 Y99.243 E17.67845
G1 X77.689 Y99.243 E18.47515
G1 X78.572 Y98.738 E18.49332
G1 X121.428 Y98.738 E19.25846
G1 X120.544 Y98.233 E19.27663
G1 X79.456 Y98.233 E20.01023
G1 X80.339 Y97.728 E20.02840
G1 X119.661 Y97.728 E20.73046
G1 X118.777 Y97.223 E20.74863
G1 X81.223 Y97.223 E21.41914
G1 X82.106 Y96.719 E21.43730
G1 X117.894 Y96.719 E22.07627
G1 X117.010 Y96.214 E22.09443
G1 X82.990 Y96.214 E22.70185
G1 X83.873 Y95.709 E22.72002
G1 X116.127 Y95.709 E23.29589
G1 X115.244 Y95.204 E23.31406
G1 X84.756 Y95.204 E23.85838
G1 X85.640 Y94.699 E23.87655
G1 X114.360 Y94.699 E24.38933
G1 X113.477 Y94.195 E24.40750
G1 X86.523 Y94.195 E24.88873
G1 X87.407 Y93.690 E24.90690
G1 X112.593 Y93.690 E25.35659
G1 X111.710 Y93.185 E25.37475
G1 X88.290 Y93.185 E25.79290
G1 X89.174 Y92.680 E25.81106
G1 X110.826 Y92.680 E26.19766
G1 X109.943 Y92.175 E26.21582
G1 X90.057 Y92.175 E26.57087
G1 X90.940 Y91.670 E26.58904
G1 X109.060 Y91.670 E26.91254
G1 X108.176 Y91.166 E26.93071
G1 X91.824 Y91.166 E27.22267
G1 X92.707 Y90.661 E27.24083
G1 X107.293 Y90.661 E27.50124
G1 X106.409 Y90.156 E27.51941
G1 X93.591 Y90.156 E27.74828
G1 X94.474 Y89.651 E27.76644
G1 X105.526 Y89.651 E27.96376
G1 X104.642 Y89.146 E27.98193
G1 X95.358 Y89.146 E28.14770
G1 X96.241 Y88.642 E28.16587
G1 X103.759 Y88.642 E28.30009
G1 X102.875 Y88.137 E28.31826
G1 X97.124 Y88.137 E28.42094
G1 X98.008 Y87.632 E28.43911
G1 X101.992 Y87.632 E28.51024
G1 X101.109 Y87.127 E28.52841
G1 X98.891 Y87.127 E28.56800
G1 X99.775 Y86.622 E28.58616
G1 X100.225 Y86.622 E28.59420
M106 S226
G1 F1800.000 E27.59420
G92 E0
G1 Z0.500 F7800.000
G1 X100.000 Y85.643
G1 F1800.000 E1.00000
G1 X125.124 Y100.000 F1800.000 E1.76384
G1 X100.000 Y114.357 E2.52767
G1 X74.876 Y100.000 E3.29151
G1 X99.903 Y85.699 E4.05239
G1 X100.000 Y85.643 E4.05534
G1 F1800.000 E3.05534
G92 E0
G1 X123.620 Y99.664 F7800.000
G1 F1800.000 E1.00000
G1 X123.620 Y100.336 F3000.000 E1.01782
G1 X122.870 Y100.764 E1.04072
G1 X122.870 Y99.236 E1.08127
G1 X122.120 Y98.807 E1.10418
G1 X122.120 Y101.193 E1.16745
G1 X121.370 Y101.621 E1.19035
G1 X121.370 Y98.379 E1.27635
G1 X120.620 Y97.950 E1.29926
G1 X120.620 Y102.050 E1.40798
G1 X119.871 Y102.478 E1.43089
G1 X119.871 Y97.522 E1.56234
G1 X119.121 Y97.093 E1.58524
G1 X119.121 Y102.907 E1.73942
G1 X118.371 Y103.335 E1.76233
G1 X118.371 Y96.665 E1.93923
G1 X117.621 Y96.236 E1.96214
G1 X117.621 Y103.764 E2.16177
G1 X116.871 Y104.192 E2.18467
G1 X116.871 Y95.808 E2.40704
G1 X116.121 Y95.379 E2.42994
G1 X116.121 Y104.621 E2.67502
G1 X115.372 Y105.049 E2.69793
G1 X115.372 Y94.951 E2.96574
G1 X114.622 Y94.522 E2.98864
G1 X114.622 Y105.478 E3.27918
G1 X113.872 Y105.906 E3.30209
G1 X113.872 Y94.094 E3.61535
G1 X113.122 Y93.665 E3.63825
G1 X113.122 Y106.335 E3.97425
G1 X112.372 Y106.763 E3.99715
G1 X112.372 Y93.237 E4.35587
G1 X111.622 Y92.808 E4.37878
G1 X111.622 Y107.192 E4.76022
G1 X110.873 Y107.620 E4.78313
G1 X110.873 Y92.380 E5.18730
G1 X110.123 Y91.951 E5.21020
G1 X110.123 Y108.049 E5.63710
G1 X109.373 Y108.477 E5.66000
G1 X109.373 Y91.523 E6.10963
G1 X108.623 Y91.094 E6.13254
G1 X108.623 Y108.906 E6.60489
G1 X107.873 Y109.334 E6.62779
G1 X107.873 Y90.666 E7.12287
G1 X107.123 Y90.237 E7.14577
G1 X107.123 Y109.762 E7.66358
G1 X106.374 Y110.191 E7.68648
G1 X106.374 Y89.809 E8.22701
G1 X105.624 Y89.380 E8.24992
G1 X105.624 Y110.619 E8.81318
G1 X104.874 Y111.048 E8.83608
G1 X104.874 Y88.952 E9.42207
G1 X104.124 Y88.524 E9.44497
G1 X104.124 Y111.476 E10.05368
G1 X103.374 Y111.905 E10.07658
G1 X103.374 Y88.095 E10.70802
G1 X102.624 Y87.667 E10.73093
G1 X102.624 Y112.333 E11.38509
G1 X101.875 Y112.762 E11.40800
G1 X101.875 Y87.238 E12.08489
G1 X101.125 Y86.810 E12.10779
G1 X101.125 Y113.190 E12.80741
G1 X100.375 Y113.619 E12.83031
G1 X100.375 Y86.381 E13.55266
G1 X99.625 Y86.381 E13.57254
G1 X99.625 Y113.619 E14.29489
G1 X98.875 Y113.190 E14.31779
G1 X98.875 Y86.810 E15.01741
G1 X98.125 Y87.238 E15.04031
G1 X98.125 Y112.762 E15.71720
G1 X97.376 Y112.333 E15.74011
G1 X97.376 Y87.667 E16.39427
G1 X96.626 Y88.095 E16.41717
G1 X96.626 Y111.905 E17.04861
G1 X95.876 Y111.476 E17.07151
G1 X95.876 Y88.524 E17.68023
G1 X95.126 Y88.952 E17.70313
G1 X95.126 Y111.048 E18.28911
G1 X94.376 Y110.619 E18.31202
G1 X94.376 Y89.381 E18.87527
G1 X93.626 Y89.809 E18.89817
G1 X93.626 Y110.191 E19.43871
G1 X92.876 Y109.762 E19.46161
G1 X92.876 Y90.237 E19.97942
G1 X92.127 Y90.666 E20.00232
G1 X92.127 Y109.334 E20.49740
G1 X91.377 Y108.905 E20.52030
G1 X91.377 Y91.094 E20.99265
G1 X90.627 Y91.523 E21.01556
G1 X90.627 Y108.477 E21.46518
G1 X89.877 Y108.049 E21.48808
G1 X89.877 Y91.951 E21.91498
G1 X89.127 Y92.380 E21.93789
G1 X89.127 Y107.620 E22.34206
G1 X88.377 Y107.192 E22.36496
G1 X88.377 Y92.808 E22.74641
G1 X87.628 Y93.237 E22.76931
G1 X87.628 Y106.763 E23.12803
G1 X86.878 Y106.335 E23.15093
G1 X86.878 Y93.665 E23.48693
G1 X86.128 Y94.094 E23.50983
G1 X86.128 Y105.906 E23.82309
G1 X85.378 Y105.478 E23.84600
G1 X85.378 Y94.522 E24.13654
G1 X84.628 Y94.951 E24.15944
G1 X84.628 Y105.049 E24.42725
G1 X83.878 Y104.621 E24.45015
G1 X83.878 Y95.379 E24.69524
G1 X83.129 Y95.808 E24.71814
G1 X83.129 Y104.192 E24.94050
G1 X82.379 Y103.764 E24.96341
G1 X82.379 Y96.236 E25.16304
G1 X81.629 Y96.665 E25.18594
G1 X81.629 Y103.335 E25.36285
G1 X80.879 Y102.907 E25.38575
G1 X80.879 Y97.093 E25.53993
G1 X80.129 Y97.522 E25.56283
G1 X80.129 Y102.478 E25.69428
G1 X79.379 Y102.050 E25.71719
G1 X79.379 Y97.950 E25.82592
G1 X78.630 Y98.379 E25.84882
G1 X78.630 Y101.621 E25.93482
G1 X77.880 Y101.193 E25.95772
G1 X77.880 Y98.807 E26.02100
G1 X77.130 Y99.236 E26.04390
G1 X77.130 Y100.764 E26.08444
G1 X76.380 Y100.336 E26.10735
G1 X76.380 Y99.664 E26.12517
M106 S227
G1 F1800.000 E25.12517
G92 E0
G1 Z0.750 F7800.000
G1 X76.956 Y98.811
G1 F1800.000 E1.00000
G1 X100.000 Y85.643 F1800.000 E1.70060
G1 X125.124 Y100.000 E2.46443
G1 X100.000 Y114.357 E3.22827
G1 X74.876 Y100.000 E3.99210
G1 X76.859 Y98.867 E4.05239
G1 X76.956 Y98.811 E4.05534
G1 F1800.000 E3.05534
G92 E0
G1 X99.664 Y86.503 F7800.000
G1 F1800.000 E1.00000
G1 X100.336 Y86.503 F3000.000 E1.01782
G1 X101.648 Y87.253 E1.05790
G1 X98.352 Y87.253 E1.14532
G1 X97.040 Y88.003 E1.18541
G1 X102.960 Y88.003 E1.34243
G1 X104.273 Y88.752 E1.38251
G1 X95.727 Y88.752 E1.60914
G1 X94.415 Y89.502 E1.64922
G1 X105.585 Y89.502 E1.94544
G1 X106.897 Y90.252 E1.98552
G1 X93.103 Y90.252 E2.35135
G1 X91.791 Y91.002 E2.39143
G1 X108.209 Y91.002 E2.82685
G1 X109.522 Y91.752 E2.86693
G1 X90.478 Y91.752 E3.37196
G1 X89.166 Y92.502 E3.41204
G1 X110.834 Y92.502 E3.98666
G1 X112.146 Y93.251 E4.02675
G1 X87.854 Y93.251 E4.67098
G1 X86.542 Y94.001 E4.71106
G1 X113.458 Y94.001 E5.42488
G1 X114.770 Y94.751 E5.46496
G1 X85.230 Y94.751 E6.24839
G1 X83.917 Y95.501 E6.28847
G1 X116.083 Y95.501 E7.14149
G1 X117.395 Y96.251 E7.18157
G1 X82.605 Y96.251 E8.10420
G1 X81.293 Y97.001 E8.14428
G1 X118.707 Y97.001 E9.13651
G1 X120.019 Y97.750 E9.17659
G1 X79.981 Y97.750 E10.23842
G1 X78.668 Y98.500 E10.27850
G1 X121.332 Y98.500 E11.40993
G1 X122.644 Y99.250 F7800.000
G1 X77.356 Y99.250 F3000.000 E12.61096
G1 X76.044 Y100.000 E12.65103
G1 X123.956 Y100.000 E13.92165
G1 X122.644 Y100.750 F7800.000
G1 X77.356 Y100.750 F3000.000 E15.12268
G1 X78.668 Y101.500 E15.16276
G1 X121.332 Y101.500 E16.29419
G1 X120.019 Y102.249 E16.33427
G1 X79.981 Y102.249 E17.39610
G1 X81.293 Y102.999 E17.43618
G1 X118.707 Y102.999 E18.42841
G1 X117.395 Y103.749 E18.46849
G1 X82.605 Y103.749 E19.39112
G1 X83.917 Y104.499 E19.43120
G1 X116.083 Y104.499 E20.28423
G1 X114.770 Y105.249 E20.32431
G1 X85.230 Y105.249 E21.10774
G1 X86.542 Y105.999 E21.14782
G1 X113.458 Y105.999 E21.86165
G1 X112.146 Y106.748 E21.90173
G1 X87.854 Y106.748 E22.54596
G1 X89.166 Y107.498 E22.58604
G1 X110.834 Y107.498 E23.16067
G1 X109.522 Y108.248 E23.20075
G1 X90.478 Y108.248 E23.70577
G1 X91.791 Y108.998 E23.74586
G1 X108.209 Y108.998 E24.18128
G1 X106.897 Y109.748 E24.22136
G1 X93.103 Y109.748 E24.58719
G1 X94.415 Y110.498 E24.62727
G1 X105.585 Y110.498 E24.92350
G1 X104.273 Y111.248 E24.96358
G1 X95.727 Y111.248 E25.19020
G1 X97.040 Y111.997 E25.23028
G1 X102.961 Y111.997 E25.38731
G1 X101.648 Y112.747 E25.42739
G1 X98.352 Y112.747 E25.51482
G1 X99.664 Y113.497 E25.55490
G1 X100.336 Y113.497 E25.57272
