; generated by Slic3r 0.9.8 on 2013-05-28 at 11:29:55

; layer_height = .25
; perimeters = 1
; top_solid_layers = 4
; bottom_solid_layers = 4
; fill_density = .9
; perimeter_speed = 30
; infill_speed = 40
; travel_speed = 130
; scale = 1
; nozzle_diameter = 0.5
; filament_diameter = 3
; extrusion_multiplier = 1
; perimeters extrusion width = 0.80mm
; infill extrusion width = 0.80mm
; first layer extrusion width = 0.50mm

M107
M104 S210 ; set temperature
G28 ; home all axes
M109 S210 ; wait for temperature to be reached
G90 ; use absolute coordinates
G21 ; set units to millimeters
G92 E0
M82 ; use absolute distances for extrusion
G1 F1800.000 E-1.00000
G92 E0
G1 Z0.250 F7800.000
G1 X114.707 Y105.620
G1 F1800.000 E1.00000
G1 X114.487 Y105.780 F900.000 E1.00481
G1 X114.017 Y106.070 E1.01458
G1 X103.467 Y112.100 E1.22947
G1 X102.977 Y112.360 E1.23928
G1 X102.717 Y112.470 E1.24427
G1 X102.197 Y112.670 E1.25412
G1 X101.657 Y112.820 E1.26403
G1 X101.107 Y112.930 E1.27395
G1 X100.557 Y113.000 E1.28375
G1 X99.997 Y113.020 E1.29366
G1 X99.437 Y113.000 E1.30357
G1 X99.157 Y112.970 E1.30855
G1 X98.607 Y112.880 E1.31841
G1 X97.797 Y112.670 E1.33321
G1 X97.017 Y112.360 E1.34805
G1 X96.527 Y112.100 E1.35786
G1 X85.737 Y105.930 E1.57766
G1 X85.287 Y105.620 E1.58732
G1 X84.657 Y105.100 E1.60177
G1 X84.097 Y104.500 E1.61628
G1 X83.607 Y103.850 E1.63068
G1 X83.457 Y103.620 E1.63553
G1 X83.197 Y103.140 E1.64519
G1 X82.967 Y102.650 E1.65476
G1 X82.707 Y101.870 E1.66930
G1 X82.577 Y101.340 E1.67895
G1 X82.527 Y101.070 E1.68380
G1 X82.467 Y100.530 E1.69341
G1 X82.447 Y99.990 E1.70297
G1 X82.467 Y99.440 E1.71270
G1 X82.577 Y98.630 E1.72716
G1 X82.707 Y98.100 E1.73681
G1 X82.877 Y97.580 E1.74648
G1 X83.077 Y97.080 E1.75600
G1 X83.327 Y96.590 E1.76573
G1 X83.607 Y96.130 E1.77526
G1 X84.097 Y95.470 E1.78979
G1 X84.467 Y95.070 E1.79943
G1 X85.077 Y94.520 E1.81395
G1 X85.517 Y94.200 E1.82357
G1 X85.977 Y93.910 E1.83319
G1 X96.527 Y87.890 E2.04799
G1 X97.277 Y87.520 E2.06278
G1 X97.797 Y87.320 E2.07263
G1 X98.337 Y87.170 E2.08254
G1 X98.887 Y87.060 E2.09246
G1 X99.437 Y86.990 E2.10227
G1 X99.997 Y86.970 E2.11217
G1 X100.557 Y86.990 E2.12208
G1 X100.837 Y87.020 E2.12706
G1 X101.387 Y87.110 E2.13692
G1 X102.197 Y87.320 E2.15172
G1 X102.967 Y87.630 E2.16640
G1 X103.467 Y87.890 E2.17636
G1 X114.247 Y94.050 E2.39592
G1 X114.917 Y94.520 E2.41040
G1 X115.527 Y95.070 E2.42492
G1 X115.897 Y95.470 E2.43456
G1 X116.387 Y96.130 E2.44909
G1 X116.667 Y96.590 E2.45861
G1 X116.917 Y97.080 E2.46834
G1 X117.207 Y97.840 E2.48273
G1 X117.417 Y98.630 E2.49718
G1 X117.527 Y99.440 E2.51164
G1 X117.547 Y99.990 E2.52137
G1 X117.527 Y100.530 E2.53093
G1 X117.467 Y101.070 E2.54053
G1 X117.287 Y101.870 E2.55504
G1 X117.027 Y102.650 E2.56958
G1 X116.797 Y103.140 E2.57915
G1 X116.537 Y103.620 E2.58880
G1 X116.067 Y104.290 E2.60327
G1 X115.717 Y104.710 E2.61294
G1 X115.337 Y105.100 E2.62257
G1 X114.766 Y105.573 E2.63569
G1 X114.707 Y105.620 E2.63702
G1 X114.437 Y105.200 F7800.000
G1 X113.777 Y105.630 F900.000 E2.65095
G1 X103.227 Y111.660 E2.86584
G1 X102.497 Y112.020 E2.88023
G1 X101.987 Y112.210 E2.88985
G1 X101.207 Y112.410 E2.90409
G1 X100.397 Y112.510 E2.91853
G1 X100.127 Y112.520 E2.92330
G1 X99.597 Y112.510 E2.93268
G1 X98.787 Y112.410 E2.94711
G1 X98.007 Y112.210 E2.96135
G1 X97.747 Y112.120 E2.96622
G1 X97.247 Y111.910 E2.97581
G1 X96.767 Y111.660 E2.98538
G1 X85.997 Y105.500 E3.20478
G1 X85.557 Y105.200 E3.21420
G1 X84.957 Y104.690 E3.22813
G1 X84.597 Y104.310 E3.23738
G1 X84.257 Y103.910 E3.24667
G1 X83.957 Y103.480 E3.25594
G1 X83.577 Y102.790 E3.26987
G1 X83.467 Y102.550 E3.27454
G1 X83.287 Y102.060 E3.28377
G1 X83.137 Y101.550 E3.29317
G1 X83.027 Y101.040 E3.30240
G1 X82.967 Y100.510 E3.31183
G1 X82.947 Y99.990 E3.32103
G1 X82.967 Y99.460 E3.33041
G1 X82.997 Y99.200 E3.33504
G1 X83.077 Y98.680 E3.34434
G1 X83.207 Y98.170 E3.35365
G1 X83.377 Y97.670 E3.36299
G1 X83.697 Y96.950 E3.37692
G1 X84.107 Y96.280 E3.39081
G1 X84.427 Y95.860 E3.40015
G1 X84.967 Y95.280 E3.41416
G1 X85.357 Y94.940 E3.42331
G1 X85.777 Y94.620 E3.43265
G1 X86.227 Y94.340 E3.44202
G1 X96.777 Y88.320 E3.65682
G1 X97.497 Y87.970 E3.67098
G1 X98.267 Y87.700 E3.68541
G1 X98.787 Y87.580 E3.69485
G1 X99.327 Y87.500 E3.70450
G1 X99.597 Y87.480 E3.70929
G1 X100.127 Y87.470 E3.71866
G1 X100.667 Y87.500 E3.72823
G1 X101.207 Y87.580 E3.73788
G1 X101.727 Y87.700 E3.74732
G1 X101.987 Y87.780 E3.75213
G1 X102.497 Y87.970 E3.76175
G1 X103.217 Y88.320 E3.77591
G1 X113.997 Y94.480 E3.99547
G1 X114.217 Y94.620 E4.00008
G1 X114.637 Y94.940 E4.00942
G1 X115.027 Y95.280 E4.01857
G1 X115.397 Y95.660 E4.02795
G1 X115.887 Y96.280 E4.04192
G1 X116.167 Y96.720 E4.05115
G1 X116.417 Y97.190 E4.06056
G1 X116.707 Y97.920 E4.07445
G1 X116.917 Y98.680 E4.08839
G1 X117.027 Y99.460 E4.10232
G1 X117.047 Y99.990 E4.11170
G1 X117.027 Y100.510 E4.12090
G1 X116.967 Y101.040 E4.13034
G1 X116.787 Y101.800 E4.14415
G1 X116.527 Y102.550 E4.15819
G1 X116.297 Y103.020 E4.16744
G1 X116.037 Y103.480 E4.17678
G1 X115.737 Y103.910 E4.18605
G1 X115.217 Y104.510 E4.20010
G1 X114.837 Y104.870 E4.20935
G1 X114.496 Y105.153 E4.21720
G1 X114.437 Y105.200 E4.21852
G1 F1800.000 E3.21852
G92 E0
G1 X109.544 Y100.000 F7800.000
G1 F1800.000 E1.00000
G1 X100.000 Y105.453 F900.000 E1.19438
G1 X90.456 Y100.000 E1.38876
G1 X100.000 Y94.547 E1.58313
G1 X109.478 Y99.963 E1.77619
G1 X109.544 Y100.000 E1.77751
G1 X110.551 Y100.000 F7800.000
G1 X100.000 Y106.029 F900.000 E1.99242
G1 X89.449 Y100.000 E2.20732
G1 X100.000 Y93.971 E2.42222
G1 X110.486 Y99.963 E2.63580
G1 X110.551 Y100.000 E2.63713
G1 X110.059 Y100.086 F7800.000
G1 F1800.000 E1.63713
G92 E0
G1 X100.225 Y104.878 F7800.000
G1 F1800.000 E1.00000
G1 X99.775 Y104.878 F1500.000 E1.00818
G1 X98.876 Y104.364 E1.02697
G1 X101.124 Y104.364 E1.06778
G1 X102.022 Y103.851 E1.08657
G1 X97.978 Y103.851 E1.16002
G1 X97.079 Y103.337 E1.17881
G1 X102.921 Y103.337 E1.28488
G1 X103.819 Y102.824 E1.30367
G1 X96.181 Y102.824 E1.44238
G1 X95.282 Y102.310 E1.46117
G1 X104.718 Y102.310 E1.63251
G1 X105.616 Y101.797 E1.65130
G1 X94.384 Y101.797 E1.85527
G1 X93.485 Y101.284 E1.87406
G1 X106.515 Y101.284 E2.11066
G1 X107.413 Y100.770 E2.12945
G1 X92.587 Y100.770 E2.39868
G1 X91.688 Y100.257 E2.41748
G1 X108.312 Y100.257 E2.71934
G1 X108.312 Y99.743 E2.72866
G1 X91.688 Y99.743 E3.03053
G1 X92.587 Y99.230 E3.04932
G1 X107.413 Y99.230 E3.31855
G1 X106.515 Y98.716 E3.33735
G1 X93.485 Y98.716 E3.57395
G1 X94.384 Y98.203 E3.59274
G1 X105.616 Y98.203 E3.79671
G1 X104.718 Y97.690 E3.81550
G1 X95.282 Y97.690 E3.98684
G1 X96.181 Y97.176 E4.00563
G1 X103.819 Y97.176 E4.14433
G1 X102.921 Y96.663 E4.16313
G1 X97.079 Y96.663 E4.26920
G1 X97.978 Y96.149 E4.28799
G1 X102.022 Y96.149 E4.36143
G1 X101.124 Y95.636 E4.38023
G1 X98.876 Y95.636 E4.42104
G1 X99.775 Y95.122 E4.43983
G1 X100.225 Y95.122 E4.44801
M106 S255
G1 F1800.000 E3.44801
G92 E0
G1 Z0.500 F7800.000
G1 X100.000 Y95.068
G1 F1800.000 E1.00000
G1 X108.630 Y100.000 F600.000 E1.26238
G1 X100.000 Y104.932 E1.52476
G1 X91.370 Y100.000 E1.78714
G1 X99.903 Y95.124 E2.04656
G1 X100.000 Y95.068 E2.04951
G1 X100.000 Y94.209 F7800.000
G1 X110.134 Y100.000 F920.412 E2.35763
G1 X100.000 Y105.791 E2.66574
G1 X89.866 Y100.000 E2.97385
G1 X99.903 Y94.264 E3.27901
G1 X100.000 Y94.209 E3.28197
G1 X100.256 Y94.910 F7800.000
G1 F1800.000 E2.28197
G92 E0
G1 X107.126 Y99.664 F7800.000
G1 F1800.000 E1.00000
G1 X107.126 Y100.336 F1534.020 E1.01783
G1 X106.376 Y100.765 E1.04075
G1 X106.376 Y99.235 E1.08131
G1 X105.626 Y98.807 E1.10423
G1 X105.626 Y101.193 E1.16755
G1 X104.876 Y101.622 E1.19047
G1 X104.876 Y98.378 E1.27652
G1 X104.125 Y97.950 E1.29944
G1 X104.125 Y102.050 E1.40823
G1 X103.375 Y102.479 E1.43115
G1 X103.375 Y97.521 E1.56269
G1 X102.625 Y97.092 E1.58561
G1 X102.625 Y102.908 E1.73989
G1 X101.875 Y103.336 E1.76281
G1 X101.875 Y96.664 E1.93983
G1 X101.125 Y96.235 E1.96275
G1 X101.125 Y103.765 E2.16251
G1 X100.375 Y104.194 E2.18543
G1 X100.375 Y95.806 E2.40794
G1 X99.625 Y95.806 E2.42783
G1 X99.625 Y104.194 E2.65034
G1 X98.875 Y103.765 E2.67326
G1 X98.875 Y96.235 E2.87302
G1 X98.125 Y96.664 E2.89594
G1 X98.125 Y103.336 E3.07296
G1 X97.375 Y102.908 E3.09588
G1 X97.375 Y97.092 E3.25016
G1 X96.625 Y97.521 E3.27308
G1 X96.625 Y102.479 E3.40462
G1 X95.874 Y102.050 E3.42754
G1 X95.874 Y97.950 E3.53633
G1 X95.124 Y98.378 E3.55925
G1 X95.124 Y101.622 E3.64530
G1 X94.374 Y101.193 E3.66822
G1 X94.374 Y98.807 E3.73153
G1 X93.624 Y99.235 E3.75445
G1 X93.624 Y100.765 E3.79502
G1 X92.874 Y100.336 E3.81794
G1 X92.874 Y99.664 E3.83577
G1 F1800.000 E2.83577
G92 E0
G1 Z0.750 F7800.000
G1 X91.484 Y100.000
G1 F1800.000 E1.00000
G1 X100.000 Y95.134 F600.000 E1.25890
G1 X108.516 Y100.000 E1.51779
G1 X100.000 Y104.866 E1.77669
G1 X91.582 Y100.056 E2.03263
G1 X91.484 Y100.000 E2.03559
G1 X89.980 Y100.000 F7800.000
G1 X100.000 Y94.274 F872.454 E2.34022
G1 X110.020 Y100.000 E2.64485
G1 X100.000 Y105.726 E2.94948
G1 X90.077 Y100.056 E3.25116
G1 X89.980 Y100.000 E3.25411
G1 X90.715 Y99.871 F7800.000
G1 X92.653 Y100.000
G1 X107.347 Y100.000 F1454.089 E3.67056
G1 X105.945 Y99.199 E3.71633
G1 X94.055 Y99.199 E4.05330
G1 X94.055 Y100.801 F7800.000
G1 X105.945 Y100.801 F1454.089 E4.39028
G1 X104.543 Y101.603 E4.43605
G1 X95.457 Y101.603 E4.69354
G1 X96.859 Y102.404 E4.73931
G1 X103.141 Y102.404 E4.91732
G1 X101.738 Y103.205 E4.96310
G1 X98.262 Y103.205 E5.06163
G1 X99.664 Y104.006 E5.10740
G1 X100.336 Y104.006 E5.12645
G1 F1800.000 E4.12645
G92 E0
G1 X95.457 Y98.397 F7800.000
G1 F1800.000 E1.00000
G1 X104.543 Y98.397 F1454.089 E1.25749
G1 X103.141 Y97.596 E1.30326
G1 X96.859 Y97.596 E1.48127
G1 X98.262 Y96.795 E1.52704
G1 X101.738 Y96.795 E1.62558
G1 X100.336 Y95.993 E1.67135
G1 X99.664 Y95.993 E1.69040
G1 F1800.000 E0.69040
G92 E0
G1 Z1.000 F7800.000
G1 X100.000 Y95.199
G1 F1800.000 E1.00000
G1 X108.401 Y100.000 F600.000 E1.25542
G1 X100.000 Y104.801 E1.51083
G1 X91.599 Y100.000 E1.76625
G1 X99.903 Y95.255 E2.01871
G1 X100.000 Y95.199 E2.02166
G1 X100.514 Y94.634 F7800.000
G1 X109.905 Y100.000 F886.010 E2.30717
G1 X100.000 Y105.660 E2.60832
G1 X90.095 Y100.000 E2.90947
G1 X100.000 Y94.340 E3.21062
G1 X100.417 Y94.578 E3.22330
G1 X100.514 Y94.634 E3.22626
G1 X100.518 Y95.380 F7800.000
G1 F1800.000 E2.22626
G92 E0
G1 X106.897 Y99.664 F7800.000
G1 F1800.000 E1.00000
G1 X106.897 Y100.336 F1476.683 E1.01821
G1 X106.130 Y100.774 E1.04213
G1 X106.130 Y99.226 E1.08408
G1 X105.364 Y98.788 E1.10800
G1 X105.364 Y101.212 E1.17369
G1 X104.598 Y101.650 E1.19761
G1 X104.598 Y98.350 E1.28703
G1 X103.832 Y97.912 E1.31095
G1 X103.832 Y102.088 E1.42411
G1 X103.065 Y102.525 E1.44803
G1 X103.065 Y97.475 E1.58492
G1 X102.299 Y97.037 E1.60884
G1 X102.299 Y102.963 E1.76947
G1 X101.533 Y103.401 E1.79340
G1 X101.533 Y96.599 E1.97777
G1 X100.766 Y96.161 E2.00169
G1 X100.766 Y103.839 E2.20979
G1 X100.000 Y104.277 E2.23371
G1 X100.000 Y95.723 E2.46555
G1 X99.234 Y96.161 E2.48947
G1 X99.234 Y103.839 E2.69757
G1 X98.467 Y103.401 E2.72149
G1 X98.467 Y96.599 E2.90586
G1 X97.701 Y97.037 E2.92978
G1 X97.701 Y102.963 E3.09041
G1 X96.935 Y102.525 E3.11433
G1 X96.935 Y97.475 E3.25123
G1 X96.168 Y97.912 E3.27515
G1 X96.168 Y102.088 E3.38831
G1 X95.402 Y101.650 E3.41223
G1 X95.402 Y98.350 E3.50165
G1 X94.636 Y98.788 E3.52557
G1 X94.636 Y101.212 E3.59125
G1 X93.869 Y100.774 E3.61517
G1 X93.869 Y99.226 E3.65712
G1 X93.103 Y99.664 E3.68105
G1 X93.103 Y100.336 E3.69926
G1 F1800.000 E2.69926
G92 E0
G1 Z1.250 F7800.000
G1 X91.713 Y100.000
G1 F1800.000 E1.00000
G1 X100.000 Y95.265 F600.000 E1.25193
G1 X108.287 Y100.000 E1.50387
G1 X100.000 Y104.735 E1.75580
G1 X91.811 Y100.056 E2.00478
G1 X91.713 Y100.000 E2.00773
G1 X90.209 Y100.000 F7800.000
G1 X100.000 Y94.405 F890.988 E2.30540
G1 X109.791 Y100.000 E2.60307
G1 X100.000 Y105.595 E2.90074
G1 X90.306 Y100.056 E3.19545
G1 X90.209 Y100.000 E3.19841
G1 X90.944 Y99.871 F7800.000
G1 F1800.000 E2.19841
G92 E0
G1 X100.336 Y103.876 F7800.000
G1 F1800.000 E1.00000
G1 X99.664 Y103.876 F1187.985 E1.01774
G1 X98.213 Y103.046 E1.06186
G1 X101.787 Y103.046 E1.15622
G1 X103.239 Y102.217 E1.20034
G1 X96.761 Y102.217 E1.37131
G1 X95.310 Y101.388 E1.41543
G1 X104.690 Y101.388 E1.66302
G1 X106.141 Y100.558 E1.70714
G1 X93.859 Y100.558 E2.03135
G1 X93.355 Y99.729 E2.05696
G1 X106.645 Y99.729 E2.40775
G1 X105.193 Y98.900 E2.45187
G1 X94.807 Y98.900 E2.72604
G1 X96.258 Y98.071 E2.77016
G1 X103.742 Y98.071 E2.96772
G1 X102.291 Y97.241 E3.01184
G1 X97.709 Y97.241 E3.13278
G1 X99.160 Y96.412 E3.17690
G1 X100.840 Y96.412 E3.22122
G1 F1800.000 E2.22122
G92 E0
G1 Z1.500 F7800.000
G1 X100.551 Y95.645
G1 F1800.000 E1.00000
G1 X108.172 Y100.000 F600.000 E1.23169
G1 X100.000 Y104.670 E1.48014
G1 X91.828 Y100.000 E1.72859
G1 X100.000 Y95.330 E1.97704
G1 X100.454 Y95.590 E1.99085
G1 X100.551 Y95.645 E1.99381
G1 X100.922 Y94.997 F7800.000
G1 X109.676 Y100.000 F893.973 E2.25997
G1 X100.000 Y105.529 E2.55416
G1 X90.324 Y100.000 E2.84834
G1 X100.000 Y94.471 E3.14253
G1 X100.824 Y94.942 E3.16760
G1 X100.922 Y94.997 E3.17055
G1 X100.925 Y95.744 F7800.000
G1 F1800.000 E2.17055
G92 E0
G1 X106.668 Y99.664 F7800.000
G1 F1800.000 E1.00000
G1 X106.668 Y100.336 F1191.964 E1.01774
G1 X105.838 Y100.810 E1.04295
G1 X105.838 Y99.190 E1.08570
G1 X105.009 Y98.716 E1.11092
G1 X105.009 Y101.284 E1.17869
G1 X104.180 Y101.758 E1.20390
G1 X104.180 Y98.242 E1.29669
G1 X103.351 Y97.769 E1.32190
G1 X103.351 Y102.231 E1.43971
G1 X102.521 Y102.705 E1.46492
G1 X102.521 Y97.295 E1.60775
G1 X101.692 Y96.821 E1.63296
G1 X101.692 Y103.179 E1.80080
G1 X100.863 Y103.653 E1.82601
G1 X100.863 Y96.347 E2.01887
G1 X100.034 Y95.873 E2.04408
G1 X100.034 Y104.127 E2.26196
G1 X99.204 Y103.691 E2.28668
G1 X99.204 Y96.309 E2.48157
G1 X98.375 Y96.782 E2.50678
G1 X98.375 Y103.218 E2.67665
G1 X97.546 Y102.744 E2.70186
G1 X97.546 Y97.256 E2.84671
G1 X96.716 Y97.730 E2.87192
G1 X96.716 Y102.270 E2.99176
G1 X95.887 Y101.796 E3.01697
G1 X95.887 Y98.204 E3.11179
G1 X95.058 Y98.678 E3.13700
G1 X95.058 Y101.322 E3.20679
G1 X94.229 Y100.848 E3.23201
G1 X94.229 Y99.152 E3.27679
G1 X93.399 Y99.626 E3.30200
G1 X93.399 Y100.374 E3.32176
G1 F1800.000 E2.32176
G92 E0
G1 Z1.750 F7800.000
G1 X91.942 Y100.000
G1 F1800.000 E1.00000
G1 X100.000 Y95.396 F600.000 E1.24497
G1 X108.058 Y100.000 E1.48994
G1 X100.000 Y104.604 E1.73491
G1 X92.040 Y100.056 E1.97692
G1 X91.942 Y100.000 E1.97988
G1 X91.154 Y99.591 F7800.000
G1 X100.000 Y94.536 F825.666 E2.24882
G1 X109.562 Y100.000 E2.53952
G1 X100.000 Y105.464 E2.83023
G1 X90.438 Y100.000 E3.12093
G1 X91.057 Y99.646 E3.13974
G1 X91.154 Y99.591 E3.14270
G1 X91.799 Y99.967 F7800.000
G1 X93.111 Y100.000
G1 X106.889 Y100.000 F1376.111 E3.50767
G1 X105.579 Y99.251 E3.54765
G1 X94.421 Y99.251 E3.84319
G1 X94.421 Y100.749 F7800.000
G1 X105.579 Y100.749 F1376.111 E4.13873
G1 X104.268 Y101.498 E4.17872
G1 X95.732 Y101.498 E4.40483
G1 X97.043 Y102.247 E4.44481
G1 X102.957 Y102.247 E4.60148
G1 X101.647 Y102.996 E4.64147
G1 X98.353 Y102.996 E4.72871
G1 X99.664 Y103.745 E4.76870
G1 X100.336 Y103.745 E4.78650
G1 F1800.000 E3.78650
G92 E0
G1 X95.732 Y98.502 F7800.000
G1 F1800.000 E1.00000
G1 X104.268 Y98.502 F1376.111 E1.22611
G1 X102.957 Y97.753 E1.26609
G1 X97.043 Y97.753 E1.42277
G1 X98.353 Y97.004 E1.46275
G1 X101.647 Y97.004 E1.54999
G1 X100.336 Y96.255 E1.58997
G1 X99.664 Y96.255 E1.60778
G1 F1800.000 E0.60778
G92 E0
G1 Z2.000 F7800.000
G1 X100.000 Y95.461
G1 F1800.000 E1.00000
G1 X107.943 Y100.000 F600.000 E1.24149
G1 X100.000 Y104.539 E1.48298
G1 X92.057 Y100.000 E1.72446
G1 X99.903 Y95.517 E1.96300
