; generated by Slic3r 0.9.8 on 2013-07-02 at 16:15:07

; layer_height = .25
; perimeters = 1
; top_solid_layers = 4
; bottom_solid_layers = 4
; fill_density = .9
; perimeter_speed = 30
; infill_speed = 40
; travel_speed = 130
; scale = 1
; nozzle_diameter = 0.5
; filament_diameter = 3
; extrusion_multiplier = 1
; perimeters extrusion width = 0.80mm
; infill extrusion width = 0.80mm
; first layer extrusion width = 0.50mm

M107
M104 S220 ; set temperature
G28 ; home all axes
M109 S220 ; wait for temperature to be reached
G90 ; use absolute coordinates
G21 ; set units to millimeters
G92 E0
M82 ; use absolute distances for extrusion
G1 Z0.250 F7800.000
G1 X123.954 Y116.185
G1 X123.454 Y116.415 F900.000 E0.00973
G1 X122.934 Y116.605 E0.01952
G1 X122.404 Y116.755 E0.02926
G1 X121.864 Y116.865 E0.03901
G1 X121.034 Y116.945 E0.05375
G1 X120.214 Y116.925 E0.06826
G1 X119.934 Y116.895 E0.07324
G1 X78.264 Y111.805 E0.81560
G1 X77.454 Y111.655 E0.83017
G1 X76.934 Y111.505 E0.83974
G1 X76.414 Y111.315 E0.84953
G1 X75.674 Y110.955 E0.86408
G1 X74.984 Y110.505 E0.87865
G1 X74.554 Y110.165 E0.88835
G1 X73.964 Y109.595 E0.90285
G1 X73.444 Y108.965 E0.91730
G1 X73.284 Y108.735 E0.92225
G1 X73.004 Y108.265 E0.93193
G1 X72.754 Y107.775 E0.94166
G1 X72.544 Y107.275 E0.95125
G1 X72.304 Y106.485 E0.96585
G1 X72.244 Y106.215 E0.97074
G1 X72.164 Y105.675 E0.98039
G1 X72.134 Y105.405 E0.98520
G1 X72.114 Y104.855 E0.99493
G1 X72.114 Y95.135 E1.16682
G1 X72.134 Y94.585 E1.17655
G1 X72.164 Y94.315 E1.18135
G1 X72.244 Y93.775 E1.19101
G1 X72.374 Y93.235 E1.20083
G1 X72.644 Y92.465 E1.21526
G1 X72.874 Y91.965 E1.22499
G1 X73.144 Y91.485 E1.23473
G1 X73.284 Y91.255 E1.23949
G1 X73.614 Y90.805 E1.24936
G1 X74.154 Y90.195 E1.26376
G1 X74.554 Y89.825 E1.27340
G1 X74.984 Y89.485 E1.28309
G1 X75.684 Y89.035 E1.29781
G1 X76.164 Y88.785 E1.30738
G1 X76.934 Y88.485 E1.32199
G1 X77.724 Y88.275 E1.33645
G1 X78.274 Y88.185 E1.34631
G1 X120.174 Y83.095 E2.09271
G1 X120.994 Y83.075 E2.10721
G1 X121.814 Y83.155 E2.12178
G1 X122.094 Y83.205 E2.12681
G1 X122.624 Y83.335 E2.13646
G1 X123.144 Y83.505 E2.14614
G1 X123.654 Y83.705 E2.15582
G1 X124.144 Y83.955 E2.16555
G1 X124.844 Y84.405 E2.18027
G1 X125.064 Y84.565 E2.18508
G1 X125.484 Y84.925 E2.19486
G1 X125.874 Y85.315 E2.20461
G1 X126.234 Y85.725 E2.21426
G1 X126.554 Y86.175 E2.22403
G1 X126.974 Y86.885 E2.23862
G1 X127.094 Y87.125 E2.24336
G1 X127.304 Y87.635 E2.25311
G1 X127.544 Y88.425 E2.26771
G1 X127.694 Y89.235 E2.28228
G1 X127.724 Y89.515 E2.28726
G1 X127.744 Y90.065 E2.29699
G1 X127.784 Y110.205 E2.65315
G1 X127.704 Y111.025 E2.66772
G1 X127.654 Y111.305 E2.67275
G1 X127.444 Y112.105 E2.68737
G1 X127.144 Y112.875 E2.70199
G1 X126.754 Y113.605 E2.71662
G1 X126.284 Y114.285 E2.73124
G1 X125.924 Y114.695 E2.74089
G1 X125.534 Y115.085 E2.75064
G1 X124.894 Y115.615 E2.76534
G1 X124.664 Y115.775 E2.77029
G1 X124.020 Y116.149 E2.78347
G1 X123.954 Y116.185 E2.78479
G1 X123.574 Y115.815 F7800.000
G1 X122.844 Y116.115 F900.000 E2.79875
G1 X122.334 Y116.255 E2.80810
G1 X121.824 Y116.365 E2.81733
G1 X121.304 Y116.425 E2.82658
G1 X120.784 Y116.445 E2.83579
G1 X120.254 Y116.425 E2.84517
G1 X78.324 Y111.305 E3.59216
G1 X77.794 Y111.215 E3.60167
G1 X77.014 Y111.005 E3.61595
G1 X76.514 Y110.815 E3.62541
G1 X75.794 Y110.445 E3.63972
G1 X75.344 Y110.155 E3.64919
G1 X74.714 Y109.645 E3.66352
G1 X74.154 Y109.065 E3.67778
G1 X73.824 Y108.635 E3.68737
G1 X73.534 Y108.185 E3.69683
G1 X73.274 Y107.715 E3.70633
G1 X73.164 Y107.475 E3.71100
G1 X72.964 Y106.965 E3.72069
G1 X72.754 Y106.195 E3.73480
G1 X72.634 Y105.395 E3.74911
G1 X72.614 Y104.855 E3.75866
G1 X72.614 Y95.135 E3.93055
G1 X72.634 Y94.595 E3.94011
G1 X72.664 Y94.325 E3.94491
G1 X72.754 Y93.795 E3.95442
G1 X72.884 Y93.275 E3.96390
G1 X73.064 Y92.765 E3.97346
G1 X73.274 Y92.275 E3.98289
G1 X73.674 Y91.575 E3.99714
G1 X73.994 Y91.135 E4.00677
G1 X74.334 Y90.725 E4.01619
G1 X74.924 Y90.165 E4.03057
G1 X75.344 Y89.835 E4.04002
G1 X75.574 Y89.685 E4.04487
G1 X76.274 Y89.285 E4.05913
G1 X76.764 Y89.075 E4.06856
G1 X77.534 Y88.825 E4.08287
G1 X77.794 Y88.765 E4.08759
G1 X78.334 Y88.685 E4.09724
G1 X120.224 Y83.595 E4.84347
G1 X120.744 Y83.575 E4.85267
G1 X121.264 Y83.595 E4.86188
G1 X121.784 Y83.655 E4.87113
G1 X122.044 Y83.705 E4.87581
G1 X122.794 Y83.905 E4.88954
G1 X123.284 Y84.095 E4.89883
G1 X123.764 Y84.315 E4.90817
G1 X124.214 Y84.575 E4.91736
G1 X124.434 Y84.725 E4.92207
G1 X125.054 Y85.205 E4.93594
G1 X125.604 Y85.755 E4.94969
G1 X126.084 Y86.375 E4.96356
G1 X126.234 Y86.595 E4.96827
G1 X126.494 Y87.045 E4.97746
G1 X126.724 Y87.515 E4.98671
G1 X126.904 Y88.005 E4.99594
G1 X127.054 Y88.505 E5.00517
G1 X127.114 Y88.765 E5.00989
G1 X127.194 Y89.275 E5.01902
G1 X127.224 Y89.535 E5.02365
G1 X127.244 Y90.065 E5.03303
G1 X127.284 Y110.195 E5.38900
G1 X127.204 Y110.975 E5.40287
G1 X127.034 Y111.745 E5.41682
G1 X126.864 Y112.245 E5.42615
G1 X126.664 Y112.725 E5.43535
G1 X126.284 Y113.415 E5.44928
G1 X125.984 Y113.845 E5.45855
G1 X125.654 Y114.255 E5.46786
G1 X125.094 Y114.805 E5.48174
G1 X124.474 Y115.295 E5.49571
G1 X124.034 Y115.575 E5.50494
G1 X123.640 Y115.780 E5.51279
G1 X123.574 Y115.815 E5.51411
G1 X91.981 Y101.325 F7800.000
G1 X91.546 Y101.893 F300.000 E5.52677
G1 X91.069 Y102.259 E5.53738
G1 X90.978 Y102.329 E5.53942
G1 X90.317 Y102.603 E5.55207
G1 X89.608 Y102.696 E5.56472
G1 X88.898 Y102.603 E5.57738
G1 X88.237 Y102.329 E5.59003
G1 X87.669 Y101.893 E5.60268
G1 X87.234 Y101.325 E5.61534
G1 X86.960 Y100.664 E5.62799
G1 X86.867 Y99.955 E5.64064
G1 X86.960 Y99.246 E5.65329
G1 X87.234 Y98.585 E5.66595
G1 X87.669 Y98.017 E5.67860
G1 X88.237 Y97.581 E5.69125
G1 X88.898 Y97.308 E5.70391
G1 X89.608 Y97.214 E5.71656
G1 X90.317 Y97.308 E5.72921
G1 X90.978 Y97.581 E5.74187
G1 X91.546 Y98.017 E5.75452
G1 X91.981 Y98.585 E5.76717
G1 X92.255 Y99.246 E5.77982
G1 X92.348 Y99.955 E5.79248
G1 X92.255 Y100.664 E5.80513
G1 X92.010 Y101.256 E5.81646
G1 X91.981 Y101.325 E5.81778
G1 X91.544 Y101.073 F7800.000
G1 X91.189 Y101.537 F300.000 E5.82811
G1 X90.765 Y101.862 E5.83756
G1 X90.186 Y102.115 E5.84873
G1 X89.608 Y102.192 E5.85905
G1 X89.029 Y102.115 E5.86938
G1 X88.489 Y101.892 E5.87970
G1 X88.026 Y101.537 E5.89003
G1 X87.671 Y101.073 E5.90035
G1 X87.447 Y100.534 E5.91068
G1 X87.371 Y99.955 E5.92100
G1 X87.447 Y99.376 E5.93133
G1 X87.671 Y98.837 E5.94165
G1 X88.026 Y98.374 E5.95198
G1 X88.489 Y98.018 E5.96230
G1 X89.029 Y97.795 E5.97263
G1 X89.607 Y97.719 E5.98295
G1 X90.186 Y97.795 E5.99328
G1 X90.726 Y98.018 E6.00360
G1 X91.189 Y98.374 E6.01393
G1 X91.544 Y98.837 E6.02425
G1 X91.768 Y99.376 E6.03458
G1 X91.844 Y99.955 E6.04490
G1 X91.768 Y100.534 E6.05522
G1 X91.573 Y101.004 E6.06422
G1 X91.544 Y101.073 E6.06555
G1 X91.775 Y101.517 F7800.000
G1 X79.624 Y104.364
G1 X79.624 Y95.636 F900.000 E6.21991
G1 X107.182 Y95.636 E6.70725
G1 X110.405 Y92.412 E6.78786
G1 X116.495 Y91.431 E6.89694
G1 X116.584 Y91.681 E6.90164
G1 X112.472 Y94.056 E6.98561
G1 X112.472 Y105.944 E7.19585
G1 X116.584 Y108.319 E7.27982
G1 X116.495 Y108.569 E7.28452
G1 X110.405 Y107.588 E7.39360
G1 X107.182 Y104.364 E7.47420
G1 X79.699 Y104.364 E7.96022
G1 X79.624 Y104.364 E7.96155
G1 X79.124 Y104.864 F7800.000
G1 X79.124 Y95.136 F900.000 E8.13359
G1 X106.975 Y95.136 E8.62611
G1 X110.166 Y91.945 E8.70592
G1 X119.099 Y90.505 E8.86593
G1 X119.188 Y90.755 E8.87063
G1 X112.972 Y94.344 E8.99757
G1 X112.972 Y105.656 E9.19759
G1 X119.188 Y109.245 E9.32453
G1 X119.099 Y109.495 E9.32923
G1 X110.166 Y108.055 E9.48924
G1 X106.975 Y104.864 E9.56905
G1 X79.199 Y104.864 E10.06024
G1 X79.124 Y104.864 E10.06157
G1 X79.374 Y104.431 F7800.000
G1 X120.110 Y109.714
G1 X120.788 Y109.955 F300.000 E10.07428
G1 X120.110 Y109.714 F7800.000
G1 X119.659 Y109.553 F300.000 E10.08276
G1 X119.659 Y109.553
G1 X119.643 Y109.548 E10.08305
G1 X119.643 Y109.548
G1 X119.646 Y90.453 F7800.000
G1 X119.884 Y90.361 F300.000 E10.08756
G1 X120.753 Y90.083 E10.10370
G1 X119.646 Y90.453 F7800.000
G1 X119.643 Y90.452 F300.000 E10.10375
G1 X114.116 Y92.357 F7800.000
G1 X113.665 Y92.357 F1500.000 E10.11187
G1 X113.756 Y92.867 E10.12120
G1 X110.504 Y92.867 E10.17981
G1 X109.923 Y93.376 E10.19373
G1 X112.874 Y93.376 E10.24689
G1 X112.197 Y93.886 E10.26217
G1 X109.414 Y93.886 E10.31231
G1 X108.904 Y94.395 E10.32529
G1 X112.197 Y94.395 E10.38462
G1 X112.197 Y94.905 E10.39380
G1 X108.395 Y94.905 E10.46231
G1 X107.885 Y95.414 E10.47530
G1 X112.197 Y95.414 E10.55299
G1 X112.197 Y95.924 E10.56217
G1 X107.376 Y95.924 E10.64904
G1 X107.376 Y104.076 F7800.000
G1 X112.197 Y104.076 F1500.000 E10.73592
G1 X112.197 Y104.586 E10.74510
G1 X107.885 Y104.586 E10.82279
G1 X108.395 Y105.095 E10.83578
G1 X112.197 Y105.095 E10.90428
G1 X112.197 Y105.605 E10.91347
G1 X108.904 Y105.605 E10.97279
G1 X109.414 Y106.114 E10.98578
G1 X112.197 Y106.114 E11.03592
G1 X112.874 Y106.624 E11.05119
G1 X109.924 Y106.624 E11.10436
G1 X110.504 Y107.133 E11.11828
G1 X113.756 Y107.133 E11.17689
G1 X113.665 Y107.643 E11.18622
G1 X114.116 Y107.643 E11.19434
G1 X112.197 Y103.567 F7800.000
G1 X79.899 Y103.567 F1500.000 E11.77637
G1 X79.899 Y103.057 E11.78556
G1 X88.914 Y103.057 E11.94803
G1 X87.926 Y102.548 E11.96806
G1 X79.899 Y102.548 E12.11273
G1 X79.899 Y102.038 E12.12191
G1 X87.376 Y102.038 E12.25665
G1 X87.002 Y101.529 E12.26804
G1 X79.899 Y101.529 E12.39604
G1 X79.899 Y101.019 E12.40523
G1 X86.791 Y101.019 E12.52943
G1 X86.660 Y100.509 F7800.000
G1 X79.899 Y100.509 F1500.000 E12.65128
G1 X79.899 Y100.000 E12.66046
G1 X86.593 Y100.000 E12.78111
G1 X86.649 Y99.490 E12.79034
G1 X79.899 Y99.490 E12.91198
G1 X79.899 Y98.981 E12.92117
G1 X86.754 Y98.981 E13.04470
G1 X86.965 Y98.471 E13.05464
G1 X79.899 Y98.471 E13.18197
G1 X79.899 Y97.962 E13.19115
G1 X87.307 Y97.962 E13.32465
G1 X87.809 Y97.452 E13.33755
G1 X79.899 Y97.452 E13.48010
G1 X79.899 Y96.943 E13.48928
G1 X88.697 Y96.943 E13.64784
G1 X90.517 Y96.943 F7800.000
G1 X112.197 Y96.943 F1500.000 E14.03852
G1 X112.197 Y96.433 E14.04770
G1 X79.899 Y96.433 E14.62973
G1 X91.406 Y97.452 F7800.000
G1 X112.197 Y97.452 F1500.000 E15.00440
G1 X112.197 Y97.962 E15.01358
G1 X91.908 Y97.962 E15.37919
G1 X92.250 Y98.471 E15.39025
G1 X112.197 Y98.471 E15.74969
G1 X112.197 Y98.981 E15.75888
G1 X92.461 Y98.981 E16.11452
G1 X92.566 Y99.490 E16.12390
G1 X112.197 Y99.490 E16.47765
G1 X112.197 Y100.000 E16.48683
G1 X92.622 Y100.000 E16.83959
G1 X92.554 Y100.509 E16.84885
G1 X112.197 Y100.509 E17.20281
G1 X112.197 Y101.019 E17.21199
G1 X92.424 Y101.019 E17.56831
G1 X92.213 Y101.529 E17.57825
G1 X112.197 Y101.529 E17.93837
G1 X112.197 Y102.038 E17.94755
G1 X91.839 Y102.038 E18.31440
G1 X91.289 Y102.548 E18.32792
G1 X112.197 Y102.548 E18.70470
G1 X112.197 Y103.057 E18.71388
G1 X90.300 Y103.057 E19.10847
G1 X114.841 Y107.760 F7800.000
G1 X114.390 Y107.760 F600.000 E19.11644
G1 X117.445 Y108.686 F7800.000
G1 X116.995 Y108.686 F600.000 E19.12441
G1 X114.645 Y92.353 F7800.000
G1 X114.195 Y92.353 F600.000 E19.13237
G1 X117.249 Y91.427 F7800.000
G1 X116.799 Y91.427 F600.000 E19.14033
M106 S255
G1 Z0.500 F7800.000
G1 X91.914 Y99.337
G1 X91.995 Y99.955 F600.000 E19.15679
G1 X91.914 Y100.573 E19.17324
G1 X91.675 Y101.149 E19.18970
G1 X91.296 Y101.644 E19.20615
G1 X90.801 Y102.023 E19.22260
G1 X90.225 Y102.262 E19.23906
G1 X89.607 Y102.343 E19.25551
G1 X88.989 Y102.262 E19.27197
G1 X88.414 Y102.023 E19.28842
G1 X87.919 Y101.644 E19.30488
G1 X87.540 Y101.149 E19.32133
G1 X87.501 Y101.055 E19.32401
G1 X87.301 Y100.573 E19.33778
G1 X87.220 Y99.955 E19.35424
G1 X87.301 Y99.337 E19.37069
G1 X87.540 Y98.761 E19.38715
G1 X87.601 Y98.680 E19.38983
G1 X87.919 Y98.267 E19.40360
G1 X88.414 Y97.887 E19.42006
G1 X88.989 Y97.649 E19.43651
G1 X89.607 Y97.567 E19.45297
G1 X90.225 Y97.649 E19.46942
G1 X90.801 Y97.887 E19.48587
G1 X91.296 Y98.267 E19.50233
G1 X91.675 Y98.761 E19.51878
G1 X91.871 Y99.234 E19.53228
G1 X91.914 Y99.337 E19.53524
G1 X92.626 Y99.561 F7800.000
G1 X79.274 Y95.286
G1 X107.037 Y95.286 F1688.844 E20.26810
G1 X110.238 Y92.085 E20.38759
G1 X117.883 Y90.853 E20.59199
G1 X118.025 Y91.253 E20.60321
G1 X112.822 Y94.258 E20.76182
G1 X112.822 Y105.742 E21.06498
G1 X118.025 Y108.747 E21.22359
G1 X117.883 Y109.147 E21.23481
G1 X110.238 Y107.915 E21.43921
G1 X107.037 Y104.714 E21.55870
G1 X79.274 Y104.714 E22.29157
G1 X79.274 Y95.398 E22.53750
G1 X79.274 Y95.286 E22.54046
G1 X119.501 Y109.497 F7800.000
G1 X120.584 Y109.882 F600.000 E22.57082
G1 X119.501 Y109.497 F7800.000
G1 X118.778 Y109.240 F600.000 E22.59106
G1 X118.778 Y109.240 E22.59106
G1 X118.753 Y109.231 E22.59176
G1 X118.753 Y109.231 E22.59176
G1 X118.755 Y90.787 F7800.000
G1 X118.755 Y90.769 F600.000 E22.59225
G1 X118.753 Y90.769 F7800.000
G1 X119.090 Y90.658 F600.000 E22.60160
G1 X119.137 Y90.617 E22.60326
G1 X120.472 Y90.215 E22.64006
G1 X114.206 Y92.260 F7800.000
G1 X114.206 Y92.932 F2814.740 E22.65812
G1 X113.447 Y93.371 E22.68169
G1 X113.447 Y91.988 E22.71886
G1 X112.687 Y92.110 E22.73953
G1 X112.687 Y93.810 E22.78520
G1 X111.927 Y92.233 E22.83223
G1 X111.927 Y107.767 E23.24963
G1 X112.687 Y107.890 E23.27031
G1 X112.687 Y106.190 E23.31597
G1 X113.447 Y106.629 E23.33954
G1 X113.447 Y108.012 E23.37670
G1 X114.206 Y107.740 E23.39839
G1 X114.206 Y107.068 E23.41645
G1 X111.167 Y107.645 F7800.000
G1 X111.167 Y92.355 F2814.740 E23.82727
G1 X110.408 Y92.634 E23.84902
G1 X110.408 Y107.365 E24.24482
G1 X109.648 Y106.606 E24.27369
G1 X109.648 Y93.394 E24.62867
G1 X108.888 Y94.154 E24.65754
G1 X108.888 Y105.846 E24.97169
G1 X108.129 Y105.086 E25.00056
G1 X108.129 Y94.914 E25.27390
G1 X107.369 Y95.673 E25.30276
G1 X107.369 Y104.327 E25.53527
G1 X106.609 Y104.304 E25.55569
G1 X106.609 Y95.696 E25.78698
G1 X105.850 Y95.696 E25.80739
G1 X105.850 Y104.304 E26.03868
G1 X105.090 Y104.304 E26.05910
G1 X105.090 Y95.696 E26.29039
G1 X104.330 Y95.696 E26.31080
G1 X104.330 Y104.304 E26.54209
G1 X103.570 Y104.304 E26.56250
G1 X103.570 Y95.696 E26.79379
G1 X102.811 Y95.696 E26.81420
G1 X102.811 Y104.304 E27.04549
G1 X102.051 Y104.304 E27.06590
G1 X102.051 Y95.696 E27.29719
G1 X101.291 Y95.696 E27.31760
G1 X101.291 Y104.304 E27.54889
G1 X100.532 Y104.304 E27.56931
G1 X100.532 Y95.696 E27.80060
G1 X99.772 Y95.696 E27.82101
G1 X99.772 Y104.304 E28.05229
G1 X99.012 Y104.304 E28.07271
G1 X99.012 Y95.696 E28.30400
G1 X98.253 Y95.696 E28.32441
G1 X98.253 Y104.304 E28.55570
G1 X97.493 Y104.304 E28.57611
G1 X97.493 Y95.696 E28.80740
G1 X96.733 Y95.696 E28.82781
G1 X96.733 Y104.304 E29.05910
G1 X95.974 Y104.304 E29.07951
G1 X95.974 Y95.696 E29.31080
G1 X95.214 Y95.696 E29.33122
G1 X95.214 Y104.304 E29.56250
G1 X94.454 Y104.304 E29.58292
G1 X94.454 Y95.696 E29.81421
G1 X93.694 Y95.696 E29.83462
G1 X93.694 Y104.304 E30.06591
G1 X92.935 Y104.304 E30.08632
G1 X92.935 Y95.696 E30.31761
G1 X92.175 Y95.696 E30.33802
G1 X92.175 Y98.522 E30.41396
G1 X91.415 Y97.753 E30.44301
G1 X91.415 Y95.696 E30.49829
G1 X90.656 Y95.696 E30.51870
G1 X90.656 Y97.355 E30.56327
G1 X89.896 Y97.188 E30.58417
G1 X89.896 Y95.696 E30.62427
G1 X89.136 Y95.696 E30.64468
G1 X89.136 Y97.212 E30.68543
G1 X88.377 Y97.431 E30.70667
G1 X88.377 Y95.696 E30.75327
G1 X87.617 Y95.696 E30.77369
G1 X87.617 Y97.894 E30.83274
G1 X86.857 Y98.794 E30.86440
G1 X86.857 Y95.696 E30.94765
G1 X86.097 Y95.696 E30.96806
G1 X86.097 Y104.304 E31.19935
G1 X86.857 Y104.304 E31.21976
G1 X86.857 Y101.116 E31.30543
G1 X87.617 Y102.016 E31.33708
G1 X87.617 Y104.304 E31.39855
G1 X88.377 Y104.304 E31.41896
G1 X88.377 Y102.480 E31.46799
G1 X89.136 Y102.698 E31.48922
G1 X89.136 Y104.304 E31.53239
G1 X89.896 Y104.304 E31.55280
G1 X89.896 Y102.722 E31.59531
G1 X90.656 Y102.555 E31.61621
