; generated by Slic3r 0.9.8 on 2013-07-02 at 13:57:27

; layer_height = .25
; perimeters = 1
; top_solid_layers = 4
; bottom_solid_layers = 4
; fill_density = .9
; perimeter_speed = 30
; infill_speed = 40
; travel_speed = 130
; scale = 1
; nozzle_diameter = 0.5
; filament_diameter = 3
; extrusion_multiplier = 1
; perimeters extrusion width = 0.80mm
; infill extrusion width = 0.80mm
; first layer extrusion width = 0.50mm

M107
M104 S220 ; set temperature
G28 ; home all axes
M109 S220 ; wait for temperature to be reached
G90 ; use absolute coordinates
G21 ; set units to millimeters
G92 E0
M82 ; use absolute distances for extrusion
G1 Z0.250 F7800.000
G1 X121.574 Y125.761
G1 X121.344 Y125.931 F900.000 E0.00506
G1 X120.614 Y126.371 E0.02013
G1 X120.364 Y126.501 E0.02511
G1 X119.574 Y126.821 E0.04019
G1 X118.754 Y127.041 E0.05520
G1 X118.474 Y127.091 E0.06023
G1 X117.914 Y127.161 E0.07021
G1 X117.344 Y127.181 E0.08030
G1 X73.784 Y127.181 E0.85061
G1 X73.234 Y127.161 E0.86034
G1 X72.414 Y127.051 E0.87497
G1 X71.884 Y126.921 E0.88462
G1 X71.104 Y126.651 E0.89922
G1 X70.604 Y126.421 E0.90895
G1 X69.894 Y126.001 E0.92354
G1 X69.234 Y125.501 E0.93818
G1 X68.834 Y125.131 E0.94781
G1 X68.464 Y124.731 E0.95745
G1 X67.964 Y124.071 E0.97209
G1 X67.674 Y123.601 E0.98186
G1 X67.424 Y123.111 E0.99159
G1 X67.214 Y122.601 E1.00134
G1 X67.044 Y122.081 E1.01101
G1 X66.914 Y121.551 E1.02066
G1 X66.804 Y120.731 E1.03530
G1 X66.784 Y120.181 E1.04503
G1 X66.784 Y79.801 E1.75910
G1 X66.804 Y79.251 E1.76884
G1 X66.834 Y78.981 E1.77364
G1 X66.914 Y78.431 E1.78347
G1 X66.974 Y78.171 E1.78819
G1 X67.214 Y77.381 E1.80279
G1 X67.544 Y76.621 E1.81744
G1 X67.964 Y75.911 E1.83203
G1 X68.464 Y75.251 E1.84667
G1 X68.834 Y74.851 E1.85631
G1 X69.454 Y74.301 E1.87096
G1 X69.894 Y73.981 E1.88058
G1 X70.364 Y73.691 E1.89035
G1 X70.854 Y73.441 E1.90008
G1 X71.364 Y73.231 E1.90983
G1 X71.884 Y73.061 E1.91950
G1 X72.414 Y72.931 E1.92916
G1 X73.234 Y72.821 E1.94379
G1 X73.784 Y72.801 E1.95352
G1 X117.344 Y72.801 E2.72383
G1 X117.934 Y72.821 E2.73427
G1 X118.804 Y72.951 E2.74982
G1 X119.654 Y73.191 E2.76544
G1 X120.464 Y73.531 E2.78098
G1 X121.224 Y73.981 E2.79660
G1 X130.244 Y80.541 E2.99383
G1 X130.694 Y80.901 E3.00402
G1 X131.114 Y81.291 E3.01415
G1 X131.494 Y81.711 E3.02417
G1 X131.844 Y82.171 E3.03439
G1 X132.154 Y82.651 E3.04450
G1 X132.544 Y83.421 E3.05976
G1 X132.754 Y83.951 E3.06984
G1 X132.914 Y84.501 E3.07997
G1 X133.034 Y85.061 E3.09010
G1 X133.104 Y85.631 E3.10025
G1 X133.124 Y86.201 E3.11034
G1 X133.124 Y107.311 E3.48365
G1 X133.064 Y108.211 E3.49960
G1 X132.964 Y108.801 E3.51018
G1 X132.814 Y109.371 E3.52060
G1 X132.614 Y109.941 E3.53129
G1 X132.364 Y110.481 E3.54181
G1 X132.074 Y111.001 E3.55234
G1 X122.964 Y124.361 E3.83829
G1 X122.414 Y125.011 E3.85335
G1 X121.794 Y125.591 E3.86836
G1 X121.634 Y125.715 E3.87195
G1 X121.574 Y125.761 E3.87328
G1 X121.194 Y125.421 F7800.000
G1 X120.504 Y125.861 F900.000 E3.88775
G1 X120.254 Y125.991 E3.89273
G1 X119.754 Y126.221 E3.90247
G1 X119.244 Y126.401 E3.91203
G1 X118.704 Y126.541 E3.92190
G1 X118.164 Y126.631 E3.93158
G1 X117.894 Y126.661 E3.93638
G1 X117.344 Y126.681 E3.94611
G1 X73.784 Y126.681 E4.71642
G1 X73.264 Y126.661 E4.72563
G1 X72.744 Y126.601 E4.73488
G1 X72.484 Y126.551 E4.73957
G1 X71.724 Y126.351 E4.75346
G1 X71.234 Y126.161 E4.76276
G1 X70.764 Y125.941 E4.77193
G1 X70.094 Y125.531 E4.78582
G1 X69.474 Y125.051 E4.79969
G1 X69.284 Y124.871 E4.80432
G1 X68.914 Y124.491 E4.81370
G1 X68.584 Y124.081 E4.82300
G1 X68.154 Y123.431 E4.83679
G1 X67.914 Y122.971 E4.84596
G1 X67.614 Y122.241 E4.85992
G1 X67.474 Y121.741 E4.86910
G1 X67.364 Y121.221 E4.87850
G1 X67.304 Y120.701 E4.88776
G1 X67.284 Y120.181 E4.89696
G1 X67.284 Y79.801 E5.61103
G1 X67.304 Y79.281 E5.62024
G1 X67.364 Y78.761 E5.62949
G1 X67.474 Y78.241 E5.63889
G1 X67.614 Y77.741 E5.64807
G1 X67.704 Y77.501 E5.65261
G1 X68.024 Y76.781 E5.66654
G1 X68.434 Y76.111 E5.68043
G1 X68.914 Y75.491 E5.69430
G1 X69.474 Y74.931 E5.70830
G1 X69.884 Y74.601 E5.71761
G1 X70.094 Y74.451 E5.72217
G1 X70.764 Y74.041 E5.73606
G1 X71.234 Y73.821 E5.74524
G1 X71.724 Y73.631 E5.75453
G1 X72.224 Y73.491 E5.76372
G1 X72.744 Y73.381 E5.77311
G1 X73.264 Y73.321 E5.78237
G1 X73.784 Y73.301 E5.79157
G1 X117.344 Y73.301 E6.56188
G1 X117.894 Y73.321 E6.57162
G1 X118.164 Y73.351 E6.57642
G1 X118.694 Y73.441 E6.58593
G1 X119.484 Y73.661 E6.60043
G1 X119.994 Y73.861 E6.61012
G1 X120.244 Y73.981 E6.61502
G1 X120.714 Y74.241 E6.62452
G1 X120.944 Y74.391 E6.62937
G1 X129.954 Y80.951 E6.82646
G1 X130.594 Y81.481 E6.84116
G1 X130.984 Y81.881 E6.85104
G1 X131.334 Y82.311 E6.86084
G1 X131.644 Y82.771 E6.87065
G1 X131.914 Y83.251 E6.88039
G1 X132.144 Y83.761 E6.89028
G1 X132.414 Y84.551 E6.90505
G1 X132.534 Y85.091 E6.91483
G1 X132.604 Y85.641 E6.92463
G1 X132.624 Y86.201 E6.93454
G1 X132.624 Y107.311 E7.30785
G1 X132.604 Y107.871 E7.31776
G1 X132.534 Y108.421 E7.32756
G1 X132.414 Y108.961 E7.33735
G1 X132.144 Y109.751 E7.35211
G1 X131.914 Y110.261 E7.36200
G1 X131.494 Y110.971 E7.37659
G1 X122.554 Y124.071 E7.65705
G1 X122.024 Y124.691 E7.67148
G1 X121.624 Y125.071 E7.68123
G1 X121.254 Y125.375 E7.68971
G1 X121.194 Y125.421 E7.69104
G1 X111.135 Y117.151 F7800.000
G1 X110.649 Y117.524 F300.000 E7.70186
G1 X110.084 Y117.758 E7.71268
G1 X109.477 Y117.838 E7.72350
G1 X108.871 Y117.758 E7.73432
G1 X108.305 Y117.524 E7.74514
G1 X107.820 Y117.151 E7.75596
G1 X107.447 Y116.666 E7.76679
G1 X107.213 Y116.101 E7.77761
G1 X107.133 Y115.494 E7.78843
G1 X107.213 Y114.887 E7.79925
G1 X107.447 Y114.322 E7.81007
G1 X107.820 Y113.837 E7.82089
G1 X108.305 Y113.464 E7.83171
G1 X108.871 Y113.230 E7.84253
G1 X109.477 Y113.150 E7.85335
G1 X110.084 Y113.230 E7.86417
G1 X110.649 Y113.464 E7.87499
G1 X111.135 Y113.837 E7.88581
G1 X111.507 Y114.322 E7.89663
G1 X111.741 Y114.887 E7.90746
G1 X111.821 Y115.494 E7.91828
G1 X111.741 Y116.101 E7.92910
G1 X111.507 Y116.666 E7.93992
G1 X111.180 Y117.092 E7.94941
G1 X111.135 Y117.151 E7.95074
G1 X110.778 Y116.795 F7800.000
G1 X110.397 Y117.087 F300.000 E7.95923
G1 X109.953 Y117.271 E7.96772
G1 X109.477 Y117.334 E7.97622
G1 X109.001 Y117.271 E7.98471
G1 X108.557 Y117.087 E7.99320
G1 X108.176 Y116.795 E8.00169
G1 X107.884 Y116.414 E8.01019
G1 X107.700 Y115.970 E8.01868
G1 X107.638 Y115.494 E8.02717
G1 X107.700 Y115.018 E8.03566
G1 X107.884 Y114.574 E8.04416
G1 X108.176 Y114.193 E8.05265
G1 X108.557 Y113.901 E8.06114
G1 X109.001 Y113.717 E8.06963
G1 X109.477 Y113.654 E8.07813
G1 X109.953 Y113.717 E8.08662
G1 X110.397 Y113.901 E8.09511
G1 X110.778 Y114.193 E8.10360
G1 X111.070 Y114.574 E8.11210
G1 X111.254 Y115.018 E8.12059
G1 X111.317 Y115.494 E8.12908
G1 X111.254 Y115.970 E8.13758
G1 X111.070 Y116.414 E8.14607
G1 X110.824 Y116.735 E8.15323
G1 X110.778 Y116.795 E8.15456
G1 X110.886 Y117.283 F7800.000
G1 X109.477 Y86.850
G1 X108.871 Y86.770 F300.000 E8.16538
G1 X108.305 Y86.536 E8.17620
G1 X107.820 Y86.163 E8.18702
G1 X107.447 Y85.678 E8.19784
G1 X107.213 Y85.113 E8.20866
G1 X107.133 Y84.506 E8.21949
G1 X107.213 Y83.899 E8.23031
G1 X107.447 Y83.334 E8.24113
G1 X107.820 Y82.849 E8.25195
G1 X108.305 Y82.476 E8.26277
G1 X108.871 Y82.242 E8.27359
G1 X109.477 Y82.162 E8.28441
G1 X110.084 Y82.242 E8.29523
G1 X110.649 Y82.476 E8.30605
G1 X111.135 Y82.849 E8.31687
G1 X111.507 Y83.334 E8.32769
G1 X111.741 Y83.899 E8.33851
G1 X111.821 Y84.506 E8.34933
G1 X111.741 Y85.113 E8.36016
G1 X111.507 Y85.678 E8.37098
G1 X111.135 Y86.163 E8.38180
G1 X110.649 Y86.536 E8.39262
G1 X110.084 Y86.770 E8.40344
G1 X109.552 Y86.840 E8.41293
G1 X109.477 Y86.850 E8.41426
G1 X109.477 Y86.346 F7800.000
G1 X109.001 Y86.283 F300.000 E8.42275
G1 X108.557 Y86.099 E8.43124
G1 X108.176 Y85.807 E8.43974
G1 X107.884 Y85.426 E8.44823
G1 X107.700 Y84.982 E8.45672
G1 X107.638 Y84.506 E8.46521
G1 X107.700 Y84.030 E8.47371
G1 X107.884 Y83.586 E8.48220
G1 X108.176 Y83.205 E8.49069
G1 X108.557 Y82.913 E8.49919
G1 X109.001 Y82.729 E8.50768
G1 X109.477 Y82.666 E8.51617
G1 X109.953 Y82.729 E8.52466
G1 X110.397 Y82.913 E8.53316
G1 X110.778 Y83.205 E8.54165
G1 X111.070 Y83.586 E8.55014
G1 X111.254 Y84.030 E8.55863
G1 X111.317 Y84.506 E8.56713
G1 X111.254 Y84.982 E8.57562
G1 X111.070 Y85.426 E8.58411
G1 X110.778 Y85.807 E8.59260
G1 X110.397 Y86.099 E8.60110
G1 X109.953 Y86.283 E8.60959
G1 X109.552 Y86.336 E8.61676
G1 X109.477 Y86.346 E8.61808
G1 X109.209 Y86.767 F7800.000
G1 X80.833 Y84.506
G1 X80.753 Y85.113 F300.000 E8.62890
G1 X80.519 Y85.678 E8.63972
G1 X80.147 Y86.163 E8.65054
G1 X79.661 Y86.536 E8.66137
G1 X79.096 Y86.770 E8.67219
G1 X78.489 Y86.850 E8.68301
G1 X77.883 Y86.770 E8.69383
G1 X77.317 Y86.536 E8.70465
G1 X76.832 Y86.163 E8.71547
G1 X76.459 Y85.678 E8.72629
G1 X76.225 Y85.113 E8.73711
G1 X76.145 Y84.506 E8.74793
G1 X76.225 Y83.899 E8.75875
G1 X76.459 Y83.334 E8.76957
G1 X76.832 Y82.849 E8.78039
G1 X77.317 Y82.476 E8.79121
G1 X77.883 Y82.242 E8.80204
G1 X78.489 Y82.162 E8.81286
G1 X79.096 Y82.242 E8.82368
G1 X79.661 Y82.476 E8.83450
G1 X80.147 Y82.849 E8.84532
G1 X80.519 Y83.334 E8.85614
G1 X80.753 Y83.899 E8.86696
G1 X80.823 Y84.432 E8.87645
G1 X80.833 Y84.506 E8.87778
G1 X80.329 Y84.506 F7800.000
G1 X80.266 Y84.982 F300.000 E8.88627
G1 X80.082 Y85.426 E8.89477
G1 X79.790 Y85.807 E8.90326
G1 X79.409 Y86.099 E8.91175
G1 X78.965 Y86.283 E8.92024
G1 X78.489 Y86.346 E8.92874
G1 X78.013 Y86.283 E8.93723
G1 X77.569 Y86.099 E8.94572
G1 X77.188 Y85.807 E8.95421
G1 X76.896 Y85.426 E8.96271
G1 X76.712 Y84.982 E8.97120
G1 X76.650 Y84.506 E8.97969
G1 X76.712 Y84.030 E8.98818
G1 X76.896 Y83.586 E8.99668
G1 X77.188 Y83.205 E9.00517
G1 X77.569 Y82.913 E9.01366
G1 X78.013 Y82.729 E9.02216
G1 X78.489 Y82.666 E9.03065
G1 X78.965 Y82.729 E9.03914
G1 X79.409 Y82.913 E9.04763
G1 X79.790 Y83.205 E9.05613
G1 X80.082 Y83.586 E9.06462
G1 X80.266 Y84.030 E9.07311
G1 X80.319 Y84.432 E9.08028
G1 X80.329 Y84.506 E9.08160
G1 X80.751 Y84.775 F7800.000
G1 X78.489 Y113.150
G1 X79.096 Y113.230 F300.000 E9.09242
G1 X79.661 Y113.464 E9.10324
G1 X80.147 Y113.837 E9.11407
G1 X80.519 Y114.322 E9.12489
G1 X80.753 Y114.887 E9.13571
G1 X80.833 Y115.494 E9.14653
G1 X80.753 Y116.101 E9.15735
G1 X80.519 Y116.666 E9.16817
G1 X80.147 Y117.151 E9.17899
G1 X79.661 Y117.524 E9.18981
G1 X79.096 Y117.758 E9.20063
G1 X78.489 Y117.838 E9.21145
G1 X77.883 Y117.758 E9.22227
G1 X77.317 Y117.524 E9.23309
G1 X76.832 Y117.151 E9.24391
G1 X76.459 Y116.666 E9.25474
G1 X76.225 Y116.101 E9.26556
G1 X76.145 Y115.494 E9.27638
G1 X76.225 Y114.887 E9.28720
G1 X76.459 Y114.322 E9.29802
G1 X76.832 Y113.837 E9.30884
G1 X77.317 Y113.464 E9.31966
G1 X77.883 Y113.230 E9.33048
G1 X78.415 Y113.160 E9.33998
G1 X78.489 Y113.150 E9.34130
G1 X78.489 Y113.654 F7800.000
G1 X78.965 Y113.717 F300.000 E9.34979
G1 X79.409 Y113.901 E9.35829
G1 X79.790 Y114.193 E9.36678
G1 X80.082 Y114.574 E9.37527
G1 X80.266 Y115.018 E9.38376
G1 X80.329 Y115.494 E9.39226
G1 X80.266 Y115.970 E9.40075
G1 X80.082 Y116.414 E9.40924
G1 X79.790 Y116.795 E9.41774
G1 X79.409 Y117.087 E9.42623
G1 X78.965 Y117.271 E9.43472
G1 X78.489 Y117.334 E9.44321
G1 X78.013 Y117.271 E9.45171
G1 X77.569 Y117.087 E9.46020
G1 X77.188 Y116.795 E9.46869
G1 X76.896 Y116.414 E9.47718
G1 X76.712 Y115.970 E9.48568
G1 X76.650 Y115.494 E9.49417
G1 X76.712 Y115.018 E9.50266
G1 X76.896 Y114.574 E9.51115
G1 X77.188 Y114.193 E9.51965
G1 X77.569 Y113.901 E9.52814
G1 X78.013 Y113.717 E9.53663
G1 X78.415 Y113.664 E9.54380
G1 X78.489 Y113.654 E9.54512
G1 X78.758 Y113.233 F7800.000
G1 X82.914 Y119.689
G1 X74.294 Y119.689 F900.000 E9.69756
G1 X74.294 Y80.311 E10.39392
G1 X116.847 Y80.311 E11.14642
G1 X116.847 Y86.904 E11.26302
G1 X123.299 Y86.904 E11.37712
G1 X123.347 Y87.083 E11.38039
G1 X116.847 Y90.836 E11.51311
G1 X116.847 Y102.724 E11.72335
G1 X123.347 Y106.477 E11.85607
G1 X123.299 Y106.656 E11.85934
G1 X116.847 Y106.656 E11.97344
G1 X116.847 Y119.689 E12.20392
G1 X105.052 Y119.689 E12.41250
G1 X105.056 Y106.109 E12.65264
G1 X106.228 Y103.281 E12.70678
G1 X106.660 Y100.000 E12.76530
G1 X106.228 Y96.719 E12.82382
G1 X104.961 Y93.662 E12.88234
G1 X102.947 Y91.036 E12.94086
G1 X100.321 Y89.022 E12.99938
G1 X97.264 Y87.756 E13.05790
G1 X93.983 Y87.324 E13.11642
G1 X90.702 Y87.756 E13.17494
G1 X87.645 Y89.022 E13.23346
G1 X87.518 Y89.119 E13.23629
G1 X85.020 Y91.036 E13.29198
G1 X83.005 Y93.662 E13.35050
G1 X81.739 Y96.719 E13.40902
G1 X81.307 Y100.000 E13.46754
G1 X81.739 Y103.281 E13.52606
G1 X82.910 Y106.109 E13.58019
G1 X82.914 Y119.614 E13.81901
G1 X82.914 Y119.689 E13.82034
G1 X83.414 Y120.189 F7800.000
G1 X73.794 Y120.189 F900.000 E13.99046
G1 X73.794 Y79.811 E14.70450
G1 X117.347 Y79.811 E15.47469
G1 X117.347 Y86.404 E15.59129
G1 X125.165 Y86.404 E15.72954
G1 X125.213 Y86.583 E15.73281
G1 X117.347 Y91.124 E15.89343
G1 X117.347 Y102.436 E16.09346
G1 X125.213 Y106.977 E16.25407
G1 X125.165 Y107.156 E16.25735
G1 X117.347 Y107.156 E16.39560
G1 X117.347 Y120.189 E16.62608
G1 X104.552 Y120.189 E16.85235
G1 X104.556 Y106.010 E17.10309
G1 X105.741 Y103.150 E17.15782
G1 X106.155 Y100.000 E17.21401
G1 X105.741 Y96.850 E17.27021
G1 X104.525 Y93.914 E17.32640
G1 X102.590 Y91.393 E17.38259
G1 X100.069 Y89.459 E17.43878
G1 X97.134 Y88.243 E17.49497
G1 X93.983 Y87.828 E17.55116
G1 X90.833 Y88.243 E17.60735
G1 X87.897 Y89.459 E17.66355
G1 X85.376 Y91.393 E17.71974
G1 X83.442 Y93.914 E17.77593
G1 X82.226 Y96.850 E17.83212
G1 X81.811 Y100.000 E17.88831
G1 X82.226 Y103.150 E17.94450
G1 X83.410 Y106.010 E17.99923
G1 X83.414 Y120.114 E18.24865
G1 X83.414 Y120.189 E18.24998
G1 X82.981 Y119.939 F7800.000
G1 X126.126 Y107.317
G1 X126.126 Y107.317 F300.000 E18.24998
G1 X126.126 Y107.317 F7800.000
G1 X125.906 Y107.259 F300.000 E18.25400
G1 X125.631 Y107.185 E18.25905
G1 X125.631 Y107.185
G1 X125.634 Y86.377 F7800.000
G1 X126.126 Y86.210 F300.000 E18.26825
G1 X125.634 Y86.377 F7800.000
G1 X125.631 Y86.375 F300.000 E18.26831
G1 X112.055 Y84.851 F7800.000
G1 X116.572 Y84.851 F1500.000 E18.34899
G1 X116.572 Y85.356 E18.35801
G1 X111.957 Y85.356 E18.44044
G1 X111.748 Y85.861 E18.45020
G1 X116.572 Y85.861 E18.53637
G1 X116.572 Y86.366 E18.54539
G1 X111.385 Y86.366 E18.63805
G1 X110.809 Y86.871 E18.65172
G1 X116.572 Y86.871 E18.75465
G1 X116.572 Y87.376 E18.76367
G1 X97.428 Y87.376 E19.10558
G1 X98.647 Y87.881 E19.12915
G1 X121.191 Y87.881 E19.53177
G1 X120.316 Y88.386 E19.54981
G1 X99.867 Y88.386 E19.91504
G1 X100.746 Y88.890 E19.93316
G1 X119.442 Y88.890 E20.26706
G1 X118.567 Y89.395 E20.28509
G1 X101.405 Y89.395 E20.59162
G1 X102.063 Y89.900 E20.60643
G1 X117.692 Y89.900 E20.88558
G1 X116.818 Y90.405 E20.90361
G1 X102.721 Y90.405 E21.15539
G1 X103.255 Y90.910 E21.16852
G1 X116.572 Y90.910 E21.40636
G1 X116.572 Y91.415 E21.41538
G1 X103.643 Y91.415 E21.64630
G1 X104.030 Y91.920 E21.65767
G1 X116.572 Y91.920 E21.88167
G1 X116.572 Y92.425 E21.89069
G1 X104.418 Y92.425 E22.10777
G1 X104.805 Y92.930 E22.11914
G1 X116.572 Y92.930 E22.32930
G1 X116.572 Y93.435 E22.33832
G1 X105.184 Y93.435 E22.54172
G1 X105.393 Y93.940 E22.55149
G1 X116.572 Y93.940 E22.75115
G1 X116.572 Y94.445 E22.76017
G1 X105.602 Y94.445 E22.95610
G1 X105.811 Y94.950 E22.96587
G1 X116.572 Y94.950 E23.15806
G1 X116.572 Y95.455 E23.16708
G1 X106.020 Y95.455 E23.35554
G1 X106.229 Y95.960 E23.36530
G1 X116.572 Y95.960 E23.55002
G1 X116.572 Y96.465 E23.55904
G1 X106.439 Y96.465 E23.74003
G1 X106.540 Y96.970 E23.74923
G1 X116.572 Y96.970 E23.92841
G1 X116.572 Y97.475 E23.93743
G1 X106.607 Y97.475 E24.11541
G1 X106.673 Y97.980 E24.12451
G1 X116.572 Y97.980 E24.30132
G1 X116.572 Y98.485 E24.31033
G1 X106.739 Y98.485 E24.48595
G1 X106.806 Y98.990 E24.49505
