; generated by Slic3r 0.9.8 on 2013-05-24 at 20:17:43

; layer_height = .25
; perimeters = 1
; top_solid_layers = 4
; bottom_solid_layers = 4
; fill_density = .9
; perimeter_speed = 30
; infill_speed = 40
; travel_speed = 130
; scale = 1
; nozzle_diameter = 0.5
; filament_diameter = 3
; extrusion_multiplier = 1
; perimeters extrusion width = 0.80mm
; infill extrusion width = 0.80mm
; first layer extrusion width = 0.50mm

M107
M104 S210 ; set temperature
G28 ; home all axes
M109 S210 ; wait for temperature to be reached
G90 ; use absolute coordinates
G21 ; set units to millimeters
G92 E0
M82 ; use absolute distances for extrusion
G1 Z0.250 F7800.000
G1 X117.296 Y116.942
G1 X116.736 Y117.202 F900.000 E0.01092
G1 X115.866 Y117.502 E0.02719
G1 X114.956 Y117.682 E0.04360
G1 X114.346 Y117.732 E0.05442
G1 X101.616 Y117.742 E0.27954
G1 X100.966 Y117.712 E0.29104
G1 X100.646 Y117.672 E0.29675
G1 X99.996 Y117.552 E0.30843
G1 X73.216 Y111.202 E0.79514
G1 X72.686 Y111.052 E0.80488
G1 X71.916 Y110.752 E0.81949
G1 X71.426 Y110.512 E0.82914
G1 X70.956 Y110.222 E0.83891
G1 X70.296 Y109.722 E0.85355
G1 X69.896 Y109.352 E0.86319
G1 X69.516 Y108.942 E0.87307
G1 X69.016 Y108.292 E0.88757
G1 X68.606 Y107.572 E0.90223
G1 X68.266 Y106.822 E0.91679
G1 X68.026 Y106.032 E0.93139
G1 X67.926 Y105.492 E0.94110
G1 X67.856 Y104.942 E0.95091
G1 X67.836 Y104.392 E0.96064
G1 X67.836 Y92.422 E1.17231
G1 X67.856 Y91.872 E1.18205
G1 X67.886 Y91.602 E1.18685
G1 X67.966 Y91.052 E1.19668
G1 X68.096 Y90.522 E1.20633
G1 X68.366 Y89.742 E1.22093
G1 X68.596 Y89.242 E1.23066
G1 X68.866 Y88.762 E1.24040
G1 X69.336 Y88.092 E1.25487
G1 X69.516 Y87.872 E1.25990
G1 X70.086 Y87.282 E1.27440
G1 X70.506 Y86.922 E1.28419
G1 X70.946 Y86.602 E1.29381
G1 X71.656 Y86.182 E1.30840
G1 X72.156 Y85.952 E1.31813
G1 X72.936 Y85.682 E1.33272
G1 X73.466 Y85.552 E1.34237
G1 X74.016 Y85.472 E1.35220
G1 X100.796 Y82.302 E1.82908
G1 X101.616 Y82.252 E1.84361
G1 X114.346 Y82.262 E2.06873
G1 X114.956 Y82.312 E2.07955
G1 X115.856 Y82.492 E2.09578
G1 X116.446 Y82.682 E2.10674
G1 X117.016 Y82.922 E2.11768
G1 X126.126 Y87.692 E2.29953
G1 X126.636 Y87.982 E2.30990
G1 X127.116 Y88.322 E2.32030
G1 X127.776 Y88.892 E2.33573
G1 X128.176 Y89.312 E2.34598
G1 X128.706 Y90.012 E2.36151
G1 X129.136 Y90.762 E2.37680
G1 X131.416 Y95.332 E2.46711
G1 X131.546 Y95.602 E2.47241
G1 X131.766 Y96.152 E2.48289
G1 X131.936 Y96.712 E2.49324
G1 X132.056 Y97.292 E2.50371
G1 X132.136 Y97.872 E2.51406
G1 X132.156 Y98.462 E2.52450
G1 X132.156 Y101.522 E2.57862
G1 X132.136 Y102.112 E2.58905
G1 X132.006 Y102.982 E2.60461
G1 X131.856 Y103.552 E2.61503
G1 X131.766 Y103.832 E2.62023
G1 X131.546 Y104.382 E2.63071
G1 X129.006 Y109.472 E2.73131
G1 X128.706 Y109.972 E2.74162
G1 X128.356 Y110.442 E2.75198
G1 X127.976 Y110.882 E2.76226
G1 X127.566 Y111.292 E2.77251
G1 X127.346 Y111.482 E2.77765
G1 X126.876 Y111.832 E2.78802
G1 X126.136 Y112.292 E2.80343
G1 X117.363 Y116.907 E2.97873
G1 X117.296 Y116.942 E2.98006
G1 X117.066 Y116.492 F7800.000
G1 X116.546 Y116.742 F900.000 E2.99026
G1 X115.736 Y117.012 E3.00536
G1 X115.176 Y117.142 E3.01553
G1 X114.326 Y117.232 E3.03064
G1 X101.616 Y117.242 E3.25541
G1 X100.706 Y117.182 E3.27153
G1 X100.116 Y117.062 E3.28218
G1 X73.086 Y110.652 E3.77343
G1 X72.576 Y110.492 E3.78288
G1 X72.336 Y110.392 E3.78748
G1 X71.856 Y110.172 E3.79682
G1 X71.396 Y109.912 E3.80616
G1 X70.756 Y109.452 E3.82010
G1 X70.356 Y109.102 E3.82950
G1 X69.816 Y108.522 E3.84351
G1 X69.656 Y108.322 E3.84804
G1 X69.216 Y107.662 E3.86207
G1 X69.086 Y107.432 E3.86674
G1 X68.866 Y106.952 E3.87608
G1 X68.676 Y106.462 E3.88537
G1 X68.466 Y105.702 E3.89932
G1 X68.356 Y104.922 E3.91325
G1 X68.336 Y104.392 E3.92263
G1 X68.336 Y92.422 E4.13430
G1 X68.356 Y91.902 E4.14350
G1 X68.416 Y91.382 E4.15276
G1 X68.526 Y90.862 E4.16216
G1 X68.756 Y90.112 E4.17603
G1 X68.966 Y89.632 E4.18530
G1 X69.206 Y89.162 E4.19463
G1 X69.496 Y88.722 E4.20395
G1 X69.806 Y88.302 E4.21318
G1 X70.346 Y87.722 E4.22719
G1 X70.736 Y87.382 E4.23634
G1 X71.156 Y87.062 E4.24568
G1 X71.596 Y86.782 E4.25490
G1 X72.306 Y86.432 E4.26890
G1 X72.796 Y86.252 E4.27813
G1 X73.296 Y86.102 E4.28736
G1 X73.816 Y86.002 E4.29673
G1 X100.856 Y82.802 E4.77824
G1 X101.616 Y82.752 E4.79171
G1 X114.036 Y82.752 E5.01134
G1 X114.886 Y82.812 E5.02641
G1 X115.176 Y82.852 E5.03159
G1 X115.726 Y82.972 E5.04154
G1 X116.276 Y83.152 E5.05177
G1 X116.806 Y83.372 E5.06192
G1 X125.896 Y88.132 E5.24337
G1 X126.396 Y88.432 E5.25369
G1 X126.866 Y88.762 E5.26384
G1 X127.316 Y89.142 E5.27426
G1 X127.516 Y89.342 E5.27926
G1 X127.716 Y89.552 E5.28439
G1 X128.086 Y90.002 E5.29469
G1 X128.406 Y90.482 E5.30489
G1 X128.696 Y90.992 E5.31527
G1 X130.976 Y95.562 E5.40558
G1 X131.216 Y96.112 E5.41619
G1 X131.316 Y96.392 E5.42145
G1 X131.486 Y96.972 E5.43214
G1 X131.596 Y97.562 E5.44275
G1 X131.656 Y98.462 E5.45870
G1 X131.646 Y101.822 E5.51812
G1 X131.596 Y102.422 E5.52877
G1 X131.546 Y102.722 E5.53415
G1 X131.486 Y103.012 E5.53938
G1 X131.316 Y103.592 E5.55007
G1 X131.216 Y103.872 E5.55533
G1 X130.976 Y104.422 E5.56594
G1 X128.556 Y109.252 E5.66148
G1 X128.416 Y109.502 E5.66654
G1 X128.086 Y109.982 E5.67684
G1 X127.716 Y110.432 E5.68715
G1 X127.316 Y110.842 E5.69727
G1 X126.876 Y111.222 E5.70756
G1 X126.646 Y111.392 E5.71261
G1 X125.906 Y111.842 E5.72793
G1 X117.133 Y116.457 E5.90324
G1 X117.066 Y116.492 E5.90456
G1 X120.184 Y102.648 F7800.000
G1 X119.523 Y102.374 F300.000 E5.91722
G1 X118.955 Y101.938 E5.92987
G1 X118.710 Y101.619 E5.93699
G1 X118.520 Y101.370 E5.94252
G1 X118.246 Y100.709 E5.95517
G1 X118.153 Y100.000 E5.96783
G1 X118.246 Y99.291 E5.98048
G1 X118.520 Y98.630 E5.99313
G1 X118.955 Y98.062 E6.00579
G1 X119.523 Y97.626 E6.01844
G1 X120.184 Y97.353 E6.03109
G1 X120.894 Y97.259 E6.04374
G1 X121.603 Y97.353 E6.05640
G1 X122.264 Y97.626 E6.06905
G1 X122.832 Y98.062 E6.08170
G1 X123.267 Y98.630 E6.09436
G1 X123.541 Y99.291 E6.10701
G1 X123.634 Y100.000 E6.11966
G1 X123.541 Y100.709 E6.13232
G1 X123.267 Y101.371 E6.14497
G1 X122.832 Y101.938 E6.15762
G1 X122.264 Y102.374 E6.17027
G1 X121.603 Y102.648 E6.18293
G1 X120.894 Y102.741 E6.19558
G1 X120.258 Y102.657 E6.20691
G1 X120.184 Y102.648 E6.20823
G1 X120.315 Y102.160 F7800.000
G1 X119.775 Y101.937 F300.000 E6.21856
G1 X119.312 Y101.582 E6.22888
G1 X119.107 Y101.314 E6.23484
G1 X118.957 Y101.118 E6.23921
G1 X118.733 Y100.579 E6.24953
G1 X118.657 Y100.000 E6.25986
G1 X118.733 Y99.421 E6.27018
G1 X118.957 Y98.882 E6.28051
G1 X119.312 Y98.419 E6.29083
G1 X119.775 Y98.063 E6.30116
G1 X120.315 Y97.840 E6.31148
G1 X120.894 Y97.764 E6.32180
G1 X121.472 Y97.840 E6.33213
G1 X122.012 Y98.063 E6.34245
G1 X122.475 Y98.419 E6.35278
G1 X122.830 Y98.882 E6.36310
G1 X123.054 Y99.421 E6.37343
G1 X123.130 Y100.000 E6.38375
G1 X123.054 Y100.579 E6.39408
G1 X122.830 Y101.118 E6.40440
G1 X122.475 Y101.582 E6.41473
G1 X122.012 Y101.937 E6.42505
G1 X121.472 Y102.160 E6.43538
G1 X120.894 Y102.237 E6.44570
G1 X120.389 Y102.170 E6.45470
G1 X120.315 Y102.160 E6.45603
G1 X119.946 Y102.498 F7800.000
G1 X107.614 Y101.102
G1 X107.599 Y101.220 F300.000 E6.45812
G1 X107.128 Y102.356 E6.47987
G1 X106.379 Y103.332 E6.50163
G1 X105.403 Y104.081 E6.52338
G1 X104.267 Y104.552 E6.54514
G1 X103.047 Y104.712 E6.56689
G1 X101.827 Y104.552 E6.58864
G1 X100.691 Y104.081 E6.61040
G1 X99.715 Y103.332 E6.63215
G1 X98.966 Y102.356 E6.65391
G1 X98.495 Y101.220 E6.67566
G1 X98.480 Y101.102 E6.67776
G1 X98.335 Y100.000 E6.69742
G1 X98.495 Y98.780 E6.71917
G1 X98.966 Y97.644 E6.74093
G1 X99.038 Y97.549 E6.74303
G1 X99.715 Y96.668 E6.76268
G1 X100.691 Y95.919 E6.78444
G1 X101.827 Y95.448 E6.80619
G1 X103.047 Y95.288 E6.82794
G1 X104.267 Y95.448 E6.84970
G1 X105.403 Y95.919 E6.87145
G1 X106.379 Y96.668 E6.89321
G1 X107.128 Y97.644 E6.91496
G1 X107.599 Y98.780 E6.93672
G1 X107.759 Y100.000 E6.95847
G1 X107.624 Y101.028 E6.97681
G1 X107.614 Y101.102 E6.97813
G1 X107.119 Y101.037 F7800.000
G1 X107.112 Y101.089 F300.000 E6.97906
G1 X106.691 Y102.104 E6.99849
G1 X106.023 Y102.976 E7.01791
G1 X105.151 Y103.644 E7.03734
G1 X104.136 Y104.065 E7.05677
G1 X103.047 Y104.208 E7.07619
G1 X101.958 Y104.065 E7.09562
G1 X100.943 Y103.644 E7.11504
G1 X100.113 Y103.008 E7.13353
G1 X100.071 Y102.976 E7.13447
G1 X99.403 Y102.104 E7.15390
G1 X98.982 Y101.089 E7.17332
G1 X98.975 Y101.037 E7.17426
G1 X98.839 Y100.000 E7.19275
G1 X98.982 Y98.911 E7.21218
G1 X99.403 Y97.896 E7.23160
G1 X99.435 Y97.854 E7.23254
G1 X100.071 Y97.024 E7.25103
G1 X100.943 Y96.356 E7.27046
G1 X101.958 Y95.935 E7.28988
G1 X103.047 Y95.792 E7.30931
G1 X104.136 Y95.935 E7.32873
G1 X105.151 Y96.356 E7.34816
G1 X106.023 Y97.024 E7.36759
G1 X106.691 Y97.896 E7.38701
G1 X107.112 Y98.911 E7.40644
G1 X107.255 Y100.000 E7.42587
G1 X107.128 Y100.963 E7.44304
G1 X107.119 Y101.037 E7.44436
G1 X107.515 Y101.342 F7800.000
G1 X101.821 Y110.248
G1 X101.723 Y110.248 F900.000 E7.44610
G1 X96.579 Y108.117 E7.54457
G1 X92.359 Y103.898 E7.65009
G1 X75.336 Y103.898 E7.95112
G1 X75.336 Y92.927 E8.14514
G1 X78.599 Y92.927 E8.20283
G1 X78.599 Y96.102 E8.25898
G1 X83.274 Y96.102 E8.34165
G1 X83.274 Y92.927 E8.39780
G1 X86.536 Y92.927 E8.45549
G1 X86.536 Y96.102 E8.51164
G1 X92.359 Y96.102 E8.61461
G1 X96.579 Y91.883 E8.72013
G1 X101.723 Y89.752 E8.81860
G1 X113.836 Y89.752 E9.03280
G1 X118.484 Y94.400 E9.14905
G1 X122.569 Y94.400 E9.22128
G1 X124.664 Y98.590 E9.30411
G1 X124.664 Y101.411 E9.35400
G1 X122.569 Y105.600 E9.43683
G1 X118.484 Y105.600 E9.50907
G1 X113.836 Y110.248 E9.62531
G1 X101.896 Y110.248 E9.83645
G1 X101.821 Y110.248 E9.83778
G1 X101.821 Y110.748 F7800.000
G1 X101.623 Y110.748 F900.000 E9.84128
G1 X96.295 Y108.541 E9.94327
G1 X92.152 Y104.398 E10.04687
G1 X74.836 Y104.398 E10.35309
G1 X74.836 Y92.427 E10.56479
G1 X79.099 Y92.427 E10.64017
G1 X79.099 Y95.602 E10.69631
G1 X82.774 Y95.602 E10.76130
G1 X82.774 Y92.427 E10.81745
G1 X87.036 Y92.427 E10.89282
G1 X87.036 Y95.602 E10.94897
G1 X92.152 Y95.602 E11.03944
G1 X96.295 Y91.459 E11.14305
G1 X101.624 Y89.252 E11.24504
G1 X101.759 Y89.252 E11.24743
G1 X114.043 Y89.252 E11.46467
G1 X118.691 Y93.900 E11.58091
G1 X122.878 Y93.900 E11.65495
G1 X125.164 Y98.472 E11.74533
G1 X125.164 Y101.529 E11.79939
G1 X122.878 Y106.100 E11.88978
G1 X118.691 Y106.100 E11.96381
G1 X114.043 Y110.748 E12.08006
G1 X101.896 Y110.748 E12.29486
G1 X101.821 Y110.748 E12.29619
G1 X101.571 Y110.315 F7800.000
G1 X102.619 Y105.131
G1 X94.074 Y105.131 F1500.000 E12.45125
G1 X94.587 Y105.644 E12.46441
G1 X117.959 Y105.644 E12.88852
G1 X117.445 Y106.157 E12.90168
G1 X95.100 Y106.157 E13.30716
G1 X95.613 Y106.670 E13.32033
G1 X116.932 Y106.670 E13.70719
G1 X116.419 Y107.183 E13.72035
G1 X96.126 Y107.183 E14.08860
G1 X96.643 Y107.696 E14.10181
G1 X115.906 Y107.696 E14.45136
G1 X115.393 Y108.209 E14.46453
G1 X97.881 Y108.209 E14.78230
G1 X99.120 Y108.722 E14.80663
G1 X114.880 Y108.722 E15.09261
G1 X114.367 Y109.235 E15.10578
G1 X100.359 Y109.235 E15.35998
G1 X101.597 Y109.748 E15.38431
G1 X113.854 Y109.748 E15.60672
G1 X118.472 Y105.131 F7800.000
G1 X103.475 Y105.131 F1500.000 E15.87885
G1 X105.189 Y104.618 F7800.000
G1 X122.726 Y104.618 F1500.000 E16.19707
G1 X122.983 Y104.104 E16.20749
G1 X105.969 Y104.104 E16.51622
G1 X106.585 Y103.591 E16.53078
G1 X123.239 Y103.591 E16.83298
G1 X123.496 Y103.078 E16.84339
G1 X121.644 Y103.078 E16.87699
G1 X122.610 Y102.565 F7800.000
G1 X123.752 Y102.565 F1500.000 E16.89772
G1 X123.857 Y102.052 E16.90722
G1 X123.279 Y102.052 E16.91770
G1 X120.143 Y103.078 F7800.000
G1 X106.979 Y103.078 F1500.000 E17.15657
G1 X107.357 Y102.565 E17.16814
G1 X119.177 Y102.565 E17.38261
G1 X118.638 Y102.052 E17.39611
G1 X107.570 Y102.052 E17.59695
G1 X107.782 Y101.539 E17.60703
G1 X118.274 Y101.539 E17.79740
G1 X118.061 Y101.026 E17.80748
G1 X107.903 Y101.026 E17.99180
G1 X107.971 Y100.513 E18.00119
G1 X117.941 Y100.513 E18.18210
G1 X117.873 Y100.000 E18.19149
G1 X108.039 Y100.000 E18.36996
G1 X107.971 Y99.487 E18.37935
G1 X117.941 Y99.487 E18.56026
G1 X118.061 Y98.974 E18.56982
G1 X107.903 Y98.974 E18.75414
G1 X107.782 Y98.461 E18.76371
G1 X118.274 Y98.461 E18.95408
G1 X118.638 Y97.948 E18.96550
G1 X107.570 Y97.948 E19.16634
G1 X107.357 Y97.435 E19.17642
G1 X119.177 Y97.435 E19.39089
G1 X120.143 Y96.922 E19.41075
G1 X106.979 Y96.922 E19.64963
G1 X106.585 Y96.409 E19.66136
G1 X123.239 Y96.409 E19.96357
G1 X123.496 Y96.922 E19.97397
G1 X121.644 Y96.922 E20.00758
G1 X122.610 Y97.435 E20.02744
G1 X123.752 Y97.435 E20.04817
G1 X123.857 Y97.948 E20.05767
G1 X123.279 Y97.948 E20.06816
G1 X122.983 Y95.895 F7800.000
G1 X105.969 Y95.895 F1500.000 E20.37689
G1 X105.189 Y95.382 E20.39383
G1 X122.726 Y95.382 E20.71205
G1 X118.472 Y94.869 F7800.000
G1 X103.475 Y94.869 F1500.000 E20.98418
G1 X102.619 Y94.869 F7800.000
G1 X94.074 Y94.869 F1500.000 E21.13924
G1 X93.561 Y95.382 E21.15240
G1 X100.905 Y95.382 E21.28567
G1 X100.125 Y95.895 E21.30260
G1 X93.048 Y95.895 E21.43103
G1 X92.535 Y96.409 E21.44420
G1 X99.509 Y96.409 E21.57075
G1 X99.115 Y96.922 E21.58248
G1 X75.611 Y96.922 E22.00898
G1 X75.611 Y96.409 E22.01829
G1 X78.324 Y96.409 E22.06751
G1 X78.324 Y95.895 E22.07682
G1 X75.611 Y95.895 E22.12604
G1 X75.611 Y95.382 E22.13536
G1 X78.324 Y95.382 E22.18458
G1 X78.324 Y94.869 E22.19389
G1 X75.611 Y94.869 E22.24311
G1 X75.611 Y94.356 E22.25242
G1 X78.324 Y94.356 E22.30164
G1 X78.324 Y93.843 E22.31096
G1 X75.611 Y93.843 E22.36018
G1 X75.611 Y97.435 F7800.000
G1 X98.736 Y97.435 F1500.000 E22.77981
G1 X98.524 Y97.948 E22.78989
G1 X75.611 Y97.948 E23.20566
G1 X75.611 Y98.461 E23.21497
G1 X98.311 Y98.461 E23.62688
G1 X98.190 Y98.974 E23.63645
G1 X75.611 Y98.974 E24.04617
G1 X75.611 Y99.487 E24.05548
G1 X98.123 Y99.487 E24.46397
G1 X98.055 Y100.000 E24.47336
G1 X75.611 Y100.000 E24.88063
G1 X75.611 Y100.513 E24.88994
G1 X98.123 Y100.513 E25.29844
G1 X98.190 Y101.026 E25.30783
G1 X75.611 Y101.026 E25.71755
G1 X75.611 Y101.539 E25.72686
G1 X98.311 Y101.539 E26.13877
G1 X98.524 Y102.052 E26.14885
G1 X75.611 Y102.052 E26.56463
G1 X75.611 Y102.565 E26.57393
G1 X98.736 Y102.565 E26.99356
G1 X99.115 Y103.078 E27.00513
G1 X75.611 Y103.078 E27.43163
G1 X83.549 Y96.409 F7800.000
G1 X86.261 Y96.409 F1500.000 E27.48086
G1 X86.261 Y95.895 E27.49017
G1 X83.549 Y95.895 E27.53939
G1 X83.549 Y95.382 E27.54870
G1 X86.261 Y95.382 E27.59793
G1 X86.261 Y94.869 E27.60724
G1 X83.549 Y94.869 E27.65646
G1 X83.549 Y94.356 E27.66577
G1 X86.261 Y94.356 E27.71500
G1 X86.261 Y93.843 E27.72431
G1 X83.549 Y93.843 E27.77353
G1 X94.587 Y94.356 F7800.000
G1 X117.958 Y94.356 F1500.000 E28.19763
G1 X117.445 Y93.843 E28.21080
G1 X95.100 Y93.843 E28.61628
G1 X95.613 Y93.330 E28.62944
G1 X116.932 Y93.330 E29.01630
G1 X116.419 Y92.817 E29.02947
G1 X96.126 Y92.817 E29.39771
G1 X96.643 Y92.304 E29.41092
G1 X115.906 Y92.304 E29.76048
G1 X115.393 Y91.791 E29.77364
G1 X97.881 Y91.791 E30.09142
G1 X99.120 Y91.278 E30.11574
G1 X114.880 Y91.278 E30.40173
G1 X114.367 Y90.765 E30.41490
G1 X100.358 Y90.765 E30.66910
G1 X101.597 Y90.252 E30.69342
G1 X113.854 Y90.252 E30.91584
G1 X100.905 Y104.618 F7800.000
G1 X93.561 Y104.618 F1500.000 E31.04910
G1 X93.048 Y104.104 E31.06227
G1 X100.125 Y104.104 E31.19069
G1 X99.509 Y103.591 E31.20525
G1 X92.535 Y103.591 E31.33180
G1 X124.241 Y101.486 F7800.000
G1 X123.614 Y101.486 F600.000 E31.34724
G1 X124.425 Y100.065 F7800.000
G1 X124.152 Y100.065 F600.000 E31.35018
G1 X124.352 Y98.859 F7800.000
G1 X123.725 Y98.859 F600.000 E31.36562
M106 S200
G1 Z0.500 F7800.000
G1 X123.200 Y99.382
G1 X123.281 Y100.000 F600.000 E31.38207
G1 X123.200 Y100.618 E31.39852
G1 X122.961 Y101.194 E31.41498
G1 X122.582 Y101.689 E31.43143
