; generated by Slic3r 0.9.8 on 2013-05-24 at 19:46:23

; layer_height = .25
; perimeters = 1
; top_solid_layers = 4
; bottom_solid_layers = 4
; fill_density = .9
; perimeter_speed = 30
; infill_speed = 40
; travel_speed = 130
; scale = 1
; nozzle_diameter = 0.5
; filament_diameter = 3
; extrusion_multiplier = 1
; perimeters extrusion width = 0.80mm
; infill extrusion width = 0.80mm
; first layer extrusion width = 0.50mm

M107
M104 S210 ; set temperature
G28 ; home all axes
M109 S210 ; wait for temperature to be reached
G90 ; use absolute coordinates
G21 ; set units to millimeters
G92 E0
M82 ; use absolute distances for extrusion
G1 Z0.250 F7800.000
G1 X114.690 Y105.740
G1 X114.260 Y106.080 F900.000 E0.00969
G1 X113.560 Y106.530 E0.02441
G1 X113.080 Y106.770 E0.03390
G1 X112.570 Y106.990 E0.04372
G1 X111.780 Y107.230 E0.05832
G1 X110.970 Y107.370 E0.07286
G1 X98.650 Y108.840 E0.29227
G1 X97.820 Y108.890 E0.30697
G1 X89.860 Y108.890 E0.44774
G1 X89.310 Y108.870 E0.45747
G1 X88.490 Y108.760 E0.47210
G1 X87.700 Y108.550 E0.48656
G1 X86.930 Y108.250 E0.50117
G1 X86.200 Y107.860 E0.51581
G1 X85.530 Y107.390 E0.53028
G1 X84.910 Y106.840 E0.54494
G1 X84.360 Y106.220 E0.55959
G1 X83.890 Y105.550 E0.57406
G1 X83.500 Y104.820 E0.58870
G1 X83.200 Y104.050 E0.60331
G1 X82.990 Y103.260 E0.61777
G1 X82.880 Y102.440 E0.63240
G1 X82.860 Y101.890 E0.64213
G1 X82.860 Y93.010 E0.79917
G1 X82.880 Y92.460 E0.80890
G1 X82.990 Y91.640 E0.82353
G1 X83.120 Y91.110 E0.83318
G1 X83.290 Y90.590 E0.84285
G1 X83.500 Y90.080 E0.85261
G1 X83.750 Y89.590 E0.86233
G1 X84.040 Y89.120 E0.87210
G1 X84.360 Y88.680 E0.88172
G1 X84.720 Y88.260 E0.89150
G1 X85.110 Y87.870 E0.90126
G1 X85.530 Y87.510 E0.91104
G1 X85.970 Y87.190 E0.92066
G1 X86.440 Y86.900 E0.93043
G1 X86.930 Y86.650 E0.94015
G1 X87.440 Y86.440 E0.94991
G1 X87.960 Y86.270 E0.95958
G1 X88.490 Y86.140 E0.96923
G1 X89.040 Y86.060 E0.97906
G1 X89.310 Y86.030 E0.98387
G1 X89.860 Y86.010 E0.99360
G1 X97.820 Y86.010 E1.13436
G1 X98.470 Y86.040 E1.14587
G1 X98.800 Y86.080 E1.15175
G1 X99.120 Y86.130 E1.15747
G1 X99.760 Y86.280 E1.16910
G1 X100.370 Y86.490 E1.18051
G1 X112.690 Y91.320 E1.41452
G1 X113.460 Y91.670 E1.42947
G1 X113.700 Y91.810 E1.43439
G1 X114.170 Y92.110 E1.44425
G1 X114.610 Y92.450 E1.45408
G1 X115.030 Y92.830 E1.46410
G1 X115.410 Y93.230 E1.47385
G1 X115.590 Y93.450 E1.47888
G1 X116.080 Y94.130 E1.49370
G1 X116.480 Y94.870 E1.50858
G1 X116.790 Y95.640 E1.52326
G1 X117.000 Y96.450 E1.53805
G1 X117.120 Y97.280 E1.55288
G1 X117.140 Y97.840 E1.56279
G1 X117.140 Y100.420 E1.60842
G1 X117.120 Y100.970 E1.61815
G1 X117.010 Y101.780 E1.63261
G1 X116.880 Y102.320 E1.64243
G1 X116.610 Y103.100 E1.65703
G1 X116.380 Y103.600 E1.66676
G1 X116.110 Y104.080 E1.67650
G1 X115.640 Y104.750 E1.69097
G1 X115.090 Y105.370 E1.70563
G1 X114.745 Y105.690 E1.71394
G1 X114.690 Y105.740 E1.71526
G1 X114.440 Y105.290 F7800.000
G1 X114.040 Y105.620 F900.000 E1.72443
G1 X113.610 Y105.920 E1.73370
G1 X112.920 Y106.300 E1.74763
G1 X112.190 Y106.590 E1.76152
G1 X111.940 Y106.670 E1.76617
G1 X111.430 Y106.790 E1.77543
G1 X111.170 Y106.840 E1.78011
G1 X98.590 Y108.340 E2.00415
G1 X97.820 Y108.390 E2.01780
G1 X89.860 Y108.390 E2.15856
G1 X89.340 Y108.370 E2.16776
G1 X88.820 Y108.310 E2.17702
G1 X88.560 Y108.260 E2.18170
G1 X87.800 Y108.060 E2.19560
G1 X87.310 Y107.870 E2.20489
G1 X86.840 Y107.650 E2.21407
G1 X86.610 Y107.520 E2.21874
G1 X85.960 Y107.090 E2.23252
G1 X85.550 Y106.760 E2.24183
G1 X85.360 Y106.580 E2.24646
G1 X84.990 Y106.200 E2.25584
G1 X84.660 Y105.790 E2.26515
G1 X84.230 Y105.140 E2.27893
G1 X84.100 Y104.910 E2.28360
G1 X83.880 Y104.440 E2.29278
G1 X83.690 Y103.950 E2.30207
G1 X83.490 Y103.190 E2.31597
G1 X83.440 Y102.930 E2.32065
G1 X83.380 Y102.410 E2.32991
G1 X83.360 Y101.890 E2.33911
G1 X83.360 Y93.010 E2.49614
G1 X83.380 Y92.490 E2.50534
G1 X83.440 Y91.970 E2.51460
G1 X83.550 Y91.450 E2.52400
G1 X83.690 Y90.950 E2.53318
G1 X83.880 Y90.460 E2.54248
G1 X84.100 Y89.990 E2.55165
G1 X84.230 Y89.760 E2.55632
G1 X84.660 Y89.110 E2.57011
G1 X84.990 Y88.700 E2.57941
G1 X85.550 Y88.140 E2.59342
G1 X86.170 Y87.660 E2.60728
G1 X86.610 Y87.380 E2.61651
G1 X87.070 Y87.140 E2.62568
G1 X87.800 Y86.840 E2.63964
G1 X88.300 Y86.700 E2.64882
G1 X88.820 Y86.590 E2.65822
G1 X89.340 Y86.530 E2.66748
G1 X89.860 Y86.510 E2.67668
G1 X97.820 Y86.510 E2.81744
G1 X98.730 Y86.570 E2.83357
G1 X99.030 Y86.620 E2.83895
G1 X99.620 Y86.760 E2.84967
G1 X99.910 Y86.850 E2.85504
G1 X112.510 Y91.790 E3.09437
G1 X113.000 Y92.000 E3.10380
G1 X113.470 Y92.260 E3.11330
G1 X113.920 Y92.550 E3.12276
G1 X114.350 Y92.880 E3.13235
G1 X114.550 Y93.060 E3.13711
G1 X114.930 Y93.440 E3.14661
G1 X115.270 Y93.850 E3.15603
G1 X115.730 Y94.520 E3.17040
G1 X115.980 Y94.990 E3.17982
G1 X116.200 Y95.480 E3.18931
G1 X116.290 Y95.730 E3.19401
G1 X116.500 Y96.510 E3.20830
G1 X116.620 Y97.300 E3.22243
G1 X116.640 Y97.840 E3.23198
G1 X116.640 Y100.420 E3.27761
G1 X116.620 Y100.940 E3.28681
G1 X116.560 Y101.460 E3.29607
G1 X116.450 Y101.980 E3.30547
G1 X116.220 Y102.730 E3.31934
G1 X116.010 Y103.210 E3.32860
G1 X115.770 Y103.670 E3.33778
G1 X115.490 Y104.120 E3.34715
G1 X115.170 Y104.540 E3.35649
G1 X114.820 Y104.930 E3.36576
G1 X114.495 Y105.240 E3.37369
G1 X114.440 Y105.290 E3.37501
G1 X109.640 Y99.921 F7800.000
G1 X97.324 Y99.921 F900.000 E3.59282
G1 X97.324 Y101.396 E3.61890
G1 X90.360 Y101.396 E3.74205
G1 X90.360 Y93.520 E3.88133
G1 X97.324 Y93.520 E4.00448
G1 X97.324 Y98.345 E4.08981
G1 X109.640 Y98.344 E4.30762
G1 X109.640 Y99.846 E4.33417
G1 X109.640 Y99.921 E4.33550
G1 X110.140 Y100.421 F7800.000
G1 X97.824 Y100.421 F900.000 E4.55330
G1 X97.824 Y101.896 E4.57938
G1 X89.860 Y101.896 E4.72022
G1 X89.860 Y93.020 E4.87718
G1 X97.824 Y93.020 E5.01802
G1 X97.824 Y97.845 E5.10334
G1 X110.140 Y97.844 E5.32115
G1 X110.140 Y100.346 E5.36539
G1 X110.140 Y100.421 E5.36672
G1 X109.707 Y100.171 F7800.000
G1 X109.365 Y99.309
G1 X90.635 Y99.309 F1500.000 E5.71712
G1 X90.635 Y99.838 E5.72701
G1 X97.049 Y99.838 E5.84700
G1 X97.049 Y100.367 E5.85690
G1 X90.635 Y100.367 E5.97689
G1 X90.635 Y100.896 E5.98678
G1 X97.049 Y100.896 E6.10678
G1 X97.049 Y98.780 F7800.000
G1 X90.635 Y98.780 F1500.000 E6.22677
G1 X90.635 Y98.251 E6.23666
G1 X97.049 Y98.251 E6.35665
G1 X97.049 Y97.722 E6.36655
G1 X90.635 Y97.722 E6.48653
G1 X90.635 Y97.193 E6.49643
G1 X97.049 Y97.193 E6.61642
G1 X97.049 Y96.664 E6.62631
G1 X90.635 Y96.664 E6.74630
G1 X90.635 Y96.135 E6.75620
G1 X97.049 Y96.135 E6.87619
G1 X97.049 Y95.606 E6.88608
G1 X90.635 Y95.606 E7.00607
G1 X90.635 Y95.078 E7.01597
G1 X97.049 Y95.078 E7.13596
G1 X97.049 Y94.549 E7.14585
G1 X90.635 Y94.549 E7.26585
G1 X90.635 Y94.020 E7.27574
G1 X97.049 Y94.020 E7.39573
M106 S255
G1 Z0.500 F7800.000
G1 X97.674 Y93.170
G1 X97.674 Y97.995 F600.000 E7.52310
G1 X109.990 Y97.994 E7.84822
G1 X109.990 Y100.271 E7.90831
G1 X97.674 Y100.271 E8.23343
G1 X97.674 Y101.859 E8.27534
G1 X90.010 Y101.859 E8.47765
G1 X90.010 Y93.170 E8.70701
G1 X97.562 Y93.170 E8.90636
G1 X97.674 Y93.170 E8.90931
G1 X97.689 Y98.405 F7800.000
G1 X97.689 Y99.861 F829.550 E8.94897
G1 X98.459 Y99.861 E8.96996
G1 X98.459 Y98.405 E9.00962
G1 X99.230 Y98.405 E9.03060
G1 X99.230 Y99.861 E9.07026
G1 X100.000 Y99.861 E9.09125
G1 X100.000 Y98.405 E9.13091
G1 X100.770 Y98.405 E9.15190
G1 X100.770 Y99.861 E9.19155
G1 X101.541 Y99.861 E9.21254
G1 X101.541 Y98.405 E9.25220
G1 X102.311 Y98.405 E9.27319
G1 X102.311 Y99.861 E9.31285
G1 X103.081 Y99.861 E9.33384
G1 X103.081 Y98.405 E9.37350
G1 X103.852 Y98.405 E9.39449
G1 X103.852 Y99.861 E9.43415
G1 X104.622 Y99.861 E9.45514
G1 X104.622 Y98.405 E9.49480
G1 X105.392 Y98.405 E9.51579
G1 X105.392 Y99.861 E9.55545
G1 X106.163 Y99.861 E9.57644
G1 X106.163 Y98.405 E9.61610
G1 X106.933 Y98.405 E9.63709
G1 X106.933 Y99.861 E9.67675
G1 X107.703 Y99.861 E9.69774
G1 X107.703 Y98.405 E9.73740
G1 X108.474 Y98.405 E9.75839
G1 X108.474 Y99.861 E9.79806
G1 X109.244 Y99.861 E9.81904
G1 X109.244 Y98.405 E9.85871
G1 X96.919 Y101.448 F7800.000
G1 X96.919 Y93.580 F829.550 E10.07307
G1 X96.148 Y93.580 E10.09406
G1 X96.148 Y101.448 E10.30843
G1 X95.378 Y101.448 E10.32941
G1 X95.378 Y93.580 E10.54378
G1 X94.608 Y93.580 E10.56477
G1 X94.608 Y101.448 E10.77913
G1 X93.837 Y101.448 E10.80012
G1 X93.837 Y93.580 E11.01448
G1 X93.067 Y93.580 E11.03547
G1 X93.067 Y101.448 E11.24983
G1 X92.297 Y101.448 E11.27082
G1 X92.297 Y93.580 E11.48519
G1 X91.526 Y93.580 E11.50617
G1 X91.526 Y101.448 E11.72054
G1 X90.756 Y101.448 E11.74153
G1 X90.756 Y93.580 E11.95589
G1 Z0.750 F7800.000
G1 X90.010 Y93.170
G1 X97.674 Y93.170 F600.000 E12.15819
G1 X97.674 Y97.995 E12.28556
G1 X109.990 Y97.994 E12.61068
G1 X109.990 Y100.271 E12.67078
G1 X97.674 Y100.271 E12.99590
G1 X97.674 Y101.972 E13.04078
G1 X90.010 Y101.972 E13.24309
G1 X90.010 Y93.282 E13.47247
G1 X90.010 Y93.170 E13.47543
G1 X97.263 Y93.916 F7800.000
G1 X90.420 Y93.916 F732.751 E13.67199
G1 X90.420 Y94.728 E13.69532
G1 X97.263 Y94.728 E13.89187
G1 X97.263 Y95.540 E13.91520
G1 X90.420 Y95.540 E14.11176
G1 X90.420 Y96.352 E14.13508
G1 X97.263 Y96.352 E14.33164
G1 X97.263 Y97.165 E14.35497
G1 X90.420 Y97.165 E14.55153
G1 X90.420 Y97.977 E14.57485
G1 X97.263 Y97.977 E14.77141
G1 X97.263 Y101.225 F7800.000
G1 X90.420 Y101.225 F732.751 E14.96797
G1 X90.420 Y100.413 E14.99130
G1 X97.263 Y100.413 E15.18786
G1 X97.263 Y99.601 E15.21118
G1 X90.420 Y99.601 E15.40774
G1 X90.420 Y98.789 E15.43107
G1 X109.580 Y98.789 E15.98140
G1 Z1.000 F7800.000
G1 X109.990 Y98.662
G1 X109.990 Y100.271 F600.000 E16.02388
G1 X97.674 Y100.271 E16.34900
G1 X97.674 Y102.084 E16.39686
G1 X90.010 Y102.084 E16.59917
G1 X90.010 Y93.170 E16.83449
G1 X97.674 Y93.170 E17.03679
G1 X97.674 Y97.995 E17.16415
G1 X109.990 Y97.994 E17.48928
G1 X109.990 Y98.550 E17.50394
G1 X109.990 Y98.662 E17.50690
G1 X109.244 Y98.405 F7800.000
G1 X109.244 Y99.861 F840.690 E17.54657
G1 X108.474 Y99.861 E17.56755
G1 X108.474 Y98.405 E17.60722
G1 X107.703 Y98.405 E17.62821
G1 X107.703 Y99.861 E17.66787
G1 X106.933 Y99.861 E17.68886
G1 X106.933 Y98.405 E17.72853
G1 X106.163 Y98.405 E17.74951
G1 X106.163 Y99.861 E17.78918
G1 X105.392 Y99.861 E17.81017
G1 X105.392 Y98.405 E17.84983
G1 X104.622 Y98.405 E17.87082
G1 X104.622 Y99.861 E17.91048
G1 X103.852 Y99.861 E17.93147
G1 X103.852 Y98.405 E17.97113
G1 X103.081 Y98.405 E17.99212
G1 X103.081 Y99.861 E18.03178
G1 X102.311 Y99.861 E18.05277
G1 X102.311 Y98.405 E18.09243
G1 X101.541 Y98.405 E18.11342
G1 X101.541 Y99.861 E18.15308
G1 X100.770 Y99.861 E18.17406
G1 X100.770 Y98.405 E18.21372
G1 X100.000 Y98.405 E18.23471
G1 X100.000 Y99.861 E18.27437
G1 X99.230 Y99.861 E18.29536
G1 X99.230 Y98.405 E18.33502
G1 X98.459 Y98.405 E18.35600
G1 X98.459 Y99.861 E18.39566
G1 X97.689 Y99.861 E18.41665
G1 X97.689 Y98.405 E18.45630
G1 X96.919 Y101.674 F7800.000
G1 X96.919 Y93.580 F840.690 E18.67682
G1 X96.148 Y93.580 E18.69781
G1 X96.148 Y101.674 E18.91832
G1 X95.378 Y101.674 E18.93931
G1 X95.378 Y93.580 E19.15982
G1 X94.608 Y93.580 E19.18081
G1 X94.608 Y101.674 E19.40133
G1 X93.837 Y101.674 E19.42232
G1 X93.837 Y93.580 E19.64283
G1 X93.067 Y93.580 E19.66382
G1 X93.067 Y101.674 E19.88433
G1 X92.297 Y101.674 E19.90532
G1 X92.297 Y93.580 E20.12584
G1 X91.526 Y93.580 E20.14683
G1 X91.526 Y101.674 E20.36734
G1 X90.756 Y101.674 E20.38833
G1 X90.756 Y93.580 E20.60884
G1 Z1.250 F7800.000
G1 X90.010 Y93.170
G1 X97.674 Y93.170 F600.000 E20.81114
G1 X97.674 Y97.995 E20.93851
G1 X109.990 Y97.994 E21.26363
G1 X109.990 Y100.271 E21.32373
G1 X97.674 Y100.271 E21.64885
G1 X97.674 Y102.197 E21.69970
G1 X90.010 Y102.197 E21.90200
G1 X90.010 Y93.282 E22.13734
G1 X90.010 Y93.170 E22.14030
G1 X97.263 Y93.987 F7800.000
G1 X90.420 Y93.987 F658.947 E22.32093
G1 X90.420 Y94.817 E22.34282
G1 X97.263 Y94.817 E22.52345
G1 X97.263 Y95.646 E22.54534
G1 X90.420 Y95.646 E22.72598
G1 X90.420 Y96.475 E22.74787
G1 X97.263 Y96.475 E22.92850
G1 X97.263 Y97.305 E22.95039
G1 X90.420 Y97.305 E23.13102
G1 X90.420 Y98.134 E23.15291
G1 X97.263 Y98.134 E23.33355
G1 X97.263 Y101.451 F7800.000
G1 X90.420 Y101.451 F658.947 E23.51418
G1 X90.420 Y100.622 E23.53607
G1 X97.263 Y100.622 E23.71670
G1 X97.263 Y99.792 E23.73860
G1 X90.420 Y99.792 E23.91923
G1 X90.420 Y98.963 E23.94112
G1 X109.580 Y98.963 E24.44687
G1 Z1.500 F7800.000
G1 X109.244 Y98.741
G1 X109.244 Y99.525 F600.000 E24.46757
G1 X96.927 Y99.525 E24.79269
G1 X96.927 Y101.564 E24.84651
G1 X90.756 Y101.564 E25.00941
G1 X90.756 Y93.916 E25.21129
G1 X96.927 Y93.916 E25.37418
G1 X96.928 Y98.741 E25.50155
G1 X109.132 Y98.741 E25.82370
G1 X109.244 Y98.741 E25.82665
G1 X109.990 Y99.272 F7800.000
G1 X109.990 Y100.271 F600.000 E25.85303
G1 X97.674 Y100.271 E26.17815
G1 X97.674 Y102.310 E26.23197
G1 X90.010 Y102.310 E26.43426
G1 X90.010 Y93.170 E26.67554
G1 X97.674 Y93.170 E26.87785
G1 X97.674 Y97.995 E27.00521
G1 X109.990 Y97.994 E27.33032
G1 X109.990 Y99.160 E27.36110
G1 X109.990 Y99.272 E27.36405
G1 X109.344 Y99.645 F7800.000
G1 X96.181 Y94.326
G1 X96.181 Y101.153 F946.620 E27.55232
G1 X95.401 Y101.153 E27.57383
G1 X95.401 Y94.326 E27.76210
G1 X94.622 Y94.326 E27.78360
G1 X94.622 Y101.153 E27.97187
G1 X93.842 Y101.153 E27.99337
G1 X93.842 Y94.326 E28.18165
G1 X93.062 Y94.326 E28.20315
G1 X93.062 Y101.153 E28.39142
G1 X92.282 Y101.153 E28.41292
G1 X92.282 Y94.326 E28.60120
G1 X91.503 Y94.326 E28.62270
G1 X91.503 Y101.153 E28.81097
G1 Z1.750 F7800.000
G1 X90.756 Y101.002
G1 X90.756 Y93.916 F600.000 E28.99801
G1 X96.927 Y93.916 E29.16091
G1 X96.928 Y98.741 E29.28827
G1 X109.244 Y98.740 E29.61338
G1 X109.244 Y99.525 E29.63408
G1 X96.927 Y99.525 E29.95919
G1 X96.927 Y101.678 E30.01604
G1 X90.756 Y101.678 E30.17894
G1 X90.756 Y101.114 E30.19384
G1 X90.756 Y101.002 E30.19679
G1 X90.010 Y101.002 F7800.000
G1 X90.010 Y93.170 F600.000 E30.40354
G1 X97.674 Y93.170 E30.60584
G1 X97.674 Y97.995 E30.73321
G1 X109.990 Y97.994 E31.05832
G1 X109.990 Y100.271 E31.11843
G1 X97.674 Y100.271 E31.44354
G1 X97.674 Y102.425 E31.50039
G1 X90.011 Y102.425 E31.70267
G1 X90.010 Y101.114 E31.73727
G1 X90.010 Y101.002 E31.74023
G1 X90.656 Y100.629 F7800.000
G1 X96.517 Y100.932
G1 X91.167 Y100.932 F957.487 E31.88852
G1 X91.167 Y100.148 E31.91024
G1 X96.517 Y100.148 E32.05853
G1 X96.517 Y99.364 E32.08025
G1 X91.167 Y99.364 E32.22854
G1 X91.167 Y98.581 E32.25027
G1 X96.517 Y98.581 E32.39856
G1 X96.517 Y97.797 E32.42028
G1 X91.167 Y97.797 E32.56857
G1 X91.167 Y97.013 E32.59029
G1 X96.517 Y97.013 E32.73858
G1 X96.517 Y96.230 E32.76031
G1 X91.167 Y96.230 E32.90860
G1 X91.167 Y95.446 E32.93032
G1 X96.517 Y95.446 E33.07861
G1 X96.517 Y94.662 E33.10033
G1 X91.167 Y94.662 E33.24862
G1 Z2.000 F7800.000
G1 X90.756 Y93.916
G1 X96.927 Y93.916 F600.000 E33.41152
G1 X96.928 Y98.741 E33.53888
G1 X109.244 Y98.740 E33.86399
G1 X109.244 Y99.525 E33.88469
G1 X96.927 Y99.525 E34.20981
G1 X96.927 Y101.822 E34.27046
G1 X90.756 Y101.822 E34.43335
G1 X90.756 Y94.028 E34.63910
G1 X90.756 Y93.916 E34.64205
G1 X90.010 Y93.944 F7800.000
G1 X90.010 Y93.170 F600.000 E34.66250
G1 X97.674 Y93.170 E34.86480
G1 X97.674 Y97.995 E34.99217
G1 X109.990 Y97.994 E35.31728
G1 X109.990 Y100.271 E35.37739
G1 X97.674 Y100.271 E35.70251
G1 X97.674 Y102.569 E35.76316
G1 X90.011 Y102.569 E35.96543
G1 X90.010 Y94.056 E36.19013
G1 X90.010 Y93.944 E36.19309
G1 X90.656 Y93.571 F7800.000
G1 X96.181 Y94.326
G1 X96.181 Y101.412 F960.747 E36.38848
G1 X95.401 Y101.412 E36.40999
G1 X95.401 Y94.326 E36.60538
G1 X94.622 Y94.326 E36.62688
G1 X94.622 Y101.412 E36.82228
G1 X93.842 Y101.412 E36.84378
G1 X93.842 Y94.326 E37.03917
G1 X93.062 Y94.326 E37.06068
G1 X93.062 Y101.412 E37.25607
