; generated by Slic3r 0.9.8 on 2013-05-22 at 14:52:03

; layer_height = .25
; perimeters = 1
; top_solid_layers = 4
; bottom_solid_layers = 4
; fill_density = .9
; perimeter_speed = 30
; infill_speed = 40
; travel_speed = 130
; scale = 1
; nozzle_diameter = 0.5
; filament_diameter = 3
; extrusion_multiplier = 1
; perimeters extrusion width = 0.80mm
; infill extrusion width = 0.80mm
; first layer extrusion width = 0.50mm

M107
M104 S210 ; set temperature
G28 ; home all axes
M109 S210 ; wait for temperature to be reached
G90 ; use absolute coordinates
G21 ; set units to millimeters
G92 E0
M82 ; use absolute distances for extrusion
G1 Z0.250 F7800.000
G1 X135.685 Y126.741
G1 X73.085 Y126.741 F900.000 E1.10701
G1 X72.535 Y126.721 E1.11674
G1 X71.725 Y126.611 E1.13120
G1 X71.195 Y126.481 E1.14085
G1 X70.675 Y126.311 E1.15052
G1 X70.165 Y126.101 E1.16028
G1 X69.685 Y125.861 E1.16977
G1 X68.985 Y125.421 E1.18439
G1 X68.555 Y125.081 E1.19408
G1 X68.155 Y124.711 E1.20372
G1 X67.605 Y124.101 E1.21824
G1 X67.135 Y123.431 E1.23272
G1 X66.745 Y122.711 E1.24720
G1 X66.445 Y121.951 E1.26164
G1 X66.225 Y121.161 E1.27615
G1 X66.135 Y120.621 E1.28583
G1 X66.095 Y120.071 E1.29558
G1 X65.945 Y102.821 E1.60064
G1 X65.945 Y80.241 E1.99994
G1 X65.965 Y79.691 E2.00967
G1 X66.075 Y78.871 E2.02430
G1 X66.205 Y78.341 E2.03395
G1 X66.375 Y77.821 E2.04363
G1 X66.585 Y77.311 E2.05338
G1 X66.835 Y76.821 E2.06311
G1 X67.125 Y76.351 E2.07288
G1 X67.625 Y75.691 E2.08752
G1 X67.995 Y75.291 E2.09715
G1 X68.395 Y74.921 E2.10679
G1 X69.055 Y74.421 E2.12143
G1 X69.525 Y74.131 E2.13120
G1 X70.015 Y73.881 E2.14093
G1 X70.525 Y73.671 E2.15068
G1 X71.045 Y73.501 E2.16035
G1 X71.575 Y73.371 E2.17000
G1 X72.395 Y73.261 E2.18463
G1 X72.945 Y73.241 E2.19437
G1 X135.685 Y73.241 E3.30385
G1 X136.235 Y73.261 E3.31359
G1 X137.055 Y73.371 E3.32822
G1 X137.585 Y73.501 E3.33787
G1 X138.105 Y73.671 E3.34754
G1 X138.865 Y74.001 E3.36219
G1 X139.345 Y74.271 E3.37193
G1 X140.015 Y74.741 E3.38641
G1 X140.235 Y74.921 E3.39143
G1 X140.635 Y75.291 E3.40107
G1 X141.185 Y75.911 E3.41572
G1 X141.655 Y76.581 E3.43020
G1 X141.925 Y77.061 E3.43994
G1 X142.155 Y77.561 E3.44967
G1 X142.425 Y78.341 E3.46427
G1 X142.555 Y78.871 E3.47392
G1 X142.665 Y79.691 E3.48855
G1 X142.685 Y80.241 E3.49828
G1 X142.685 Y119.741 E4.19679
G1 X142.665 Y120.291 E4.20652
G1 X142.555 Y121.111 E4.22116
G1 X142.425 Y121.641 E4.23081
G1 X142.155 Y122.421 E4.24540
G1 X141.925 Y122.921 E4.25513
G1 X141.655 Y123.401 E4.26487
G1 X141.185 Y124.071 E4.27935
G1 X140.825 Y124.491 E4.28913
G1 X140.435 Y124.881 E4.29888
G1 X140.015 Y125.241 E4.30866
G1 X139.345 Y125.711 E4.32314
G1 X138.865 Y125.981 E4.33288
G1 X138.365 Y126.211 E4.34261
G1 X137.585 Y126.481 E4.35720
G1 X137.055 Y126.611 E4.36686
G1 X136.235 Y126.721 E4.38149
G1 X135.760 Y126.738 E4.38989
G1 X135.685 Y126.741 E4.39122
G1 X135.685 Y126.241 F7800.000
G1 X73.085 Y126.241 F900.000 E5.49823
G1 X72.555 Y126.221 E5.50761
G1 X71.755 Y126.101 E5.52191
G1 X71.235 Y125.971 E5.53139
G1 X70.735 Y125.801 E5.54073
G1 X70.245 Y125.591 E5.55016
G1 X69.775 Y125.331 E5.55966
G1 X69.325 Y125.041 E5.56912
G1 X68.905 Y124.721 E5.57846
G1 X68.505 Y124.361 E5.58798
G1 X67.975 Y123.761 E5.60214
G1 X67.515 Y123.101 E5.61636
G1 X67.145 Y122.391 E5.63052
G1 X66.865 Y121.641 E5.64468
G1 X66.795 Y121.381 E5.64944
G1 X66.685 Y120.861 E5.65884
G1 X66.595 Y120.061 E5.67307
G1 X66.445 Y102.811 E5.97813
G1 X66.445 Y80.241 E6.37726
G1 X66.465 Y79.721 E6.38646
G1 X66.525 Y79.201 E6.39572
G1 X66.635 Y78.681 E6.40512
G1 X66.775 Y78.181 E6.41430
G1 X66.965 Y77.691 E6.42359
G1 X67.185 Y77.221 E6.43277
G1 X67.595 Y76.551 E6.44666
G1 X68.075 Y75.931 E6.46052
G1 X68.255 Y75.741 E6.46515
G1 X68.635 Y75.371 E6.47453
G1 X69.045 Y75.041 E6.48384
G1 X69.695 Y74.611 E6.49762
G1 X70.155 Y74.371 E6.50680
G1 X70.885 Y74.071 E6.52075
G1 X71.385 Y73.931 E6.52994
G1 X71.905 Y73.821 E6.53933
G1 X72.425 Y73.761 E6.54859
G1 X72.945 Y73.741 E6.55779
G1 X135.685 Y73.741 E7.66728
G1 X136.205 Y73.761 E7.67648
G1 X136.725 Y73.821 E7.68574
G1 X137.245 Y73.931 E7.69514
G1 X137.745 Y74.071 E7.70432
G1 X137.985 Y74.161 E7.70885
G1 X138.475 Y74.371 E7.71828
G1 X138.935 Y74.611 E7.72746
G1 X139.585 Y75.041 E7.74124
G1 X139.995 Y75.371 E7.75055
G1 X140.555 Y75.931 E7.76455
G1 X140.885 Y76.341 E7.77386
G1 X141.035 Y76.551 E7.77842
G1 X141.445 Y77.221 E7.79231
G1 X141.665 Y77.691 E7.80149
G1 X141.855 Y78.181 E7.81078
G1 X142.055 Y78.941 E7.82468
G1 X142.105 Y79.201 E7.82936
G1 X142.165 Y79.721 E7.83862
G1 X142.185 Y80.241 E7.84782
G1 X142.185 Y119.741 E8.54633
G1 X142.165 Y120.261 E8.55554
G1 X142.105 Y120.781 E8.56479
G1 X142.055 Y121.041 E8.56947
G1 X141.855 Y121.801 E8.58337
G1 X141.665 Y122.291 E8.59267
G1 X141.445 Y122.761 E8.60184
G1 X141.315 Y122.991 E8.60651
G1 X140.885 Y123.641 E8.62030
G1 X140.555 Y124.051 E8.62960
G1 X139.995 Y124.611 E8.64361
G1 X139.585 Y124.941 E8.65292
G1 X138.935 Y125.371 E8.66670
G1 X138.475 Y125.611 E8.67587
G1 X137.985 Y125.821 E8.68530
G1 X137.745 Y125.911 E8.68983
G1 X137.245 Y126.051 E8.69902
G1 X136.725 Y126.161 E8.70841
G1 X136.205 Y126.221 E8.71767
G1 X135.760 Y126.238 E8.72555
G1 X135.685 Y126.241 E8.72687
G1 X133.543 Y117.749 F7800.000
G1 X125.229 Y117.749 F900.000 E8.87388
G1 X125.229 Y115.249 E8.91809
G1 X131.033 Y115.249 E9.02072
G1 X131.033 Y84.751 E9.56004
G1 X125.229 Y84.751 E9.66266
G1 X125.229 Y82.251 E9.70687
G1 X133.543 Y82.251 E9.85388
G1 X133.543 Y117.674 E10.48030
G1 X133.543 Y117.749 E10.48163
G1 X133.043 Y117.249 F7800.000
G1 X125.729 Y117.249 F900.000 E10.61095
G1 X125.729 Y115.749 E10.63748
G1 X131.533 Y115.749 E10.74010
G1 X131.533 Y84.251 E11.29711
G1 X125.729 Y84.251 E11.39973
G1 X125.729 Y82.751 E11.42626
G1 X133.043 Y82.751 E11.55558
G1 X133.043 Y117.174 E12.16431
G1 X133.043 Y117.249 E12.16564
G1 X133.043 Y117.749 F7800.000
G1 X83.545 Y117.749
G1 X75.231 Y117.749 F900.000 E12.31265
G1 X75.231 Y115.249 E12.35686
G1 X81.035 Y115.249 E12.45948
G1 X81.035 Y84.751 E12.99881
G1 X75.231 Y84.751 E13.10143
G1 X75.231 Y82.251 E13.14564
G1 X83.545 Y82.251 E13.29265
G1 X83.545 Y117.674 E13.91906
G1 X83.545 Y117.749 E13.92039
G1 X83.045 Y117.249 F7800.000
G1 X75.731 Y117.249 F900.000 E14.04972
G1 X75.731 Y115.749 E14.07624
G1 X81.535 Y115.749 E14.17886
G1 X81.535 Y115.309 E14.18665
G1 X81.535 Y84.251 E14.73587
G1 X75.731 Y84.251 E14.83850
G1 X75.731 Y82.751 E14.86502
G1 X83.045 Y82.751 E14.99435
G1 X83.045 Y117.174 E15.60308
G1 X83.045 Y117.249 E15.60441
G1 X83.045 Y117.749 F7800.000
G1 X85.189 Y119.249
G1 X73.585 Y119.249 F900.000 E15.80960
G1 X73.585 Y102.269 E16.10987
G1 X73.447 Y102.269 E16.11231
G1 X73.447 Y80.751 E16.49283
G1 X85.189 Y80.751 E16.70047
G1 X85.189 Y88.801 E16.84282
G1 X123.583 Y88.801 E17.52179
G1 X123.583 Y80.751 E17.66415
G1 X135.187 Y80.751 E17.86934
G1 X135.187 Y119.249 E18.55013
G1 X123.583 Y119.249 E18.75532
G1 X123.583 Y106.599 E18.97902
G1 X106.135 Y106.599 E19.28758
G1 X106.135 Y105.501 E19.30700
G1 X107.811 Y105.501 E19.33664
G1 X109.089 Y105.840 E19.36002
G1 X109.428 Y104.566 E19.38334
G1 X112.853 Y98.634 E19.50446
G1 X113.789 Y97.702 E19.52782
G1 X112.853 Y96.766 E19.55122
G1 X109.428 Y90.834 E19.67236
G1 X109.088 Y89.558 E19.69571
G1 X107.810 Y89.901 E19.71912
G1 X100.962 Y89.901 E19.84022
G1 X99.684 Y89.558 E19.86363
G1 X99.344 Y90.834 E19.88698
G1 X95.919 Y96.767 E20.00812
G1 X94.983 Y97.702 E20.03152
G1 X95.919 Y98.634 E20.05488
G1 X99.344 Y104.566 E20.17600
G1 X99.683 Y105.840 E20.19932
G1 X100.961 Y105.501 E20.22270
G1 X102.637 Y105.501 E20.25234
G1 X102.637 Y106.599 E20.27176
G1 X85.189 Y106.599 E20.58031
G1 X85.189 Y119.174 E20.80269
G1 X85.189 Y119.249 E20.80401
G1 X85.689 Y119.749 F7800.000
G1 X73.085 Y119.749 F900.000 E21.02689
G1 X73.085 Y102.769 E21.32716
G1 X72.947 Y102.769 E21.32960
G1 X72.947 Y80.251 E21.72781
G1 X85.689 Y80.251 E21.95313
G1 X85.689 Y88.301 E22.09548
G1 X123.083 Y88.301 E22.75677
G1 X123.083 Y80.251 E22.89912
G1 X135.687 Y80.251 E23.12200
G1 X135.687 Y119.749 E23.82048
G1 X123.083 Y119.749 E24.04335
G1 X123.083 Y107.099 E24.26705
G1 X105.635 Y107.099 E24.57561
G1 X105.635 Y105.001 E24.61271
G1 X107.876 Y105.001 E24.65235
G1 X108.734 Y105.229 E24.66804
G1 X108.962 Y104.373 E24.68369
G1 X112.430 Y98.366 E24.80636
G1 X113.081 Y97.701 E24.82281
G1 X112.453 Y97.073 E24.83851
G1 X108.962 Y91.027 E24.96199
G1 X108.734 Y90.171 E24.97765
G1 X107.876 Y90.401 E24.99336
G1 X100.896 Y90.401 E25.11680
G1 X100.038 Y90.171 E25.13251
G1 X99.810 Y91.027 E25.14818
G1 X96.319 Y97.074 E25.27165
G1 X95.691 Y97.701 E25.28735
G1 X96.319 Y98.327 E25.30302
G1 X99.810 Y104.373 E25.42649
G1 X100.038 Y105.229 E25.44215
G1 X100.896 Y105.001 E25.45784
G1 X103.137 Y105.001 E25.49748
G1 X103.137 Y107.099 E25.53458
G1 X85.689 Y107.099 E25.84314
G1 X85.689 Y119.674 E26.06551
G1 X85.689 Y119.749 E26.06684
G1 X85.256 Y119.499 F7800.000
G1 X114.000 Y97.973
G1 X130.758 Y97.973 F1500.000 E26.36717
G1 X130.758 Y98.480 E26.37625
G1 X113.491 Y98.480 E26.68570
G1 X113.002 Y98.987 E26.69834
G1 X130.758 Y98.987 E27.01656
G1 X130.758 Y99.493 E27.02563
G1 X112.709 Y99.493 E27.34910
G1 X112.416 Y100.000 E27.35959
G1 X130.758 Y100.000 E27.68830
G1 X130.758 Y100.507 E27.69739
G1 X112.124 Y100.507 E28.03134
G1 X111.831 Y101.013 E28.04182
G1 X130.758 Y101.013 E28.38101
G1 X130.758 Y101.520 E28.39010
G1 X111.539 Y101.520 E28.73454
G1 X111.246 Y102.027 E28.74503
G1 X130.758 Y102.027 E29.09472
G1 X130.758 Y102.534 E29.10380
G1 X110.954 Y102.534 E29.45873
G1 X110.661 Y103.040 E29.46920
G1 X130.758 Y103.040 E29.82937
G1 X130.758 Y103.547 E29.83846
G1 X110.369 Y103.547 E30.20387
G1 X110.076 Y104.054 E30.21436
G1 X130.758 Y104.054 E30.58502
G1 X130.758 Y104.561 E30.59411
G1 X109.783 Y104.561 E30.97001
G1 X109.587 Y105.067 E30.97974
G1 X130.758 Y105.067 E31.35916
G1 X130.758 Y105.574 E31.36824
G1 X109.452 Y105.574 E31.75008
G1 X109.317 Y106.081 E31.75948
G1 X130.758 Y106.081 E32.14374
G1 X130.758 Y106.588 E32.15283
G1 X123.858 Y106.588 E32.27648
G1 X123.858 Y107.094 E32.28555
G1 X130.758 Y107.094 E32.40920
G1 X130.758 Y107.601 E32.41828
G1 X123.858 Y107.601 E32.54193
G1 X123.858 Y108.108 E32.55102
G1 X130.758 Y108.108 E32.67467
G1 X130.758 Y108.614 E32.68374
G1 X123.858 Y108.614 E32.80739
G1 X123.858 Y109.121 E32.81648
G1 X130.758 Y109.121 E32.94013
G1 X130.758 Y109.628 E32.94921
G1 X123.858 Y109.628 E33.07286
G1 X123.858 Y110.135 E33.08195
G1 X130.758 Y110.135 E33.20560
G1 X130.758 Y110.641 E33.21467
G1 X123.858 Y110.641 E33.33832
G1 X123.858 Y111.148 E33.34741
G1 X130.758 Y111.148 E33.47106
G1 X130.758 Y111.655 E33.48014
G1 X123.858 Y111.655 E33.60380
G1 X123.858 Y112.162 E33.61288
G1 X130.758 Y112.162 E33.73653
G1 X130.758 Y112.668 E33.74560
G1 X123.858 Y112.668 E33.86925
G1 X123.858 Y113.175 E33.87834
G1 X130.758 Y113.175 E34.00199
G1 X130.758 Y113.682 E34.01107
G1 X123.858 Y113.682 E34.13473
G1 X123.858 Y114.188 E34.14379
G1 X130.758 Y114.188 E34.26744
G1 X130.758 Y114.695 E34.27653
G1 X123.858 Y114.695 E34.40018
G1 X124.955 Y115.202 E34.42183
G1 X123.858 Y115.202 E34.44147
G1 X123.858 Y115.709 E34.45056
G1 X124.955 Y115.709 E34.47021
G1 X124.955 Y116.215 E34.47927
G1 X123.858 Y116.215 E34.49892
G1 X123.858 Y116.722 E34.50801
G1 X124.955 Y116.722 E34.52765
G1 X124.955 Y117.229 E34.53674
G1 X123.858 Y117.229 E34.55638
G1 X123.858 Y117.736 E34.56547
G1 X124.955 Y117.736 E34.58512
G1 X124.955 Y118.242 E34.59419
G1 X123.858 Y118.242 E34.61383
G1 X123.858 Y118.749 E34.62292
G1 X134.912 Y118.749 E34.82101
G1 X133.818 Y118.242 F7800.000
G1 X134.912 Y118.242 F1500.000 E34.84062
G1 X134.912 Y117.736 E34.84969
G1 X133.818 Y117.736 E34.86929
G1 X133.818 Y117.229 E34.87838
G1 X134.912 Y117.229 E34.89799
G1 X134.912 Y116.722 E34.90707
G1 X133.818 Y116.722 E34.92668
G1 X133.818 Y116.215 E34.93577
G1 X134.912 Y116.215 E34.95537
G1 X134.912 Y115.709 E34.96444
G1 X133.818 Y115.709 E34.98405
G1 X133.818 Y115.202 E34.99313
G1 X134.912 Y115.202 E35.01274
G1 X134.912 Y114.695 E35.02183
G1 X133.818 Y114.695 E35.04143
G1 X133.818 Y114.188 E35.05052
G1 X134.912 Y114.188 E35.07013
G1 X134.912 Y113.682 E35.07920
G1 X133.818 Y113.682 E35.09880
G1 X133.818 Y113.175 E35.10789
G1 X134.912 Y113.175 E35.12750
G1 X134.912 Y112.668 E35.13658
G1 X133.818 Y112.668 E35.15619
G1 X133.818 Y112.162 E35.16526
G1 X134.912 Y112.162 E35.18486
G1 X134.912 Y111.655 E35.19395
G1 X133.818 Y111.655 E35.21356
G1 X133.818 Y111.148 E35.22264
G1 X134.912 Y111.148 E35.24225
G1 X134.912 Y110.641 E35.25134
G1 X133.818 Y110.641 E35.27094
G1 X133.818 Y110.135 E35.28001
G1 X134.912 Y110.135 E35.29962
G1 X134.912 Y109.628 E35.30870
G1 X133.818 Y109.628 E35.32831
G1 X133.818 Y109.121 E35.33740
G1 X134.912 Y109.121 E35.35700
G1 X134.912 Y108.614 E35.36609
G1 X133.818 Y108.614 E35.38570
G1 X133.818 Y108.108 E35.39477
G1 X134.912 Y108.108 E35.41437
G1 X134.912 Y107.601 E35.42346
G1 X133.818 Y107.601 E35.44306
G1 X133.818 Y107.094 E35.45215
G1 X134.912 Y107.094 E35.47176
G1 X134.912 Y106.588 E35.48083
G1 X133.818 Y106.588 E35.50043
G1 X133.818 Y106.081 E35.50952
G1 X134.912 Y106.081 E35.52913
G1 X134.912 Y105.574 E35.53821
G1 X133.818 Y105.574 E35.55782
G1 X133.818 Y105.067 E35.56691
G1 X134.912 Y105.067 E35.58651
G1 X134.912 Y104.561 E35.59558
G1 X133.818 Y104.561 E35.61519
G1 X133.818 Y104.054 E35.62427
G1 X134.912 Y104.054 E35.64388
G1 X134.912 Y103.547 E35.65297
G1 X133.818 Y103.547 E35.67257
G1 X133.818 Y103.040 E35.68166
G1 X134.912 Y103.040 E35.70127
G1 X134.912 Y102.534 E35.71033
G1 X133.818 Y102.534 E35.72994
G1 X133.818 Y102.027 E35.73903
G1 X134.912 Y102.027 E35.75863
G1 X134.912 Y101.520 E35.76772
G1 X133.818 Y101.520 E35.78733
G1 X133.818 Y101.013 E35.79641
G1 X134.912 Y101.013 E35.81602
G1 X134.912 Y100.507 E35.82509
G1 X133.818 Y100.507 E35.84470
G1 X133.818 Y100.000 E35.85378
G1 X134.912 Y100.000 E35.87339
G1 X134.912 Y99.493 E35.88247
G1 X133.818 Y99.493 E35.90208
G1 X133.818 Y98.987 E35.91115
G1 X134.912 Y98.987 E35.93076
G1 X134.912 Y98.480 E35.93984
G1 X133.818 Y98.480 E35.95945
G1 X133.818 Y97.973 E35.96854
G1 X134.912 Y97.973 E35.98814
G1 X134.912 Y97.466 E35.99723
G1 X133.818 Y97.466 E36.01684
G1 X133.818 Y96.960 E36.02590
G1 X134.912 Y96.960 E36.04551
G1 X134.912 Y96.453 E36.05460
G1 X133.818 Y96.453 E36.07420
G1 X133.818 Y95.946 E36.08329
G1 X134.912 Y95.946 E36.10290
G1 X134.912 Y95.439 E36.11198
G1 X133.818 Y95.439 E36.13159
G1 X133.818 Y94.933 E36.14066
G1 X134.912 Y94.933 E36.16026
G1 X134.912 Y94.426 E36.16935
G1 X133.818 Y94.426 E36.18896
G1 X133.818 Y93.919 E36.19804
G1 X134.912 Y93.919 E36.21765
G1 X134.912 Y93.413 E36.22672
G1 X133.818 Y93.413 E36.24633
G1 X133.818 Y92.906 E36.25541
G1 X134.912 Y92.906 E36.27502
G1 X134.912 Y92.399 E36.28411
G1 X133.818 Y92.399 E36.30371
G1 X133.818 Y91.892 E36.31280
G1 X134.912 Y91.892 E36.33240
G1 X134.912 Y91.386 E36.34147
G1 X133.818 Y91.386 E36.36108
G1 X133.818 Y90.879 E36.37017
G1 X134.912 Y90.879 E36.38977
G1 X134.912 Y90.372 E36.39886
G1 X133.818 Y90.372 E36.41847
G1 X133.818 Y89.865 E36.42755
G1 X134.912 Y89.865 E36.44716
G1 X134.912 Y89.359 E36.45623
G1 X133.818 Y89.359 E36.47583
G1 X133.818 Y88.852 E36.48492
G1 X134.912 Y88.852 E36.50453
G1 X134.912 Y88.345 E36.51361
G1 X133.818 Y88.345 E36.53322
G1 X133.818 Y87.838 E36.54231
G1 X134.912 Y87.838 E36.56191
G1 X134.912 Y87.332 E36.57098
G1 X133.818 Y87.332 E36.59059
G1 X133.818 Y86.825 E36.59967
G1 X134.912 Y86.825 E36.61928
G1 X134.912 Y86.318 E36.62837
G1 X133.818 Y86.318 E36.64797
G1 X133.818 Y85.812 E36.65704
G1 X134.912 Y85.812 E36.67665
G1 X134.912 Y85.305 E36.68574
G1 X133.818 Y85.305 E36.70534
G1 X133.818 Y84.798 F7800.000
