; generated by Slic3r 0.9.8 on 2013-05-24 at 17:36:27

; layer_height = .25
; perimeters = 1
; top_solid_layers = 4
; bottom_solid_layers = 4
; fill_density = .9
; perimeter_speed = 30
; infill_speed = 40
; travel_speed = 130
; scale = 1
; nozzle_diameter = 0.5
; filament_diameter = 3
; extrusion_multiplier = 1
; perimeters extrusion width = 0.80mm
; infill extrusion width = 0.80mm
; first layer extrusion width = 0.50mm

M107
M104 S210 ; set temperature
G28 ; home all axes
M109 S210 ; wait for temperature to be reached
G90 ; use absolute coordinates
G21 ; set units to millimeters
G92 E0
M82 ; use absolute distances for extrusion
G1 Z0.250 F7800.000
G1 X131.850 Y125.727
G1 X131.300 Y125.747 F900.000 E0.00973
G1 X68.700 Y125.747 E1.11674
G1 X68.150 Y125.727 E1.12648
G1 X67.330 Y125.617 E1.14111
G1 X66.800 Y125.487 E1.15076
G1 X66.280 Y125.317 E1.16043
G1 X65.520 Y124.987 E1.17508
G1 X65.040 Y124.717 E1.18482
G1 X64.370 Y124.247 E1.19930
G1 X64.150 Y124.067 E1.20432
G1 X63.750 Y123.697 E1.21396
G1 X63.200 Y123.077 E1.22861
G1 X62.730 Y122.407 E1.24309
G1 X62.460 Y121.927 E1.25283
G1 X62.230 Y121.427 E1.26256
G1 X61.960 Y120.647 E1.27715
G1 X61.830 Y120.117 E1.28681
G1 X61.720 Y119.297 E1.30144
G1 X61.700 Y118.747 E1.31117
G1 X61.700 Y79.247 E2.00968
G1 X61.720 Y78.697 E2.01941
G1 X61.830 Y77.877 E2.03404
G1 X61.960 Y77.347 E2.04370
G1 X62.130 Y76.827 E2.05337
G1 X62.340 Y76.317 E2.06312
G1 X62.590 Y75.827 E2.07285
G1 X62.880 Y75.357 E2.08262
G1 X63.380 Y74.697 E2.09726
G1 X63.750 Y74.297 E2.10690
G1 X64.150 Y73.927 E2.11653
G1 X64.810 Y73.427 E2.13117
G1 X65.280 Y73.137 E2.14094
G1 X65.770 Y72.887 E2.15067
G1 X66.280 Y72.677 E2.16042
G1 X66.800 Y72.507 E2.17010
G1 X67.330 Y72.377 E2.17975
G1 X68.150 Y72.267 E2.19438
G1 X68.700 Y72.247 E2.20411
G1 X131.300 Y72.247 E3.31112
G1 X131.850 Y72.267 E3.32085
G1 X132.670 Y72.377 E3.33548
G1 X133.200 Y72.507 E3.34513
G1 X133.720 Y72.677 E3.35481
G1 X134.480 Y73.007 E3.36946
G1 X134.960 Y73.277 E3.37920
G1 X135.630 Y73.747 E3.39367
G1 X135.850 Y73.927 E3.39870
G1 X136.250 Y74.297 E3.40833
G1 X136.800 Y74.917 E3.42299
G1 X137.270 Y75.587 E3.43746
G1 X137.540 Y76.067 E3.44720
G1 X137.770 Y76.567 E3.45693
G1 X138.040 Y77.347 E3.47153
G1 X138.170 Y77.877 E3.48118
G1 X138.280 Y78.697 E3.49581
G1 X138.300 Y79.247 E3.50554
G1 X138.300 Y118.747 E4.20406
G1 X138.280 Y119.297 E4.21379
G1 X138.170 Y120.117 E4.22842
G1 X138.040 Y120.647 E4.23807
G1 X137.870 Y121.167 E4.24775
G1 X137.660 Y121.677 E4.25750
G1 X137.410 Y122.167 E4.26723
G1 X137.120 Y122.637 E4.27699
G1 X136.620 Y123.297 E4.29164
G1 X136.250 Y123.697 E4.30127
G1 X135.850 Y124.067 E4.31091
G1 X135.190 Y124.567 E4.32555
G1 X134.720 Y124.857 E4.33532
G1 X134.230 Y125.107 E4.34504
G1 X133.720 Y125.317 E4.35480
G1 X133.200 Y125.487 E4.36447
G1 X132.670 Y125.617 E4.37412
G1 X131.925 Y125.719 E4.38743
G1 X131.850 Y125.727 E4.38875
G1 X131.820 Y125.227 F7800.000
G1 X131.300 Y125.247 F900.000 E4.39796
G1 X68.700 Y125.247 E5.50497
G1 X68.180 Y125.227 E5.51417
G1 X67.660 Y125.167 E5.52343
G1 X67.140 Y125.057 E5.53282
G1 X66.640 Y124.917 E5.54201
G1 X66.400 Y124.827 E5.54654
G1 X65.910 Y124.617 E5.55597
G1 X65.450 Y124.377 E5.56514
G1 X64.800 Y123.947 E5.57892
G1 X64.390 Y123.617 E5.58823
G1 X63.830 Y123.057 E5.60224
G1 X63.500 Y122.647 E5.61154
G1 X63.350 Y122.437 E5.61611
G1 X62.940 Y121.767 E5.63000
G1 X62.720 Y121.297 E5.63917
G1 X62.530 Y120.807 E5.64847
G1 X62.330 Y120.047 E5.66237
G1 X62.280 Y119.787 E5.66705
G1 X62.220 Y119.267 E5.67630
G1 X62.200 Y118.747 E5.68551
G1 X62.200 Y79.247 E6.38402
G1 X62.220 Y78.727 E6.39322
G1 X62.280 Y78.207 E6.40248
G1 X62.390 Y77.687 E6.41188
G1 X62.530 Y77.187 E6.42106
G1 X62.720 Y76.697 E6.43035
G1 X62.940 Y76.227 E6.43953
G1 X63.350 Y75.557 E6.45342
G1 X63.830 Y74.937 E6.46729
G1 X64.010 Y74.747 E6.47192
G1 X64.390 Y74.377 E6.48129
G1 X64.800 Y74.047 E6.49060
G1 X65.450 Y73.617 E6.50438
G1 X65.910 Y73.377 E6.51356
G1 X66.640 Y73.077 E6.52752
G1 X67.140 Y72.937 E6.53670
G1 X67.660 Y72.827 E6.54610
G1 X68.180 Y72.767 E6.55535
G1 X68.700 Y72.747 E6.56456
G1 X131.300 Y72.747 E7.67157
G1 X131.820 Y72.767 E7.68077
G1 X132.340 Y72.827 E7.69003
G1 X132.860 Y72.937 E7.69943
G1 X133.360 Y73.077 E7.70861
G1 X133.600 Y73.167 E7.71314
G1 X134.090 Y73.377 E7.72257
G1 X134.550 Y73.617 E7.73174
G1 X135.200 Y74.047 E7.74552
G1 X135.610 Y74.377 E7.75483
G1 X136.170 Y74.937 E7.76884
G1 X136.500 Y75.347 E7.77814
G1 X136.650 Y75.557 E7.78271
G1 X137.060 Y76.227 E7.79660
G1 X137.280 Y76.697 E7.80577
G1 X137.470 Y77.187 E7.81507
G1 X137.670 Y77.947 E7.82897
G1 X137.720 Y78.207 E7.83365
G1 X137.780 Y78.727 E7.84290
G1 X137.800 Y79.247 E7.85211
G1 X137.800 Y118.747 E8.55062
G1 X137.780 Y119.267 E8.55982
G1 X137.720 Y119.787 E8.56908
G1 X137.610 Y120.307 E8.57848
G1 X137.470 Y120.807 E8.58766
G1 X137.280 Y121.297 E8.59695
G1 X137.060 Y121.767 E8.60613
G1 X136.650 Y122.437 E8.62002
G1 X136.170 Y123.057 E8.63389
G1 X135.990 Y123.247 E8.63852
G1 X135.610 Y123.617 E8.64790
G1 X135.200 Y123.947 E8.65720
G1 X134.990 Y124.097 E8.66177
G1 X134.320 Y124.507 E8.67566
G1 X133.850 Y124.727 E8.68483
G1 X133.360 Y124.917 E8.69413
G1 X132.600 Y125.117 E8.70802
G1 X132.340 Y125.167 E8.71271
G1 X131.895 Y125.218 E8.72064
G1 X131.820 Y125.227 E8.72196
G1 X129.158 Y116.755 F7800.000
G1 X120.844 Y116.755 F900.000 E8.86897
G1 X120.844 Y114.255 E8.91318
G1 X126.648 Y114.255 E9.01581
G1 X126.648 Y83.757 E9.55513
G1 X120.844 Y83.757 E9.65775
G1 X120.844 Y81.257 E9.70196
G1 X129.158 Y81.257 E9.84897
G1 X129.158 Y116.680 E10.47539
G1 X129.158 Y116.755 E10.47671
G1 X128.658 Y116.255 F7800.000
G1 X121.344 Y116.255 F900.000 E10.60604
G1 X121.344 Y114.755 E10.63256
G1 X127.148 Y114.755 E10.73519
G1 X127.148 Y114.315 E10.74297
G1 X127.148 Y83.257 E11.29219
G1 X121.344 Y83.257 E11.39482
G1 X121.344 Y81.757 E11.42134
G1 X128.658 Y81.757 E11.55067
G1 X128.658 Y116.180 E12.15940
G1 X128.658 Y116.255 E12.16072
G1 X128.658 Y116.755 F7800.000
G1 X79.160 Y116.755
G1 X70.846 Y116.755 F900.000 E12.30773
G1 X70.846 Y114.255 E12.35194
G1 X76.650 Y114.255 E12.45457
G1 X76.650 Y83.757 E12.99389
G1 X70.846 Y83.757 E13.09651
G1 X70.846 Y81.257 E13.14072
G1 X79.160 Y81.257 E13.28773
G1 X79.160 Y116.680 E13.91415
G1 X79.160 Y116.755 E13.91547
G1 X78.660 Y116.255 F7800.000
G1 X71.346 Y116.255 F900.000 E14.04480
G1 X71.346 Y114.755 E14.07132
G1 X77.150 Y114.755 E14.17395
G1 X77.150 Y114.315 E14.18173
G1 X77.150 Y83.257 E14.73095
G1 X71.346 Y83.257 E14.83358
G1 X71.346 Y81.757 E14.86010
G1 X78.660 Y81.757 E14.98943
G1 X78.660 Y116.180 E15.59816
G1 X78.660 Y116.255 E15.59949
G1 X78.660 Y116.755 F7800.000
G1 X80.804 Y118.255
G1 X69.200 Y118.255 F900.000 E15.80468
G1 X69.200 Y79.757 E16.48547
G1 X80.804 Y79.757 E16.69066
G1 X80.804 Y92.407 E16.91436
G1 X98.252 Y92.407 E17.22292
G1 X98.252 Y93.505 E17.24233
G1 X96.576 Y93.505 E17.27197
G1 X95.298 Y93.166 E17.29535
G1 X94.959 Y94.440 E17.31867
G1 X91.534 Y100.372 E17.43979
G1 X90.598 Y101.304 E17.46315
G1 X91.534 Y102.240 E17.48655
G1 X94.959 Y108.172 E17.60769
G1 X95.299 Y109.448 E17.63104
G1 X96.577 Y109.105 E17.65445
G1 X103.425 Y109.105 E17.77555
G1 X104.703 Y109.448 E17.79896
G1 X105.043 Y108.172 E17.82231
G1 X108.468 Y102.240 E17.94345
G1 X109.404 Y101.304 E17.96685
G1 X108.468 Y100.372 E17.99021
G1 X105.043 Y94.440 E18.11133
G1 X104.704 Y93.166 E18.13465
G1 X103.426 Y93.505 E18.15803
G1 X101.750 Y93.505 E18.18767
G1 X101.750 Y92.407 E18.20709
G1 X119.198 Y92.407 E18.51564
G1 X119.198 Y79.757 E18.73934
G1 X130.802 Y79.757 E18.94453
G1 X130.802 Y118.255 E19.62533
G1 X119.198 Y118.255 E19.83052
G1 X119.198 Y110.205 E19.97287
G1 X80.804 Y110.205 E20.65184
G1 X80.804 Y118.180 E20.79287
G1 X80.804 Y118.255 E20.79420
G1 X81.304 Y118.755 F7800.000
G1 X68.700 Y118.755 F900.000 E21.01707
G1 X68.700 Y79.257 E21.71555
G1 X81.304 Y79.257 E21.93842
G1 X81.304 Y91.907 E22.16212
G1 X98.752 Y91.907 E22.47068
G1 X98.752 Y94.005 E22.50778
G1 X96.511 Y94.005 E22.54741
G1 X95.653 Y93.777 E22.56311
G1 X95.425 Y94.633 E22.57876
G1 X91.934 Y100.679 E22.70223
G1 X91.306 Y101.305 E22.71790
G1 X91.934 Y101.933 E22.73361
G1 X95.425 Y107.979 E22.85708
G1 X95.653 Y108.835 E22.87275
G1 X96.511 Y108.605 E22.88846
G1 X103.491 Y108.605 E23.01189
G1 X104.349 Y108.835 E23.02760
G1 X104.577 Y107.979 E23.04327
G1 X108.068 Y101.933 E23.16674
G1 X108.696 Y101.305 E23.18245
G1 X108.068 Y100.679 E23.19812
G1 X104.577 Y94.633 E23.32159
G1 X104.349 Y93.777 E23.33724
G1 X103.491 Y94.005 E23.35294
G1 X101.250 Y94.005 E23.39257
G1 X101.250 Y91.907 E23.42967
G1 X118.698 Y91.907 E23.73823
G1 X118.698 Y79.257 E23.96193
G1 X131.302 Y79.257 E24.18480
G1 X131.302 Y118.755 E24.88328
G1 X118.698 Y118.755 E25.10615
G1 X118.698 Y110.705 E25.24851
G1 X81.304 Y110.705 E25.90980
G1 X81.304 Y118.680 E26.05082
G1 X81.304 Y118.755 E26.05215
G1 X80.871 Y118.505 F7800.000
G1 X109.650 Y101.540
G1 X126.373 Y101.540 F1500.000 E26.35185
G1 X126.373 Y102.046 E26.36093
G1 X109.143 Y102.046 E26.66972
G1 X108.639 Y102.553 E26.68253
G1 X126.373 Y102.553 E27.00034
G1 X126.373 Y103.060 E27.00942
G1 X108.347 Y103.060 E27.33248
G1 X108.054 Y103.567 E27.34297
G1 X126.373 Y103.567 E27.67127
G1 X126.373 Y104.073 E27.68035
G1 X107.762 Y104.073 E28.01390
G1 X107.469 Y104.580 E28.02438
G1 X126.373 Y104.580 E28.36317
G1 X126.373 Y105.087 E28.37225
G1 X107.177 Y105.087 E28.71628
G1 X106.884 Y105.593 E28.72677
G1 X126.373 Y105.593 E29.07604
G1 X126.373 Y106.100 E29.08513
G1 X106.591 Y106.100 E29.43964
G1 X106.299 Y106.607 E29.45013
G1 X126.373 Y106.607 E29.80989
G1 X126.373 Y107.114 E29.81897
G1 X106.006 Y107.114 E30.18397
G1 X105.714 Y107.620 E30.19446
G1 X126.373 Y107.620 E30.56471
G1 X126.373 Y108.127 E30.57379
G1 X105.421 Y108.127 E30.94928
G1 X105.212 Y108.634 E30.95910
G1 X126.373 Y108.634 E31.33833
G1 X126.373 Y109.141 E31.34741
G1 X105.078 Y109.141 E31.72906
G1 X104.943 Y109.647 E31.73846
G1 X126.373 Y109.647 E32.12253
G1 X119.473 Y110.154 F7800.000
G1 X126.373 Y110.154 F1500.000 E32.24618
G1 X126.373 Y110.661 E32.25526
G1 X119.473 Y110.661 E32.37891
G1 X119.473 Y111.168 E32.38799
G1 X126.373 Y111.168 E32.51164
G1 X126.373 Y111.674 E32.52072
G1 X119.473 Y111.674 E32.64437
G1 X119.473 Y112.181 E32.65345
G1 X126.373 Y112.181 E32.77710
G1 X126.373 Y112.688 E32.78619
G1 X119.473 Y112.688 E32.90984
G1 X119.473 Y113.194 E32.91892
G1 X126.373 Y113.194 E33.04257
G1 X126.373 Y113.701 E33.05165
G1 X119.473 Y113.701 E33.17530
G1 X120.569 Y114.208 E33.19694
G1 X119.473 Y114.208 E33.21659
G1 X119.473 Y114.715 E33.22567
G1 X120.569 Y114.715 E33.24532
G1 X120.569 Y115.221 E33.25440
G1 X119.473 Y115.221 E33.27405
G1 X119.473 Y115.728 E33.28313
G1 X120.569 Y115.728 E33.30277
G1 X120.569 Y116.235 E33.31186
G1 X119.473 Y116.235 E33.33150
G1 X119.473 Y116.742 E33.34058
G1 X120.569 Y116.742 E33.36023
G1 X120.569 Y117.248 E33.36931
G1 X119.473 Y117.248 E33.38896
G1 X119.473 Y117.755 E33.39804
G1 X130.527 Y117.755 E33.59613
G1 X129.432 Y117.248 F7800.000
G1 X130.527 Y117.248 F1500.000 E33.61574
G1 X130.527 Y116.742 E33.62482
G1 X129.432 Y116.742 E33.64443
G1 X129.432 Y116.235 E33.65351
G1 X130.527 Y116.235 E33.67312
G1 X130.527 Y115.728 E33.68220
G1 X129.432 Y115.728 E33.70181
G1 X129.432 Y115.221 E33.71089
G1 X130.527 Y115.221 E33.73050
G1 X130.527 Y114.715 E33.73958
G1 X129.432 Y114.715 E33.75919
G1 X129.432 Y114.208 E33.76827
G1 X130.527 Y114.208 E33.78788
G1 X130.527 Y113.701 E33.79696
G1 X129.432 Y113.701 E33.81657
G1 X129.432 Y113.194 E33.82565
G1 X130.527 Y113.194 E33.84526
G1 X130.527 Y112.688 E33.85434
G1 X129.432 Y112.688 E33.87395
G1 X129.432 Y112.181 E33.88303
G1 X130.527 Y112.181 E33.90264
G1 X130.527 Y111.674 E33.91172
G1 X129.432 Y111.674 E33.93133
G1 X129.432 Y111.168 E33.94041
G1 X130.527 Y111.168 E33.96002
G1 X130.527 Y110.661 E33.96910
G1 X129.432 Y110.661 E33.98871
G1 X129.432 Y110.154 E33.99779
G1 X130.527 Y110.154 E34.01740
G1 X130.527 Y109.647 E34.02648
G1 X129.432 Y109.647 E34.04609
G1 X129.432 Y109.141 E34.05517
G1 X130.527 Y109.141 E34.07478
G1 X130.527 Y108.634 E34.08386
G1 X129.432 Y108.634 E34.10347
G1 X129.432 Y108.127 E34.11255
G1 X130.527 Y108.127 E34.13216
G1 X130.527 Y107.620 E34.14124
G1 X129.432 Y107.620 E34.16085
G1 X129.432 Y107.114 E34.16993
G1 X130.527 Y107.114 E34.18954
G1 X130.527 Y106.607 E34.19862
G1 X129.432 Y106.607 E34.21823
G1 X129.432 Y106.100 E34.22731
G1 X130.527 Y106.100 E34.24692
G1 X130.527 Y105.593 E34.25600
G1 X129.432 Y105.593 E34.27561
G1 X129.432 Y105.087 E34.28469
G1 X130.527 Y105.087 E34.30430
G1 X130.527 Y104.580 E34.31338
G1 X129.432 Y104.580 E34.33299
G1 X129.432 Y104.073 E34.34207
G1 X130.527 Y104.073 E34.36168
G1 X130.527 Y103.567 E34.37076
G1 X129.432 Y103.567 E34.39037
G1 X129.432 Y103.060 E34.39945
G1 X130.527 Y103.060 E34.41906
G1 X130.527 Y102.553 E34.42814
G1 X129.432 Y102.553 E34.44775
G1 X129.432 Y102.046 E34.45683
G1 X130.527 Y102.046 E34.47644
G1 X130.527 Y101.540 E34.48552
G1 X129.432 Y101.540 E34.50513
G1 X129.432 Y101.033 E34.51421
G1 X130.527 Y101.033 E34.53382
G1 X130.527 Y100.526 E34.54290
G1 X129.432 Y100.526 E34.56251
G1 X129.432 Y100.020 E34.57158
G1 X130.527 Y100.020 E34.59119
G1 X130.527 Y99.513 E34.60028
G1 X129.432 Y99.513 E34.61989
G1 X129.432 Y99.006 E34.62897
G1 X130.527 Y99.006 E34.64858
G1 X130.527 Y98.499 E34.65767
G1 X129.432 Y98.499 E34.67727
G1 X129.432 Y97.993 E34.68634
G1 X130.527 Y97.993 E34.70595
G1 X130.527 Y97.486 E34.71504
G1 X129.432 Y97.486 E34.73465
G1 X129.432 Y96.979 E34.74373
G1 X130.527 Y96.979 E34.76334
G1 X130.527 Y96.472 E34.77243
G1 X129.432 Y96.472 E34.79204
G1 X129.432 Y95.966 E34.80110
G1 X130.527 Y95.966 E34.82071
G1 X130.527 Y95.459 E34.82980
G1 X129.432 Y95.459 E34.84941
G1 X129.432 Y94.952 E34.85849
G1 X130.527 Y94.952 E34.87810
G1 X130.527 Y94.445 E34.88719
G1 X129.432 Y94.445 E34.90680
G1 X129.432 Y93.939 E34.91587
G1 X130.527 Y93.939 E34.93547
G1 X130.527 Y93.432 E34.94456
G1 X129.432 Y93.432 E34.96417
G1 X129.432 Y92.925 E34.97325
G1 X130.527 Y92.925 E34.99286
G1 X130.527 Y92.419 E35.00193
G1 X129.432 Y92.419 E35.02154
G1 X129.432 Y91.912 E35.03063
G1 X130.527 Y91.912 E35.05023
G1 X130.527 Y91.405 E35.05932
G1 X129.432 Y91.405 E35.07893
G1 X129.432 Y90.898 E35.08802
G1 X130.527 Y90.898 E35.10762
G1 X130.527 Y90.392 E35.11669
G1 X129.432 Y90.392 E35.13630
G1 X129.432 Y89.885 E35.14539
G1 X130.527 Y89.885 E35.16500
G1 X130.527 Y89.378 E35.17408
G1 X129.432 Y89.378 E35.19369
G1 X129.432 Y88.871 E35.20278
G1 X130.527 Y88.871 E35.22239
G1 X130.527 Y88.365 E35.23145
G1 X129.432 Y88.365 E35.25106
G1 X129.432 Y87.858 E35.26015
G1 X130.527 Y87.858 E35.27976
G1 X130.527 Y87.351 E35.28884
G1 X129.432 Y87.351 E35.30845
G1 X129.432 Y86.845 E35.31752
G1 X130.527 Y86.845 E35.33713
G1 X130.527 Y86.338 E35.34621
G1 X129.432 Y86.338 E35.36582
G1 X129.432 Y85.831 E35.37491
G1 X130.527 Y85.831 E35.39452
G1 X130.527 Y85.324 E35.40360
G1 X129.432 Y85.324 E35.42321
G1 X129.432 Y84.818 E35.43228
G1 X130.527 Y84.818 E35.45189
G1 X130.527 Y84.311 E35.46098
G1 X129.432 Y84.311 E35.48058
G1 X129.432 Y83.804 E35.48967
G1 X130.527 Y83.804 E35.50928
G1 X130.527 Y83.297 E35.51837
G1 X129.432 Y83.297 E35.53797
G1 X129.432 Y82.791 E35.54704
G1 X130.527 Y82.791 E35.56665
G1 X130.527 Y82.284 E35.57574
G1 X129.432 Y82.284 E35.59535
G1 X129.432 Y81.777 E35.60443
G1 X130.527 Y81.777 E35.62404
G1 X130.527 Y81.271 E35.63311
G1 X129.432 Y81.271 E35.65272
G1 X129.432 Y80.764 E35.66180
G1 X130.527 Y80.764 E35.68141
G1 X130.527 Y80.257 E35.69050
G1 X119.473 Y80.257 E35.88859
G1 X120.569 Y80.764 E35.91024
G1 X119.473 Y80.764 E35.92989
G1 X119.473 Y81.271 E35.93897
G1 X120.569 Y81.271 E35.95862
