; generated by Slic3r 0.9.8 on 2013-07-07 at 01:00:31

; layer_height = .25
; perimeters = 1
; top_solid_layers = 4
; bottom_solid_layers = 4
; fill_density = .9
; perimeter_speed = 30
; infill_speed = 40
; travel_speed = 130
; scale = 1
; nozzle_diameter = 0.5
; filament_diameter = 3
; extrusion_multiplier = 1
; perimeters extrusion width = 0.80mm
; infill extrusion width = 0.80mm
; first layer extrusion width = 0.50mm

M107
M104 S220 ; set temperature
G28 ; home all axes
M109 S220 ; wait for temperature to be reached
G90 ; use absolute coordinates
G21 ; set units to millimeters
G92 E0
M82 ; use absolute distances for extrusion
G1 Z0.250 F7800.000
G1 X114.434 Y119.331
G1 X113.934 Y119.991 F900.000 E0.01464
G1 X113.564 Y120.391 E0.02428
G1 X112.944 Y120.941 E0.03893
G1 X112.274 Y121.411 E0.05341
G1 X111.794 Y121.681 E0.06315
G1 X111.034 Y122.011 E0.07780
G1 X110.244 Y122.251 E0.09240
G1 X109.714 Y122.351 E0.10194
G1 X109.164 Y122.421 E0.11174
G1 X108.614 Y122.441 E0.12147
G1 X93.234 Y122.441 E0.39345
G1 X92.684 Y122.421 E0.40318
G1 X92.414 Y122.391 E0.40799
G1 X91.864 Y122.311 E0.41782
G1 X91.334 Y122.181 E0.42747
G1 X90.554 Y121.911 E0.44206
G1 X89.814 Y121.551 E0.45662
G1 X89.344 Y121.261 E0.46638
G1 X88.904 Y120.941 E0.47600
G1 X88.284 Y120.391 E0.49066
G1 X87.734 Y119.771 E0.50532
G1 X87.264 Y119.101 E0.51979
G1 X86.874 Y118.371 E0.53442
G1 X86.574 Y117.601 E0.54904
G1 X86.364 Y116.811 E0.56349
G1 X86.254 Y115.991 E0.57812
G1 X86.234 Y115.441 E0.58786
G1 X86.234 Y106.031 E0.75426
G1 X86.294 Y105.131 E0.77021
G1 X89.114 Y83.371 E1.15823
G1 X89.294 Y82.571 E1.17273
G1 X89.464 Y82.061 E1.18224
G1 X89.804 Y81.311 E1.19680
G1 X90.074 Y80.841 E1.20639
G1 X90.544 Y80.171 E1.22086
G1 X91.094 Y79.561 E1.23538
G1 X91.704 Y79.021 E1.24979
G1 X92.154 Y78.701 E1.25956
G1 X92.614 Y78.421 E1.26908
G1 X93.104 Y78.171 E1.27881
G1 X93.604 Y77.971 E1.28833
G1 X94.394 Y77.731 E1.30293
G1 X94.924 Y77.621 E1.31250
G1 X95.464 Y77.561 E1.32211
G1 X96.014 Y77.541 E1.33184
G1 X105.834 Y77.541 E1.50550
G1 X106.384 Y77.561 E1.51523
G1 X106.924 Y77.621 E1.52484
G1 X107.194 Y77.671 E1.52970
G1 X107.724 Y77.801 E1.53935
G1 X108.494 Y78.061 E1.55372
G1 X108.994 Y78.291 E1.56345
G1 X109.694 Y78.701 E1.57780
G1 X110.354 Y79.191 E1.59233
G1 X110.754 Y79.561 E1.60197
G1 X111.304 Y80.171 E1.61649
G1 X111.774 Y80.841 E1.63097
G1 X111.914 Y81.071 E1.63573
G1 X112.164 Y81.561 E1.64545
G1 X112.474 Y82.311 E1.65981
G1 X112.624 Y82.841 E1.66955
G1 X112.734 Y83.371 E1.67912
G1 X115.554 Y105.121 E2.06696
G1 X115.614 Y106.021 E2.08291
G1 X115.614 Y115.441 E2.24950
G1 X115.594 Y115.991 E2.25923
G1 X115.484 Y116.811 E2.27386
G1 X115.274 Y117.601 E2.28831
G1 X114.974 Y118.371 E2.30293
G1 X114.724 Y118.861 E2.31266
G1 X114.475 Y119.268 E2.32110
G1 X114.434 Y119.331 E2.32242
G1 X113.964 Y119.131 F7800.000
G1 X113.484 Y119.751 F900.000 E2.33629
G1 X112.924 Y120.311 E2.35029
G1 X112.514 Y120.641 E2.35960
G1 X111.864 Y121.071 E2.37338
G1 X111.634 Y121.201 E2.37805
G1 X111.164 Y121.421 E2.38723
G1 X110.674 Y121.611 E2.39652
G1 X110.174 Y121.751 E2.40571
G1 X109.654 Y121.861 E2.41511
G1 X109.134 Y121.921 E2.42436
G1 X108.614 Y121.941 E2.43356
G1 X93.234 Y121.941 E2.70554
G1 X92.714 Y121.921 E2.71475
G1 X92.194 Y121.861 E2.72400
G1 X91.674 Y121.751 E2.73340
G1 X91.174 Y121.611 E2.74258
G1 X90.684 Y121.421 E2.75188
G1 X90.214 Y121.201 E2.76105
G1 X89.984 Y121.071 E2.76573
G1 X89.334 Y120.641 E2.77951
G1 X88.924 Y120.311 E2.78881
G1 X88.734 Y120.131 E2.79344
G1 X88.364 Y119.751 E2.80282
G1 X88.034 Y119.341 E2.81213
G1 X87.604 Y118.691 E2.82591
G1 X87.474 Y118.461 E2.83058
G1 X87.254 Y117.991 E2.83976
G1 X87.064 Y117.501 E2.84905
G1 X86.864 Y116.741 E2.86295
G1 X86.814 Y116.481 E2.86763
G1 X86.754 Y115.961 E2.87689
G1 X86.734 Y115.441 E2.88609
G1 X86.734 Y106.031 E3.05250
G1 X86.784 Y105.201 E3.06720
G1 X89.604 Y83.441 E3.45522
G1 X89.654 Y83.181 E3.45990
G1 X89.794 Y82.661 E3.46943
G1 X89.964 Y82.151 E3.47893
G1 X90.184 Y81.661 E3.48843
G1 X90.444 Y81.191 E3.49793
G1 X90.894 Y80.531 E3.51206
G1 X91.434 Y79.931 E3.52633
G1 X92.034 Y79.401 E3.54049
G1 X92.244 Y79.241 E3.54516
G1 X92.694 Y78.951 E3.55462
G1 X93.414 Y78.581 E3.56894
G1 X93.654 Y78.481 E3.57354
G1 X94.164 Y78.311 E3.58304
G1 X94.684 Y78.181 E3.59252
G1 X95.214 Y78.091 E3.60203
G1 X95.474 Y78.061 E3.60666
G1 X96.014 Y78.041 E3.61621
G1 X105.834 Y78.041 E3.78987
G1 X106.374 Y78.061 E3.79942
G1 X107.164 Y78.181 E3.81355
G1 X107.684 Y78.311 E3.82303
G1 X108.194 Y78.481 E3.83254
G1 X108.434 Y78.581 E3.83714
G1 X109.154 Y78.951 E3.85145
G1 X109.604 Y79.241 E3.86092
G1 X110.024 Y79.571 E3.87037
G1 X110.604 Y80.121 E3.88450
G1 X110.954 Y80.531 E3.89403
G1 X111.404 Y81.191 E3.90816
G1 X111.664 Y81.661 E3.91766
G1 X111.884 Y82.151 E3.92716
G1 X112.054 Y82.661 E3.93666
G1 X112.194 Y83.181 E3.94619
G1 X112.244 Y83.441 E3.95087
G1 X115.064 Y105.191 E4.33871
G1 X115.114 Y106.021 E4.35342
G1 X115.114 Y115.441 E4.52000
G1 X115.094 Y115.961 E4.52920
G1 X115.034 Y116.481 E4.53846
G1 X114.984 Y116.741 E4.54314
G1 X114.784 Y117.501 E4.55704
G1 X114.594 Y117.991 E4.56633
G1 X114.374 Y118.461 E4.57551
G1 X114.005 Y119.068 E4.58807
G1 X113.964 Y119.131 E4.58940
G1 X106.441 Y113.274 F7800.000
G1 X95.416 Y113.274 F300.000 E4.78436
G1 X95.416 Y108.202 E4.87405
G1 X106.441 Y108.202 E5.06902
G1 X106.441 Y113.199 E5.15738
G1 X106.441 Y113.274 E5.15871
G1 X105.941 Y112.774 F7800.000
G1 X95.916 Y112.774 F300.000 E5.33599
G1 X95.916 Y108.702 E5.40800
G1 X105.941 Y108.702 E5.58528
G1 X105.941 Y112.699 E5.65596
G1 X105.941 Y112.774 E5.65728
G1 X105.941 Y113.274 F7800.000
G1 X108.116 Y114.949
G1 X93.741 Y114.949 F900.000 E5.91149
G1 X93.741 Y106.536 E6.06026
G1 X96.668 Y106.526 E6.11203
G1 X97.027 Y105.461 E6.13189
G1 X96.392 Y104.974 E6.14605
G1 X95.373 Y103.645 E6.17566
G1 X94.732 Y102.098 E6.20528
G1 X94.513 Y100.438 E6.23489
G1 X94.732 Y98.778 E6.26450
G1 X95.373 Y97.231 E6.29412
G1 X96.519 Y95.737 E6.32740
G1 X96.519 Y85.051 E6.51638
G1 X98.194 Y85.051 E6.54600
G1 X98.194 Y96.631 E6.75078
G1 X97.587 Y97.097 E6.76431
G1 X96.836 Y98.075 E6.78612
G1 X96.364 Y99.215 E6.80793
G1 X96.203 Y100.438 E6.82975
G1 X96.364 Y101.661 E6.85156
G1 X96.836 Y102.801 E6.87338
G1 X97.587 Y103.779 E6.89519
G1 X98.565 Y104.530 E6.91700
G1 X99.705 Y105.002 E6.93882
G1 X100.928 Y105.163 E6.96063
G1 X102.151 Y105.002 E6.98244
G1 X103.291 Y104.530 E7.00426
G1 X104.269 Y103.779 E7.02607
G1 X105.020 Y102.801 E7.04788
G1 X105.492 Y101.661 E7.06970
G1 X105.653 Y100.438 E7.09151
G1 X105.492 Y99.215 E7.11333
G1 X105.020 Y98.075 E7.13514
G1 X104.269 Y97.097 E7.15695
G1 X103.662 Y96.631 E7.17048
G1 X103.662 Y85.051 E7.37526
G1 X105.337 Y85.051 E7.40488
G1 X105.337 Y95.737 E7.59386
G1 X106.483 Y97.231 E7.62714
G1 X107.124 Y98.778 E7.65676
G1 X107.343 Y100.438 E7.68637
G1 X107.124 Y102.098 E7.71598
G1 X106.483 Y103.645 E7.74560
G1 X105.464 Y104.974 E7.77521
G1 X104.829 Y105.461 E7.78936
G1 X105.191 Y106.527 E7.80927
G1 X108.116 Y106.527 E7.86099
G1 X108.116 Y114.874 E8.00859
G1 X108.116 Y114.949 E8.00992
G1 X108.616 Y115.449 F7800.000
G1 X93.241 Y115.449 F900.000 E8.28181
G1 X93.241 Y106.038 E8.44823
G1 X96.309 Y106.027 E8.50249
G1 X96.439 Y105.640 E8.50971
G1 X96.036 Y105.330 E8.51870
G1 X94.936 Y103.897 E8.55064
G1 X94.245 Y102.229 E8.58258
G1 X94.009 Y100.438 E8.61453
G1 X94.245 Y98.647 E8.64647
G1 X94.936 Y96.978 E8.67841
G1 X96.019 Y95.568 E8.70986
G1 X96.019 Y84.551 E8.90467
G1 X98.694 Y84.551 E8.95198
G1 X98.694 Y96.878 E9.16996
G1 X97.943 Y97.453 E9.18669
G1 X97.273 Y98.327 E9.20617
G1 X96.851 Y99.345 E9.22566
G1 X96.707 Y100.438 E9.24514
G1 X96.851 Y101.530 E9.26463
G1 X97.273 Y102.548 E9.28411
G1 X97.943 Y103.423 E9.30360
G1 X98.818 Y104.093 E9.32308
G1 X99.836 Y104.515 E9.34257
G1 X100.928 Y104.659 E9.36205
G1 X102.020 Y104.515 E9.38154
G1 X103.038 Y104.093 E9.40103
G1 X103.913 Y103.423 E9.42051
G1 X104.583 Y102.548 E9.44000
G1 X105.005 Y101.530 E9.45948
G1 X105.149 Y100.438 E9.47897
G1 X105.005 Y99.345 E9.49845
G1 X104.583 Y98.327 E9.51794
G1 X103.913 Y97.453 E9.53742
G1 X103.162 Y96.878 E9.55415
G1 X103.162 Y84.551 E9.77213
G1 X105.837 Y84.551 E9.81944
G1 X105.837 Y95.568 E10.01425
G1 X106.920 Y96.978 E10.04570
G1 X107.611 Y98.647 E10.07764
G1 X107.847 Y100.438 E10.10958
G1 X107.611 Y102.229 E10.14152
G1 X106.920 Y103.897 E10.17347
G1 X105.820 Y105.330 E10.20541
G1 X105.418 Y105.639 E10.21439
G1 X105.549 Y106.027 E10.22163
G1 X108.616 Y106.027 E10.27585
G1 X108.616 Y115.374 E10.44114
G1 X108.616 Y115.449 E10.44246
G1 X108.183 Y115.199 F7800.000
G1 X107.841 Y114.449
G1 X94.016 Y114.449 F1500.000 E10.69036
G1 X94.016 Y113.942 E10.69945
G1 X107.841 Y113.942 E10.94735
G1 X107.841 Y113.435 E10.95644
G1 X106.715 Y113.435 E10.97661
G1 X106.715 Y112.928 E10.98570
G1 X107.841 Y112.928 E11.00588
G1 X107.841 Y112.421 E11.01497
G1 X106.715 Y112.421 E11.03514
G1 X106.715 Y111.914 E11.04423
G1 X107.841 Y111.914 E11.06441
G1 X107.841 Y111.407 E11.07350
G1 X106.715 Y111.407 E11.09367
G1 X106.715 Y110.900 E11.10276
G1 X107.841 Y110.900 E11.12294
G1 X107.841 Y110.393 E11.13203
G1 X106.715 Y110.393 E11.15220
G1 X106.715 Y109.886 E11.16129
G1 X107.841 Y109.886 E11.18147
G1 X107.841 Y109.379 E11.19056
G1 X106.715 Y109.379 E11.21073
G1 X106.715 Y108.872 E11.21982
G1 X107.841 Y108.872 E11.24000
G1 X107.841 Y108.365 E11.24909
G1 X106.715 Y108.365 E11.26926
G1 X106.715 Y107.858 E11.27835
G1 X107.841 Y107.858 E11.29853
G1 X107.841 Y107.351 E11.30762
G1 X94.016 Y107.351 E11.55551
G1 X94.016 Y107.858 E11.56460
G1 X95.141 Y107.858 E11.58478
G1 X95.141 Y108.365 E11.59387
G1 X94.016 Y108.365 E11.61404
G1 X94.016 Y108.872 E11.62313
G1 X95.141 Y108.872 E11.64331
G1 X95.141 Y109.379 E11.65240
G1 X94.016 Y109.379 E11.67257
G1 X94.016 Y109.886 E11.68166
G1 X95.141 Y109.886 E11.70184
G1 X95.141 Y110.393 E11.71093
G1 X94.016 Y110.393 E11.73110
G1 X94.016 Y110.900 E11.74019
G1 X95.141 Y110.900 E11.76037
G1 X95.141 Y111.407 E11.76946
G1 X94.016 Y111.407 E11.78963
G1 X94.016 Y111.914 E11.79872
G1 X95.141 Y111.914 E11.81890
G1 X95.141 Y112.421 E11.82799
G1 X94.016 Y112.421 E11.84816
G1 X94.016 Y112.928 E11.85725
G1 X95.141 Y112.928 E11.87743
G1 X95.141 Y113.435 E11.88652
G1 X94.016 Y113.435 E11.90669
G1 X96.863 Y106.844 F7800.000
G1 X104.996 Y106.844 F1500.000 E12.05252
G1 X104.824 Y106.337 E12.06212
G1 X97.034 Y106.337 E12.20179
G1 X97.205 Y105.830 E12.21138
G1 X104.652 Y105.830 E12.34490
G1 X104.479 Y105.323 E12.35450
G1 X102.457 Y105.323 E12.39077
G1 X103.514 Y104.816 E12.41179
G1 X105.073 Y104.816 E12.43975
G1 X105.569 Y104.309 E12.45246
G1 X104.174 Y104.309 E12.47746
G1 X104.657 Y103.802 E12.49001
G1 X105.958 Y103.802 E12.51334
G1 X106.312 Y103.295 E12.52443
G1 X105.046 Y103.295 E12.54714
G1 X105.341 Y102.788 E12.55767
G1 X106.522 Y102.788 E12.57884
G1 X106.732 Y102.281 E12.58868
G1 X105.551 Y102.281 E12.60985
G1 X105.757 Y101.774 E12.61966
G1 X106.888 Y101.774 E12.63994
G1 X106.954 Y101.267 E12.64911
G1 X105.823 Y101.267 E12.66939
G1 X105.890 Y100.760 E12.67856
G1 X107.021 Y100.760 E12.69884
G1 X107.039 Y100.253 E12.70794
G1 X105.908 Y100.253 E12.72822
G1 X105.841 Y99.747 E12.73739
G1 X106.972 Y99.747 E12.75767
G1 X106.906 Y99.240 E12.76683
G1 X105.775 Y99.240 E12.78711
G1 X105.609 Y98.733 E12.79668
G1 X106.789 Y98.733 E12.81785
G1 X106.579 Y98.226 E12.82769
G1 X105.399 Y98.226 E12.84887
G1 X105.152 Y97.719 E12.85898
G1 X106.369 Y97.719 E12.88082
G1 X106.064 Y97.212 E12.89143
G1 X104.763 Y97.212 E12.91476
G1 X104.354 Y96.705 E12.92643
G1 X105.675 Y96.705 E12.95010
G1 X105.286 Y96.198 E12.96156
G1 X103.937 Y96.198 E12.98574
G1 X103.937 Y95.691 E12.99483
G1 X105.063 Y95.691 E13.01500
G1 X105.063 Y95.184 E13.02410
G1 X103.937 Y95.184 E13.04427
G1 X103.937 Y94.677 E13.05336
G1 X105.063 Y94.677 E13.07354
G1 X105.063 Y94.170 E13.08263
G1 X103.937 Y94.170 E13.10280
G1 X103.937 Y93.663 E13.11190
G1 X105.063 Y93.663 E13.13207
G1 X105.063 Y93.156 E13.14116
G1 X103.937 Y93.156 E13.16134
G1 X103.937 Y92.649 E13.17043
G1 X105.063 Y92.649 E13.19061
G1 X105.063 Y92.142 E13.19970
G1 X103.937 Y92.142 E13.21987
G1 X103.937 Y91.635 E13.22896
G1 X105.063 Y91.635 E13.24914
G1 X105.063 Y91.128 E13.25823
G1 X103.937 Y91.128 E13.27840
G1 X103.937 Y90.621 E13.28750
G1 X105.063 Y90.621 E13.30767
G1 X105.063 Y90.114 E13.31676
G1 X103.937 Y90.114 E13.33694
G1 X103.937 Y89.607 E13.34603
G1 X105.063 Y89.607 E13.36621
G1 X105.063 Y89.100 E13.37530
G1 X103.937 Y89.100 E13.39547
G1 X103.937 Y88.593 E13.40456
G1 X105.063 Y88.593 E13.42474
G1 X105.063 Y88.086 E13.43383
G1 X103.937 Y88.086 E13.45400
G1 X103.937 Y87.579 E13.46310
G1 X105.063 Y87.579 E13.48327
G1 X105.063 Y87.072 E13.49236
G1 X103.937 Y87.072 E13.51254
G1 X103.937 Y86.565 E13.52163
G1 X105.063 Y86.565 E13.54181
G1 X105.063 Y86.058 E13.55090
G1 X103.937 Y86.058 E13.57107
G1 X103.937 Y85.551 E13.58016
G1 X105.063 Y85.551 E13.60034
G1 X97.919 Y85.551 F7800.000
G1 X96.794 Y85.551 F1500.000 E13.62052
G1 X96.794 Y86.058 E13.62961
G1 X97.919 Y86.058 E13.64978
G1 X97.919 Y86.565 E13.65887
G1 X96.794 Y86.565 E13.67905
G1 X96.794 Y87.072 E13.68814
G1 X97.919 Y87.072 E13.70832
G1 X97.919 Y87.579 E13.71741
G1 X96.794 Y87.579 E13.73758
G1 X96.794 Y88.086 E13.74667
G1 X97.919 Y88.086 E13.76685
G1 X97.919 Y88.593 E13.77594
G1 X96.794 Y88.593 E13.79612
G1 X96.794 Y89.100 E13.80521
G1 X97.919 Y89.100 E13.82538
G1 X97.919 Y89.607 E13.83447
G1 X96.794 Y89.607 E13.85465
G1 X96.794 Y90.114 E13.86374
G1 X97.919 Y90.114 E13.88392
G1 X97.919 Y90.621 E13.89301
G1 X96.794 Y90.621 E13.91318
G1 X96.794 Y91.128 E13.92227
G1 X97.919 Y91.128 E13.94245
G1 X97.919 Y91.635 E13.95154
G1 X96.794 Y91.635 E13.97172
G1 X96.794 Y92.142 E13.98081
G1 X97.919 Y92.142 E14.00098
G1 X97.919 Y92.649 E14.01007
G1 X96.794 Y92.649 E14.03025
G1 X96.794 Y93.156 E14.03934
G1 X97.919 Y93.156 E14.05952
G1 X97.919 Y93.663 E14.06861
G1 X96.794 Y93.663 E14.08878
G1 X96.794 Y94.170 E14.09787
G1 X97.919 Y94.170 E14.11805
G1 X97.919 Y94.677 E14.12714
G1 X96.794 Y94.677 E14.14732
G1 X96.794 Y95.184 E14.15641
G1 X97.919 Y95.184 E14.17658
G1 X97.919 Y95.691 E14.18567
G1 X96.794 Y95.691 E14.20585
G1 X96.571 Y96.198 F7800.000
G1 X97.919 Y96.198 F1500.000 E14.23003
G1 X97.502 Y96.705 E14.24180
G1 X96.182 Y96.705 E14.26547
G1 X95.792 Y97.212 E14.27693
G1 X97.094 Y97.212 E14.30026
G1 X96.705 Y97.719 E14.31172
G1 X95.487 Y97.719 E14.33355
G1 X95.277 Y98.226 E14.34339
G1 X96.458 Y98.226 E14.36457
G1 X96.248 Y98.733 E14.37441
G1 X95.067 Y98.733 E14.39558
G1 X94.950 Y99.240 E14.40491
G1 X96.081 Y99.240 E14.42519
G1 X96.015 Y99.747 E14.43436
G1 X94.884 Y99.747 E14.45464
G1 X94.817 Y100.253 E14.46381
G1 X95.948 Y100.253 E14.48409
G1 X95.966 Y100.760 F7800.000
G1 X94.835 Y100.760 F1500.000 E14.50437
G1 X94.902 Y101.267 E14.51354
G1 X96.033 Y101.267 E14.53382
G1 X96.100 Y101.774 E14.54299
G1 X94.969 Y101.774 E14.56327
G1 X95.124 Y102.281 E14.57278
G1 X96.305 Y102.281 E14.59395
G1 X96.515 Y102.788 E14.60379
G1 X95.334 Y102.788 E14.62496
G1 X95.544 Y103.295 E14.63480
G1 X96.811 Y103.295 E14.65751
G1 X97.200 Y103.802 E14.66897
G1 X95.898 Y103.802 E14.69230
G1 X96.287 Y104.309 E14.70376
G1 X97.682 Y104.309 E14.72876
G1 X98.342 Y104.816 E14.74369
G1 X96.783 Y104.816 E14.77165
G1 X97.376 Y105.323 E14.78564
G1 X99.399 Y105.323 E14.82191
M106 S255
G1 Z0.500 F7800.000
G1 X95.766 Y108.552
G1 X106.091 Y108.552 F600.000 E15.09446
G1 X106.091 Y112.924 E15.20986
G1 X95.766 Y112.924 E15.48241
G1 X95.766 Y108.664 E15.59486
G1 X95.766 Y108.552 E15.59781
G1 X95.766 Y107.806 F7800.000
G1 X96.417 Y106.176
G1 X96.616 Y105.586 F1330.113 E15.61425
G1 X96.143 Y105.223 E15.62999
G1 X95.067 Y103.822 E15.67663
