; generated by Slic3r 0.9.8 on 2013-05-21 at 09:49:48

; layer_height = 0.4
; perimeters = 3
; top_solid_layers = 3
; bottom_solid_layers = 3
; fill_density = 0.4
; perimeter_speed = 30
; infill_speed = 40
; travel_speed = 110
; scale = 1
; nozzle_diameter = 0.5
; filament_diameter = 3
; extrusion_multiplier = 1
; perimeters extrusion width = 0.53mm
; infill extrusion width = 0.53mm
; first layer extrusion width = 0.80mm

M107
M104 S225 ; set temperature
G28 ; home all axes
M109 S225 ; wait for temperature to be reached
G90 ; use absolute coordinates
G21 ; set units to millimeters
G92 E0
M82 ; use absolute distances for extrusion
G1 F900.000 E-1.00000
G92 E0
G1 Z0.400 F6600.000
G1 X123.543 Y49.717
G1 F900.000 E1.50000
G1 X123.543 Y150.277 F900.000 E5.68607
G1 X123.453 Y151.127 E5.72165
G1 X123.273 Y151.967 E5.75741
G1 X123.103 Y152.517 E5.78137
G1 X122.773 Y153.307 E5.81701
G1 X122.493 Y153.807 E5.84087
G1 X122.183 Y154.287 E5.86465
G1 X121.653 Y154.957 E5.90021
G1 X121.043 Y155.567 E5.93613
G1 X120.373 Y156.097 E5.97169
G1 X119.893 Y156.407 E5.99547
G1 X119.393 Y156.687 E6.01933
G1 X118.603 Y157.017 E6.05497
G1 X117.773 Y157.257 E6.09093
G1 X116.933 Y157.407 E6.12645
G1 X116.363 Y157.457 E6.15027
G1 X83.633 Y157.457 E7.51274
G1 X83.063 Y157.407 E7.53656
G1 X82.223 Y157.257 E7.57208
G1 X81.393 Y157.017 E7.60805
G1 X80.863 Y156.807 E7.63178
G1 X80.603 Y156.687 E7.64370
G1 X80.103 Y156.407 E7.66755
G1 X79.623 Y156.097 E7.69134
G1 X78.953 Y155.567 E7.72690
G1 X78.743 Y155.367 E7.73897
G1 X78.343 Y154.957 E7.76282
G1 X77.813 Y154.287 E7.79838
G1 X77.503 Y153.807 E7.82217
G1 X77.223 Y153.307 E7.84602
G1 X77.103 Y153.047 E7.85794
G1 X76.893 Y152.517 E7.88167
G1 X76.653 Y151.687 E7.91764
G1 X76.503 Y150.847 E7.95316
G1 X76.453 Y150.277 E7.97698
G1 X76.453 Y110.467 E9.63417
G1 X76.483 Y109.787 E9.66251
G1 X76.573 Y109.117 E9.69065
G1 X76.643 Y108.787 E9.70469
G1 X76.823 Y108.127 E9.73317
G1 X76.943 Y107.807 E9.74739
G1 X99.953 Y47.347 E12.44030
G1 X100.303 Y46.557 E12.47627
G1 X100.443 Y46.297 E12.48856
G1 X100.753 Y45.807 E12.51270
G1 X101.283 Y45.117 E12.54892
G1 X101.893 Y44.487 E12.58542
G1 X102.573 Y43.937 E12.62183
G1 X103.063 Y43.617 E12.64619
G1 X103.833 Y43.207 E12.68251
G1 X104.363 Y42.987 E12.70639
G1 X104.923 Y42.807 E12.73088
G1 X105.203 Y42.737 E12.74290
G1 X105.773 Y42.627 E12.76706
G1 X106.643 Y42.537 E12.80347
G1 X116.363 Y42.537 E13.20809
G1 X116.933 Y42.587 E13.23191
G1 X117.493 Y42.677 E13.25552
G1 X118.053 Y42.807 E13.27945
G1 X118.603 Y42.977 E13.30341
G1 X119.393 Y43.307 E13.33905
G1 X120.133 Y43.737 E13.37468
G1 X120.603 Y44.067 E13.39859
G1 X121.043 Y44.427 E13.42225
G1 X121.653 Y45.037 E13.45816
G1 X122.013 Y45.477 E13.48183
G1 X122.343 Y45.947 E13.50574
G1 X122.773 Y46.687 E13.54136
G1 X122.893 Y46.947 E13.55328
G1 X123.103 Y47.477 E13.57701
G1 X123.343 Y48.307 E13.61298
G1 X123.453 Y48.867 E13.63674
G1 X123.535 Y49.607 E13.66773
G1 X123.543 Y49.717 E13.67232
G1 X122.803 Y49.737 F6600.000
G1 X122.813 Y149.987 F900.000 E17.84548
G1 X122.763 Y150.797 E17.87927
G1 X122.673 Y151.337 E17.90205
G1 X122.463 Y152.117 E17.93568
G1 X122.163 Y152.877 E17.96969
G1 X121.763 Y153.587 E18.00362
G1 X121.293 Y154.247 E18.03734
G1 X120.743 Y154.847 E18.07123
G1 X120.333 Y155.207 E18.09394
G1 X119.903 Y155.527 E18.11625
G1 X119.443 Y155.817 E18.13889
G1 X118.963 Y156.077 E18.16161
G1 X118.463 Y156.287 E18.18419
G1 X117.683 Y156.527 E18.21816
G1 X116.883 Y156.677 E18.25204
G1 X116.073 Y156.727 E18.28582
G1 X83.653 Y156.717 E19.63539
G1 X83.113 Y156.677 E19.65793
G1 X82.573 Y156.587 E19.68072
G1 X81.793 Y156.377 E19.71434
G1 X81.283 Y156.187 E19.73700
G1 X81.033 Y156.077 E19.74837
G1 X80.553 Y155.817 E19.77109
G1 X80.093 Y155.527 E19.79373
G1 X79.663 Y155.207 E19.81604
G1 X79.253 Y154.847 E19.83876
G1 X78.703 Y154.247 E19.87264
G1 X78.383 Y153.817 E19.89495
G1 X78.093 Y153.357 E19.91759
G1 X77.833 Y152.877 E19.94031
G1 X77.623 Y152.377 E19.96289
G1 X77.453 Y151.857 E19.98566
G1 X77.323 Y151.337 E20.00797
G1 X77.233 Y150.797 E20.03076
G1 X77.183 Y149.987 E20.06454
G1 X77.183 Y110.467 E21.70966
G1 X77.213 Y109.857 E21.73509
G1 X77.363 Y108.947 E21.77348
G1 X77.433 Y108.657 E21.78590
G1 X77.623 Y108.067 E21.81170
G1 X100.633 Y47.607 E24.50461
G1 X100.743 Y47.357 E24.51598
G1 X100.973 Y46.867 E24.53851
G1 X101.103 Y46.637 E24.54951
G1 X101.243 Y46.397 E24.56108
G1 X101.553 Y45.957 E24.58348
G1 X101.893 Y45.537 E24.60598
G1 X102.083 Y45.337 E24.61746
G1 X102.673 Y44.787 E24.65104
G1 X103.113 Y44.457 E24.67393
G1 X103.803 Y44.037 E24.70756
G1 X104.543 Y43.707 E24.74129
G1 X105.323 Y43.467 E24.77526
G1 X106.123 Y43.317 E24.80914
G1 X106.933 Y43.267 E24.84292
G1 X116.073 Y43.267 E25.22340
G1 X116.883 Y43.317 E25.25718
G1 X117.423 Y43.407 E25.27997
G1 X117.943 Y43.537 E25.30228
G1 X118.463 Y43.707 E25.32506
G1 X118.963 Y43.917 E25.34763
G1 X119.443 Y44.177 E25.37036
G1 X119.903 Y44.467 E25.39299
G1 X120.333 Y44.787 E25.41531
G1 X120.933 Y45.337 E25.44919
G1 X121.293 Y45.747 E25.47190
G1 X121.613 Y46.177 E25.49421
G1 X121.903 Y46.637 E25.51685
G1 X122.163 Y47.117 E25.53957
G1 X122.273 Y47.367 E25.55094
G1 X122.463 Y47.877 E25.57360
G1 X122.613 Y48.397 E25.59613
G1 X122.763 Y49.197 E25.63001
G1 X122.795 Y49.627 E25.64796
G1 X122.803 Y49.737 E25.65255
G1 F900.000 E24.65255
G92 E0
G1 X114.606 Y51.478 F6600.000
G1 F900.000 E1.50000
G1 X114.606 Y148.522 F900.000 E5.53968
G1 X85.394 Y148.522 E6.75569
G1 X85.394 Y111.942 E8.27841
G1 X108.412 Y111.942 E9.23659
G1 X108.412 Y51.478 E11.75356
G1 X114.495 Y51.478 E12.00679
G1 X114.606 Y51.478 E12.01138
G1 X115.341 Y50.743 F6600.000
G1 X115.341 Y149.257 F900.000 E16.11231
G1 X84.659 Y149.257 E17.38956
G1 X84.659 Y111.207 E18.97352
G1 X107.677 Y111.207 E19.93170
G1 X107.677 Y50.743 E22.44867
G1 X115.231 Y50.743 E22.76314
G1 X115.341 Y50.743 E22.76773
G1 X116.077 Y50.007 F6600.000
G1 X116.077 Y149.993 F900.000 E26.92991
G1 X83.923 Y149.993 E28.26840
G1 X83.923 Y110.471 E29.91360
G1 X106.941 Y110.471 E30.87179
G1 X106.941 Y50.007 E33.38875
G1 X115.967 Y50.007 E33.76447
G1 X116.077 Y50.007 E33.76907
G1 X115.709 Y50.644 F6600.000
G1 F900.000 E32.76907
G92 E0
G1 X114.201 Y52.214 F6600.000
G1 F900.000 E1.50000
G1 X108.817 Y52.214 F1200.000 E1.72573
G1 X108.817 Y52.955 E1.75679
G1 X114.201 Y52.955 E1.98251
G1 X114.201 Y53.696 E2.01357
G1 X108.817 Y53.696 E2.23930
G1 X108.817 Y54.436 E2.27036
G1 X114.201 Y54.436 E2.49609
G1 X114.201 Y55.177 E2.52714
G1 X108.817 Y55.177 E2.75287
G1 X108.817 Y55.918 E2.78393
G1 X114.201 Y55.918 E3.00966
G1 X114.201 Y56.659 E3.04072
G1 X108.817 Y56.659 E3.26644
G1 X108.817 Y57.400 E3.29750
G1 X114.201 Y57.400 E3.52323
G1 X114.201 Y58.141 E3.55429
G1 X108.817 Y58.141 E3.78001
G1 X108.817 Y58.882 E3.81108
G1 X114.201 Y58.882 E4.03680
G1 X114.201 Y59.623 E4.06786
G1 X108.817 Y59.623 E4.29359
G1 X108.817 Y60.363 E4.32465
G1 X114.201 Y60.363 E4.55037
G1 X114.201 Y61.104 E4.58143
G1 X108.817 Y61.104 E4.80716
G1 X108.817 Y61.845 E4.83822
G1 X114.201 Y61.845 E5.06395
G1 X114.201 Y62.586 E5.09500
G1 X108.817 Y62.586 E5.32073
G1 X108.817 Y63.327 E5.35179
G1 X114.201 Y63.327 E5.57752
G1 X114.201 Y64.068 E5.60858
G1 X108.817 Y64.068 E5.83430
G1 X108.817 Y64.809 E5.86537
G1 X114.201 Y64.809 E6.09109
G1 X114.201 Y65.549 E6.12215
G1 X108.817 Y65.549 E6.34787
G1 X108.817 Y66.290 E6.37894
G1 X114.201 Y66.290 E6.60466
G1 X114.201 Y67.031 E6.63572
G1 X108.817 Y67.031 E6.86145
G1 X108.817 Y67.772 E6.89251
G1 X114.201 Y67.772 E7.11823
G1 X114.201 Y68.513 E7.14929
G1 X108.817 Y68.513 E7.37502
G1 X108.817 Y69.254 E7.40608
G1 X114.201 Y69.254 E7.63181
G1 X114.201 Y69.995 E7.66287
G1 X108.817 Y69.995 E7.88859
G1 X108.817 Y70.736 E7.91965
G1 X114.201 Y70.736 E8.14538
G1 X114.201 Y71.476 E8.17644
G1 X108.817 Y71.476 E8.40216
G1 X108.817 Y72.217 E8.43322
G1 X114.201 Y72.217 E8.65895
G1 X114.201 Y72.958 E8.69001
G1 X108.817 Y72.958 E8.91573
G1 X108.817 Y73.699 E8.94680
G1 X114.201 Y73.699 E9.17252
G1 X114.201 Y74.440 E9.20358
G1 X108.817 Y74.440 E9.42931
G1 X108.817 Y75.181 E9.46037
G1 X114.201 Y75.181 E9.68609
G1 X114.201 Y75.922 E9.71715
G1 X108.817 Y75.922 E9.94288
G1 X108.817 Y76.663 E9.97394
G1 X114.201 Y76.663 E10.19966
G1 X114.201 Y77.403 E10.23073
G1 X108.817 Y77.403 E10.45645
G1 X108.817 Y78.144 E10.48751
G1 X114.201 Y78.144 E10.71323
G1 X114.201 Y78.885 E10.74430
G1 X108.817 Y78.885 E10.97002
G1 X108.817 Y79.626 E11.00108
G1 X114.201 Y79.626 E11.22681
G1 X114.201 Y80.367 E11.25787
G1 X108.817 Y80.367 E11.48360
G1 X108.817 Y81.108 E11.51465
G1 X114.201 Y81.108 E11.74038
G1 X114.201 Y81.849 E11.77144
G1 X108.817 Y81.849 E11.99717
G1 X108.817 Y82.590 E12.02823
G1 X114.201 Y82.590 E12.25395
G1 X114.201 Y83.330 E12.28501
G1 X108.817 Y83.330 E12.51074
G1 X108.817 Y84.071 E12.54180
G1 X114.201 Y84.071 E12.76752
G1 X114.201 Y84.812 E12.79859
G1 X108.817 Y84.812 E13.02431
G1 X108.817 Y85.553 E13.05537
G1 X114.201 Y85.553 E13.28109
G1 X114.201 Y86.294 E13.31216
G1 X108.817 Y86.294 E13.53788
G1 X108.817 Y87.035 E13.56894
G1 X114.201 Y87.035 E13.79467
G1 X114.201 Y87.776 E13.82573
G1 X108.817 Y87.776 E14.05146
G1 X108.817 Y88.516 E14.08251
G1 X114.201 Y88.516 E14.30824
G1 X114.201 Y89.257 E14.33930
G1 X108.817 Y89.257 E14.56503
G1 X108.817 Y89.998 E14.59609
G1 X114.201 Y89.998 E14.82181
G1 X114.201 Y90.739 E14.85287
G1 X108.817 Y90.739 E15.07860
G1 X108.817 Y91.480 E15.10966
G1 X114.201 Y91.480 E15.33538
G1 X114.201 Y92.221 E15.36645
G1 X108.817 Y92.221 E15.59217
G1 X108.817 Y92.962 E15.62323
G1 X114.201 Y92.962 E15.84896
G1 X114.201 Y93.703 E15.88002
G1 X108.817 Y93.703 E16.10574
G1 X108.817 Y94.443 E16.13680
G1 X114.201 Y94.443 E16.36253
G1 X114.201 Y95.184 E16.39359
G1 X108.817 Y95.184 E16.61932
G1 X108.817 Y95.925 E16.65037
G1 X114.201 Y95.925 E16.87610
G1 X114.201 Y96.666 E16.90716
G1 X108.817 Y96.666 E17.13289
G1 X108.817 Y97.407 E17.16395
G1 X114.201 Y97.407 E17.38967
G1 X114.201 Y98.148 E17.42073
G1 X108.817 Y98.148 E17.64646
G1 X108.817 Y98.889 E17.67752
G1 X114.201 Y98.889 E17.90324
G1 X114.201 Y99.630 E17.93430
G1 X108.817 Y99.630 E18.16003
G1 X108.817 Y100.370 E18.19109
G1 X114.201 Y100.370 E18.41682
G1 X114.201 Y101.111 E18.44788
G1 X108.817 Y101.111 E18.67360
G1 X108.817 Y101.852 E18.70466
G1 X114.201 Y101.852 E18.93039
G1 X114.201 Y102.593 E18.96145
G1 X108.817 Y102.593 E19.18717
G1 X108.817 Y103.334 E19.21824
G1 X114.201 Y103.334 E19.44396
G1 X114.201 Y104.075 E19.47502
G1 X108.817 Y104.075 E19.70074
G1 X108.817 Y104.816 E19.73181
G1 X114.201 Y104.816 E19.95753
G1 X114.201 Y105.557 E19.98859
G1 X108.817 Y105.557 E20.21432
G1 X108.817 Y106.297 E20.24538
G1 X114.201 Y106.297 E20.47110
G1 X114.201 Y107.038 E20.50216
G1 X108.817 Y107.038 E20.72789
G1 X108.817 Y107.779 E20.75895
G1 X114.201 Y107.779 E20.98468
G1 X114.201 Y108.520 E21.01574
G1 X108.817 Y108.520 E21.24146
G1 X108.817 Y109.261 E21.27252
G1 X114.201 Y109.261 E21.49825
G1 X114.201 Y110.002 E21.52931
G1 X108.817 Y110.002 E21.75503
G1 X108.817 Y110.743 E21.78610
G1 X114.201 Y110.743 E22.01182
G1 X114.201 Y111.483 E22.04288
G1 X108.817 Y111.483 E22.26860
G1 X108.817 Y112.224 E22.29967
G1 X114.201 Y112.224 E22.52539
G1 X114.201 Y112.965 E22.55645
G1 X85.799 Y112.965 E23.74721
G1 X85.799 Y113.706 E23.77827
G1 X114.201 Y113.706 E24.96903
G1 X114.201 Y114.447 E25.00009
G1 X85.799 Y114.447 E26.19084
G1 X85.799 Y115.188 E26.22191
G1 X114.201 Y115.188 E27.41266
G1 X114.201 Y115.929 E27.44372
G1 X85.799 Y115.929 E28.63448
G1 X85.799 Y116.670 E28.66554
G1 X114.201 Y116.670 E29.85630
G1 X114.201 Y117.410 E29.88736
G1 X85.799 Y117.410 E31.07812
G1 X85.799 Y118.151 E31.10918
G1 X114.201 Y118.151 E32.29993
G1 X114.201 Y118.892 E32.33099
G1 X85.799 Y118.892 E33.52175
G1 X85.799 Y119.633 E33.55281
G1 X114.201 Y119.633 E34.74357
G1 X114.201 Y120.374 E34.77463
G1 X85.799 Y120.374 E35.96539
G1 X85.799 Y121.115 E35.99645
G1 X114.201 Y121.115 E37.18721
G1 X114.201 Y121.856 E37.21826
G1 X85.799 Y121.856 E38.40902
G1 X85.799 Y122.597 E38.44008
G1 X114.201 Y122.597 E39.63084
G1 X114.201 Y123.337 E39.66190
G1 X85.799 Y123.337 E40.85266
G1 X85.799 Y124.078 E40.88372
G1 X114.201 Y124.078 E42.07448
G1 X114.201 Y124.819 E42.10554
G1 X85.799 Y124.819 E43.29629
G1 X85.799 Y125.560 E43.32735
G1 X114.201 Y125.560 E44.51811
G1 X114.201 Y126.301 E44.54917
G1 X85.799 Y126.301 E45.73993
G1 X85.799 Y127.042 E45.77099
G1 X114.201 Y127.042 E46.96175
G1 X114.201 Y127.783 E46.99281
G1 X85.799 Y127.783 E48.18356
G1 X85.799 Y128.524 E48.21462
G1 X114.201 Y128.524 E49.40538
G1 X114.201 Y129.264 E49.43644
G1 X85.799 Y129.264 E50.62720
G1 X85.799 Y130.005 E50.65826
G1 X114.201 Y130.005 E51.84902
G1 X114.201 Y130.746 E51.88008
G1 X85.799 Y130.746 E53.07083
G1 X85.799 Y131.487 E53.10190
G1 X114.201 Y131.487 E54.29265
G1 X114.201 Y132.228 E54.32371
G1 X85.799 Y132.228 E55.51447
G1 X85.799 Y132.969 E55.54553
G1 X114.201 Y132.969 E56.73629
G1 X114.201 Y133.710 E56.76735
G1 X85.799 Y133.710 E57.95811
G1 X85.799 Y134.450 E57.98917
G1 X114.201 Y134.450 E59.17992
G1 X114.201 Y135.191 E59.21098
G1 X85.799 Y135.191 E60.40174
G1 X85.799 Y135.932 E60.43280
G1 X114.201 Y135.932 E61.62356
G1 X114.201 Y136.673 E61.65462
G1 X85.799 Y136.673 E62.84538
G1 X85.799 Y137.414 E62.87644
G1 X114.201 Y137.414 E64.06719
G1 X114.201 Y138.155 E64.09826
G1 X85.799 Y138.155 E65.28901
G1 X85.799 Y138.896 E65.32007
G1 X114.201 Y138.896 E66.51083
G1 X114.201 Y139.637 E66.54189
G1 X85.799 Y139.637 E67.73265
G1 X85.799 Y140.377 E67.76371
G1 X114.201 Y140.377 E68.95447
G1 X114.201 Y141.118 E68.98553
G1 X85.799 Y141.118 E70.17628
G1 X85.799 Y141.859 E70.20734
G1 X114.201 Y141.859 E71.39810
G1 X114.201 Y142.600 E71.42916
G1 X85.799 Y142.600 E72.61992
G1 X85.799 Y143.341 E72.65098
G1 X114.201 Y143.341 E73.84174
G1 X114.201 Y144.082 E73.87280
G1 X85.799 Y144.082 E75.06356
G1 X85.799 Y144.823 E75.09461
G1 X114.201 Y144.823 E76.28537
G1 X114.201 Y145.564 E76.31643
G1 X85.799 Y145.564 E77.50719
G1 X85.799 Y146.304 E77.53825
G1 X114.201 Y146.304 E78.72901
G1 X114.201 Y147.045 E78.76007
G1 X85.799 Y147.045 E79.95082
G1 X85.799 Y147.786 E79.98189
G1 X114.201 Y147.786 E81.17264
G1 F900.000 E80.17264
G92 E0
G1 Z0.800 F6600.000
G1 X115.175 Y149.091
G1 F900.000 E1.50000
G1 X84.825 Y149.091 F1800.000 E2.39247
G1 X84.825 Y111.373 E3.50159
G1 X107.843 Y111.373 E4.17844
G1 X107.843 Y50.909 E5.95641
G1 X115.175 Y50.909 E6.17202
G1 X115.175 Y149.013 E9.05682
G1 X115.175 Y149.091 E9.05911
G1 X115.695 Y149.611 F6600.000
G1 X84.305 Y149.611 F1800.000 E9.98213
G1 X84.305 Y110.853 E11.12182
G1 X107.323 Y110.853 E11.79867
G1 X107.323 Y50.389 E13.57663
G1 X115.695 Y50.389 E13.82281
G1 X115.695 Y149.533 E16.73816
G1 X115.695 Y149.611 E16.74045
G1 X116.215 Y150.131 F6600.000
G1 X83.785 Y150.131 F1800.000 E17.69404
G1 X83.785 Y110.333 E18.86428
G1 X106.803 Y110.333 E19.54114
G1 X106.803 Y49.869 E21.31910
G1 X116.215 Y49.869 E21.59583
G1 X116.215 Y150.053 E24.54175
G1 X116.215 Y150.131 E24.54404
G1 X115.765 Y149.871 F6600.000
G1 F900.000 E23.54404
G92 E0
G1 X85.344 Y148.805 F6600.000
G1 F900.000 E1.50000
G1 X85.344 Y111.658 F2400.000 E2.60027
G1 X85.868 Y111.658 E2.61577
G1 X85.868 Y148.805 E3.71604
G1 X86.391 Y148.805 E3.73154
G1 X86.391 Y111.658 E4.83181
G1 X86.915 Y111.658 E4.84731
G1 X86.915 Y148.805 E5.94758
G1 X87.438 Y148.805 E5.96308
G1 X87.438 Y111.658 E7.06335
G1 X87.961 Y111.658 E7.07886
G1 X87.961 Y148.805 E8.17912
G1 X88.485 Y148.805 E8.19463
G1 X88.485 Y111.658 E9.29489
G1 X89.008 Y111.658 E9.31040
G1 X89.008 Y148.805 E10.41067
G1 X89.532 Y148.805 E10.42617
G1 X89.532 Y111.658 E11.52644
G1 X90.055 Y111.658 E11.54194
G1 X90.055 Y148.805 E12.64221
G1 X90.578 Y148.805 E12.65771
