; generated by Slic3r 0.9.8 on 2013-05-21 at 09:50:03

; layer_height = 0.4
; perimeters = 3
; top_solid_layers = 3
; bottom_solid_layers = 3
; fill_density = 0.4
; perimeter_speed = 30
; infill_speed = 40
; travel_speed = 110
; scale = 1
; nozzle_diameter = 0.5
; filament_diameter = 3
; extrusion_multiplier = 1
; perimeters extrusion width = 0.53mm
; infill extrusion width = 0.53mm
; first layer extrusion width = 0.80mm

M107
M104 S225 ; set temperature
G28 ; home all axes
M109 S225 ; wait for temperature to be reached
G90 ; use absolute coordinates
G21 ; set units to millimeters
G92 E0
M82 ; use absolute distances for extrusion
G1 F900.000 E-1.00000
G92 E0
G1 Z0.400 F6600.000
G1 X122.884 Y118.723
G1 F900.000 E1.50000
G1 X122.404 Y119.033 F900.000 E1.52379
G1 X121.904 Y119.313 E1.54764
G1 X121.114 Y119.643 E1.58328
G1 X120.564 Y119.813 E1.60724
G1 X120.004 Y119.943 E1.63118
G1 X119.444 Y120.033 E1.65479
G1 X118.874 Y120.083 E1.67861
G1 X81.124 Y120.083 E3.25005
G1 X80.554 Y120.033 E3.27386
G1 X79.994 Y119.943 E3.29747
G1 X79.434 Y119.813 E3.32141
G1 X78.884 Y119.643 E3.34537
G1 X78.094 Y119.313 E3.38101
G1 X77.354 Y118.883 E3.41664
G1 X76.884 Y118.553 E3.44054
G1 X76.444 Y118.193 E3.46421
G1 X75.834 Y117.583 E3.50012
G1 X75.304 Y116.913 E3.53568
G1 X74.994 Y116.433 E3.55947
G1 X74.714 Y115.933 E3.58332
G1 X74.384 Y115.143 E3.61896
G1 X74.214 Y114.593 E3.64293
G1 X74.034 Y113.753 E3.67869
G1 X73.944 Y112.903 E3.71427
G1 X73.944 Y87.093 E4.78867
G1 X73.964 Y86.813 E4.80036
G1 X74.034 Y86.243 E4.82427
G1 X74.214 Y85.403 E4.86003
G1 X74.384 Y84.853 E4.88399
G1 X74.714 Y84.063 E4.91963
G1 X74.994 Y83.563 E4.94349
G1 X75.304 Y83.083 E4.96727
G1 X75.834 Y82.413 E5.00283
G1 X76.444 Y81.803 E5.03874
G1 X76.884 Y81.443 E5.06241
G1 X77.354 Y81.113 E5.08632
G1 X78.094 Y80.683 E5.12194
G1 X78.884 Y80.353 E5.15758
G1 X79.434 Y80.183 E5.18155
G1 X79.994 Y80.053 E5.20548
G1 X80.554 Y79.963 E5.22909
G1 X81.124 Y79.913 E5.25291
G1 X118.874 Y79.913 E6.82435
G1 X119.444 Y79.963 E6.84817
G1 X120.004 Y80.053 E6.87178
G1 X120.564 Y80.183 E6.89571
G1 X121.114 Y80.353 E6.91967
G1 X121.904 Y80.683 E6.95531
G1 X122.644 Y81.113 E6.99094
G1 X123.114 Y81.443 E7.01484
G1 X123.554 Y81.803 E7.03851
G1 X124.164 Y82.413 E7.07442
G1 X124.694 Y83.083 E7.10998
G1 X125.004 Y83.563 E7.13377
G1 X125.284 Y84.063 E7.15762
G1 X125.614 Y84.853 E7.19326
G1 X125.784 Y85.403 E7.21723
G1 X125.964 Y86.243 E7.25299
G1 X126.034 Y86.813 E7.27689
G1 X126.054 Y87.093 E7.28858
G1 X126.054 Y112.903 E8.36299
G1 X125.964 Y113.753 E8.39857
G1 X125.784 Y114.593 E8.43433
G1 X125.614 Y115.143 E8.45829
G1 X125.284 Y115.933 E8.49393
G1 X125.004 Y116.433 E8.51779
G1 X124.694 Y116.913 E8.54157
G1 X124.164 Y117.583 E8.57714
G1 X123.554 Y118.193 E8.61305
G1 X122.973 Y118.657 E8.64402
G1 X122.884 Y118.723 E8.64861
G1 X122.414 Y118.153 F6600.000
G1 X121.954 Y118.443 F900.000 E8.67125
G1 X121.474 Y118.703 E8.69397
G1 X120.714 Y119.003 E8.72798
G1 X120.194 Y119.153 E8.75051
G1 X119.664 Y119.263 E8.77305
G1 X119.394 Y119.303 E8.78441
G1 X118.584 Y119.353 E8.81819
G1 X81.414 Y119.353 E10.36549
G1 X80.604 Y119.303 E10.39927
G1 X80.334 Y119.263 E10.41063
G1 X79.804 Y119.153 E10.43316
G1 X79.024 Y118.913 E10.46713
G1 X78.524 Y118.703 E10.48971
G1 X78.044 Y118.443 E10.51243
G1 X77.584 Y118.153 E10.53507
G1 X77.154 Y117.833 E10.55738
G1 X76.744 Y117.473 E10.58010
G1 X76.194 Y116.873 E10.61398
G1 X75.874 Y116.443 E10.63629
G1 X75.584 Y115.983 E10.65893
G1 X75.324 Y115.503 E10.68165
G1 X75.024 Y114.743 E10.71566
G1 X74.814 Y113.963 E10.74929
G1 X74.724 Y113.423 E10.77208
G1 X74.674 Y112.613 E10.80586
G1 X74.674 Y87.383 E11.85612
G1 X74.724 Y86.573 E11.88991
G1 X74.814 Y86.033 E11.91270
G1 X75.024 Y85.253 E11.94632
G1 X75.324 Y84.493 E11.98033
G1 X75.724 Y83.783 E12.01426
G1 X76.194 Y83.123 E12.04799
G1 X76.744 Y82.523 E12.08187
G1 X77.364 Y82.003 E12.11555
G1 X77.814 Y81.693 E12.13830
G1 X78.524 Y81.293 E12.17222
G1 X79.284 Y80.993 E12.20624
G1 X79.804 Y80.843 E12.22876
G1 X80.334 Y80.733 E12.25130
G1 X80.604 Y80.693 E12.26266
G1 X81.414 Y80.643 E12.29644
G1 X118.584 Y80.643 E13.84374
G1 X119.394 Y80.693 E13.87752
G1 X119.664 Y80.733 E13.88888
G1 X120.194 Y80.843 E13.91141
G1 X120.974 Y81.083 E13.94539
G1 X121.474 Y81.293 E13.96796
G1 X121.954 Y81.553 E13.99069
G1 X122.414 Y81.843 E14.01332
G1 X122.844 Y82.163 E14.03563
G1 X123.254 Y82.523 E14.05835
G1 X123.804 Y83.123 E14.09223
G1 X124.124 Y83.553 E14.11454
G1 X124.414 Y84.013 E14.13718
G1 X124.674 Y84.493 E14.15990
G1 X124.974 Y85.253 E14.19392
G1 X125.184 Y86.033 E14.22754
G1 X125.274 Y86.573 E14.25033
G1 X125.324 Y87.383 E14.28411
G1 X125.324 Y112.613 E15.33438
G1 X125.274 Y113.423 E15.36816
G1 X125.184 Y113.963 E15.39095
G1 X124.974 Y114.743 E15.42457
G1 X124.674 Y115.503 E15.45859
G1 X124.274 Y116.213 E15.49251
G1 X123.804 Y116.873 E15.52624
G1 X123.254 Y117.473 E15.56012
G1 X122.844 Y117.833 E15.58283
G1 X122.503 Y118.088 E15.60055
G1 X122.414 Y118.153 E15.60515
G1 F900.000 E14.60515
G92 E0
G1 X114.177 Y103.354 F6600.000
G1 F900.000 E1.50000
G1 X113.240 Y103.740 F300.000 E1.54217
G1 X112.240 Y103.873 E1.58415
G1 X111.238 Y103.740 E1.62623
G1 X110.301 Y103.354 E1.66841
G1 X109.502 Y102.737 E1.71044
G1 X108.885 Y101.937 E1.75247
G1 X108.499 Y101.001 E1.79464
G1 X108.366 Y100.002 E1.83661
G1 X108.499 Y98.998 E1.87875
G1 X108.885 Y98.066 E1.92076
G1 X109.500 Y97.264 E1.96280
G1 X110.301 Y96.646 E2.00492
G1 X111.238 Y96.260 E2.04711
G1 X112.240 Y96.127 E2.08919
G1 X113.240 Y96.260 E2.13117
G1 X114.177 Y96.646 E2.17334
G1 X114.978 Y97.264 E2.21546
G1 X115.593 Y98.065 E2.25750
G1 X115.979 Y98.998 E2.29951
G1 X116.112 Y100.002 E2.34165
G1 X115.979 Y101.001 E2.38363
G1 X115.593 Y101.937 E2.42579
G1 X114.976 Y102.737 E2.46782
G1 X114.264 Y103.286 E2.50526
G1 X114.177 Y103.354 E2.50986
G1 X113.805 Y102.711 F6600.000
G1 X113.048 Y103.023 F300.000 E2.54395
G1 X112.240 Y103.131 E2.57787
G1 X111.430 Y103.023 E2.61190
G1 X110.673 Y102.711 E2.64600
G1 X110.026 Y102.213 E2.67997
G1 X109.528 Y101.566 E2.71395
G1 X109.216 Y100.809 E2.74804
G1 X109.108 Y100.001 E2.78196
G1 X109.216 Y99.190 E2.81602
G1 X109.528 Y98.436 E2.84998
G1 X110.025 Y97.788 E2.88400
G1 X110.673 Y97.289 E2.91803
G1 X111.430 Y96.977 E2.95213
G1 X112.240 Y96.869 E2.98615
G1 X113.048 Y96.977 E3.02008
G1 X113.805 Y97.289 E3.05417
G1 X114.453 Y97.788 E3.08820
G1 X114.950 Y98.436 E3.12221
G1 X115.262 Y99.190 E3.15618
G1 X115.370 Y100.001 E3.19023
G1 X115.262 Y100.809 E3.22416
G1 X114.950 Y101.566 E3.25825
G1 X114.452 Y102.213 E3.29222
G1 X113.893 Y102.644 E3.32161
G1 X113.805 Y102.711 E3.32620
G1 X113.434 Y102.068 F6600.000
G1 X112.856 Y102.307 F300.000 E3.35222
G1 X112.240 Y102.389 E3.37809
G1 X111.622 Y102.307 E3.40406
G1 X111.044 Y102.068 E3.43007
G1 X110.551 Y101.688 E3.45599
G1 X110.171 Y101.195 E3.48192
G1 X109.932 Y100.617 E3.50793
G1 X109.851 Y100.001 E3.53380
G1 X109.932 Y99.382 E3.55978
G1 X110.171 Y98.807 E3.58570
G1 X110.550 Y98.312 E3.61168
G1 X111.044 Y97.932 E3.63762
G1 X111.622 Y97.693 E3.66363
G1 X112.240 Y97.611 E3.68960
G1 X112.856 Y97.693 E3.71547
G1 X113.434 Y97.932 E3.74149
G1 X113.928 Y98.312 E3.76743
G1 X114.307 Y98.807 E3.79341
G1 X114.546 Y99.382 E3.81933
G1 X114.627 Y100.001 E3.84530
G1 X114.546 Y100.617 E3.87118
G1 X114.307 Y101.195 E3.89719
G1 X113.927 Y101.688 E3.92311
G1 X113.521 Y102.001 E3.94445
G1 X113.434 Y102.068 E3.94904
G1 X113.402 Y102.803 F6600.000
G1 F900.000 E2.94904
G92 E0
G1 X117.115 Y111.146 F6600.000
G1 F900.000 E1.50000
G1 X82.885 Y111.146 F900.000 E2.92489
G1 X82.885 Y88.854 E3.85283
G1 X117.115 Y88.854 E5.27772
G1 X117.115 Y111.035 E6.20107
G1 X117.115 Y111.146 E6.20566
G1 X117.850 Y111.881 F6600.000
G1 X82.150 Y111.881 F900.000 E7.69179
G1 X82.150 Y88.119 E8.68098
G1 X117.850 Y88.119 E10.16711
G1 X117.850 Y111.771 E11.15170
G1 X117.850 Y111.881 E11.15629
G1 X118.586 Y112.617 F6600.000
G1 X81.414 Y112.617 F900.000 E12.70367
G1 X81.414 Y87.383 E13.75410
G1 X118.586 Y87.383 E15.30147
G1 X118.586 Y112.507 E16.34731
G1 X118.586 Y112.617 E16.35190
G1 X117.949 Y112.249 F6600.000
G1 F900.000 E15.35190
G92 E0
G1 X116.710 Y110.410 F6600.000
G1 F900.000 E1.50000
G1 X83.290 Y110.410 F1200.000 E2.90626
G1 X83.290 Y109.667 E2.93755
G1 X116.710 Y109.667 E4.34382
G1 X116.710 Y108.923 E4.37510
G1 X83.290 Y108.923 E5.78137
G1 X83.290 Y108.179 E5.81266
G1 X116.710 Y108.179 E7.21892
G1 X116.710 Y107.436 E7.25021
G1 X83.290 Y107.436 E8.65647
G1 X83.290 Y106.692 E8.68776
G1 X116.710 Y106.692 E10.09403
G1 X116.710 Y105.949 E10.12532
G1 X83.290 Y105.949 E11.53158
G1 X83.290 Y105.205 E11.56287
G1 X116.710 Y105.205 E12.96913
G1 X116.710 Y104.462 E13.00042
G1 X113.062 Y104.462 E13.15392
G1 X111.415 Y104.462 F6600.000
G1 X83.290 Y104.462 F1200.000 E14.33736
G1 X83.290 Y103.718 E14.36865
G1 X109.900 Y103.718 E15.48837
G1 X109.087 Y102.974 E15.53474
G1 X83.290 Y102.974 E16.62024
G1 X83.290 Y102.231 E16.65153
G1 X108.542 Y102.231 E17.71409
G1 X108.235 Y101.487 E17.74793
G1 X83.290 Y101.487 E18.79758
G1 X83.290 Y100.744 E18.82887
G1 X108.054 Y100.744 E19.87090
G1 X107.956 Y100.000 E19.90246
G1 X83.290 Y100.000 E20.94036
G1 X83.290 Y99.256 E20.97165
G1 X108.054 Y99.256 E22.01368
G1 X108.235 Y98.513 E22.04588
G1 X83.290 Y98.513 E23.09553
G1 X83.290 Y97.769 E23.12682
G1 X108.543 Y97.769 E24.18943
G1 X109.087 Y97.026 E24.22820
G1 X83.290 Y97.026 E25.31370
G1 X83.290 Y96.282 E25.34499
G1 X109.900 Y96.282 E26.46471
G1 X111.415 Y95.539 E26.53570
G1 X83.290 Y95.539 E27.71915
G1 X83.290 Y94.795 E27.75044
G1 X116.710 Y94.795 E29.15670
G1 X116.710 Y95.539 E29.18799
G1 X113.062 Y95.539 E29.34150
G1 X114.578 Y96.282 E29.41253
G1 X116.710 Y96.282 E29.50227
G1 X116.710 Y97.026 E29.53355
G1 X115.391 Y97.026 E29.58906
G1 F900.000 E28.58906
G92 E0
G1 X116.710 Y94.051 F6600.000
G1 F900.000 E1.50000
G1 X83.290 Y94.051 F1200.000 E2.90626
G1 X83.290 Y93.308 E2.93755
G1 X116.710 Y93.308 E4.34382
G1 X116.710 Y92.564 E4.37511
G1 X83.290 Y92.564 E5.78137
G1 X83.290 Y91.821 E5.81266
G1 X116.710 Y91.821 E7.21892
G1 X116.710 Y91.077 E7.25021
G1 X83.290 Y91.077 E8.65647
G1 X83.290 Y90.333 E8.68776
G1 X116.710 Y90.333 E10.09403
G1 X116.710 Y89.590 E10.12532
G1 X83.290 Y89.590 E11.53158
G1 F900.000 E10.53158
G92 E0
G1 X114.578 Y103.718 F6600.000
G1 F900.000 E1.50000
G1 X116.710 Y103.718 F1200.000 E1.58973
G1 X116.710 Y102.974 E1.62102
G1 X115.391 Y102.974 E1.67653
G1 X116.737 Y101.869 F6600.000
G1 X116.357 Y101.869 F600.000 E1.69441
G1 X116.357 Y101.037 E1.73363
G1 X116.737 Y101.037 E1.75150
G1 F900.000 E0.75150
G92 E0
G1 X116.737 Y98.962 F6600.000
G1 F900.000 E1.50000
G1 X116.357 Y98.962 F600.000 E1.51784
G1 X116.357 Y98.132 E1.55689
G1 X116.737 Y98.132 E1.57473
M106 S108
G1 F900.000 E0.57473
G92 E0
G1 Z0.800 F6600.000
G1 X115.191 Y98.583
G1 F900.000 E1.50000
G1 X115.424 Y99.147 F600.000 E1.51795
G1 X115.537 Y100.001 E1.54330
G1 X115.424 Y100.853 E1.56855
G1 X115.095 Y101.650 E1.59391
G1 X114.570 Y102.331 E1.61920
G1 X113.889 Y102.856 E1.64449
G1 X113.091 Y103.185 E1.66986
G1 X112.240 Y103.298 E1.69511
G1 X111.387 Y103.185 E1.72043
G1 X110.589 Y102.856 E1.74580
G1 X109.908 Y102.331 E1.77109
G1 X109.383 Y101.650 E1.79637
G1 X109.054 Y100.853 E1.82174
G1 X108.941 Y100.001 E1.84699
G1 X109.054 Y99.147 E1.87234
G1 X109.383 Y98.353 E1.89762
G1 X109.907 Y97.670 E1.92292
G1 X110.589 Y97.144 E1.94825
G1 X111.387 Y96.815 E1.97363
G1 X112.240 Y96.702 E1.99895
G1 X113.091 Y96.815 E2.02420
G1 X113.889 Y97.144 E2.04957
G1 X114.571 Y97.670 E2.07490
G1 X115.095 Y98.353 E2.10021
G1 X115.161 Y98.511 E2.10524
G1 X115.191 Y98.583 E2.10753
G1 X114.710 Y98.782 F6600.000
G1 X114.918 Y99.283 F600.000 E2.12348
G1 X115.013 Y100.001 E2.14479
G1 X114.918 Y100.717 E2.16602
G1 X114.641 Y101.388 E2.18736
G1 X114.200 Y101.961 E2.20863
G1 X113.627 Y102.402 E2.22990
G1 X112.956 Y102.679 E2.25124
G1 X112.240 Y102.774 E2.27247
G1 X111.522 Y102.679 E2.29377
G1 X110.851 Y102.402 E2.31511
G1 X110.278 Y101.961 E2.33638
G1 X109.837 Y101.388 E2.35765
G1 X109.560 Y100.717 E2.37898
G1 X109.465 Y100.001 E2.40022
G1 X109.560 Y99.283 E2.42153
G1 X109.837 Y98.615 E2.44279
G1 X110.278 Y98.040 E2.46409
G1 X110.851 Y97.598 E2.48538
G1 X111.522 Y97.321 E2.50673
G1 X112.240 Y97.226 E2.52803
G1 X112.956 Y97.321 E2.54926
G1 X113.627 Y97.598 E2.57060
G1 X114.200 Y98.040 E2.59189
G1 X114.641 Y98.615 E2.61319
G1 X114.681 Y98.710 E2.61622
G1 X114.710 Y98.782 E2.61851
G1 X114.230 Y98.981 F6600.000
G1 X114.412 Y99.418 F600.000 E2.63244
G1 X114.489 Y100.001 E2.64973
G1 X114.412 Y100.581 E2.66694
G1 X114.187 Y101.125 E2.68425
G1 X113.829 Y101.590 E2.70150
G1 X113.365 Y101.948 E2.71875
G1 X112.820 Y102.173 E2.73606
G1 X112.240 Y102.250 E2.75327
G1 X111.658 Y102.173 E2.77055
G1 X111.113 Y101.948 E2.78786
G1 X110.649 Y101.590 E2.80511
G1 X110.291 Y101.125 E2.82236
G1 X110.066 Y100.581 E2.83966
G1 X109.989 Y100.001 E2.85688
G1 X110.066 Y99.418 E2.87416
G1 X110.291 Y98.877 E2.89141
G1 X110.649 Y98.410 E2.90870
G1 X111.113 Y98.052 E2.92596
G1 X111.658 Y97.827 E2.94326
G1 X112.240 Y97.750 E2.96054
G1 X112.820 Y97.827 E2.97776
G1 X113.365 Y98.052 E2.99506
G1 X113.829 Y98.410 E3.01232
G1 X114.201 Y98.909 E3.03060
G1 X114.230 Y98.981 E3.03289
G1 X114.749 Y99.010 F6600.000
G1 F900.000 E2.03289
G92 E0
G1 X117.684 Y88.285 F6600.000
G1 F900.000 E1.50000
G1 X117.684 Y111.715 F1800.000 E2.18898
G1 X82.316 Y111.715 E3.22900
G1 X82.316 Y88.285 E3.91798
G1 X117.606 Y88.285 E4.95571
G1 X117.684 Y88.285 E4.95800
G1 X118.204 Y87.765 F6600.000
G1 X118.204 Y112.235 F1800.000 E5.67754
G1 X81.796 Y112.235 E6.74812
G1 X81.796 Y87.765 E7.46766
G1 X118.126 Y87.765 E8.53595
G1 X118.204 Y87.765 E8.53824
G1 X118.723 Y87.245 F6600.000
G1 X118.723 Y112.755 F1800.000 E9.28834
G1 X81.277 Y112.755 E10.38948
G1 X81.277 Y87.245 E11.13958
G1 X118.646 Y87.245 E12.23842
G1 X118.723 Y87.245 E12.24072
G1 X118.464 Y87.696 F6600.000
G1 X117.165 Y88.571
G1 X117.165 Y111.429 F2400.000 E12.91354
G1 X116.644 Y111.429 E12.92885
G1 X116.644 Y88.571 E13.60168
G1 X116.124 Y88.571 E13.61699
G1 X116.124 Y111.429 E14.28981
G1 X115.604 Y111.429 E14.30512
G1 X115.604 Y101.545 E14.59607
G1 X115.084 Y102.282 E14.62262
G1 X115.084 Y111.429 E14.89188
G1 X114.564 Y111.429 E14.90718
G1 X114.564 Y102.758 E15.16242
G1 X114.044 Y103.120 E15.18108
G1 X114.044 Y111.429 E15.42564
G1 X113.524 Y111.429 E15.44095
G1 X113.524 Y103.335 E15.67920
G1 X113.003 Y103.487 E15.69515
G1 X113.003 Y111.429 E15.92893
G1 X112.483 Y111.429 E15.94424
G1 X112.483 Y103.556 E16.17598
G1 X111.963 Y103.552 F6600.000
G1 X111.963 Y111.429 F2400.000 E16.40785
G1 X111.443 Y111.429 E16.42316
G1 X111.443 Y103.483 E16.65706
G1 X110.923 Y103.322 E16.67308
G1 X110.923 Y111.429 E16.91171
G1 X110.403 Y111.429 E16.92703
G1 X110.403 Y103.107 E17.17197
G1 X109.883 Y102.734 E17.19082
G1 X109.883 Y111.429 E17.44677
G1 X109.363 Y111.429 E17.46208
G1 X109.363 Y102.241 E17.73254
G1 X108.842 Y101.468 E17.75995
G1 X108.842 Y111.429 E18.05315
G1 X108.322 Y111.429 E18.06846
G1 X108.322 Y88.571 E18.74129
G1 X108.842 Y88.571 E18.75659
G1 X108.842 Y98.534 E19.04985
G1 X109.363 Y97.759 E19.07731
G1 X109.363 Y88.571 E19.34778
G1 X109.883 Y88.571 E19.36308
G1 X109.883 Y97.266 E19.61903
G1 X110.403 Y96.893 E19.63788
G1 X110.403 Y88.571 E19.88283
G1 X110.923 Y88.571 E19.89814
G1 X110.923 Y96.678 E20.13677
G1 X111.443 Y96.517 E20.15280
G1 X111.443 Y88.571 E20.38670
G1 X111.963 Y88.571 E20.40201
G1 X111.963 Y96.448 E20.63388
G1 X112.483 Y96.444 F6600.000
G1 X112.483 Y88.571 F2400.000 E20.86562
G1 X113.003 Y88.571 E20.88093
G1 X113.003 Y96.513 E21.11470
G1 X113.524 Y96.665 E21.13066
G1 X113.524 Y88.571 E21.36890
G1 X114.044 Y88.571 E21.38421
