; generated by Slic3r 0.9.8 on 2013-05-21 at 13:06:57

; layer_height = 0.4
; perimeters = 3
; top_solid_layers = 3
; bottom_solid_layers = 3
; fill_density = 0.4
; perimeter_speed = 30
; infill_speed = 40
; travel_speed = 110
; scale = 1
; nozzle_diameter = 0.5
; filament_diameter = 3
; extrusion_multiplier = 1
; perimeters extrusion width = 0.53mm
; infill extrusion width = 0.53mm
; first layer extrusion width = 0.80mm

M107
M104 S225 ; set temperature
G28 ; home all axes
M109 S225 ; wait for temperature to be reached
G90 ; use absolute coordinates
G21 ; set units to millimeters
G92 E0
M82 ; use absolute distances for extrusion
G1 F900.000 E-1.00000
G92 E0
G1 Z0.400 F6600.000
G1 X128.065 Y146.913
G1 F900.000 E1.50000
G1 X128.045 Y147.483 F900.000 E1.52374
G1 X127.975 Y148.053 E1.54765
G1 X127.795 Y148.893 E1.58341
G1 X127.625 Y149.433 E1.60698
G1 X127.415 Y149.973 E1.63109
G1 X127.155 Y150.483 E1.65492
G1 X126.865 Y150.973 E1.67863
G1 X126.535 Y151.443 E1.70253
G1 X126.175 Y151.883 E1.72620
G1 X125.775 Y152.293 E1.75004
G1 X125.565 Y152.493 E1.76211
G1 X124.895 Y153.023 E1.79768
G1 X124.415 Y153.333 E1.82146
G1 X123.915 Y153.613 E1.84532
G1 X123.125 Y153.943 E1.88096
G1 X122.575 Y154.113 E1.90492
G1 X121.735 Y154.293 E1.94068
G1 X120.885 Y154.383 E1.97626
G1 X117.925 Y154.383 E2.09948
G1 X117.075 Y154.293 E2.13506
G1 X116.235 Y154.113 E2.17082
G1 X115.685 Y153.943 E2.19479
G1 X115.155 Y153.733 E2.21852
G1 X114.395 Y153.333 E2.25427
G1 X113.915 Y153.023 E2.27805
G1 X113.455 Y152.673 E2.30212
G1 X112.825 Y152.093 E2.33776
G1 X112.265 Y151.433 E2.37379
G1 X111.785 Y150.723 E2.40947
G1 X111.515 Y150.223 E2.43312
G1 X72.705 Y71.663 E6.08068
G1 X72.345 Y70.803 E6.11949
G1 X72.165 Y70.203 E6.14556
G1 X72.095 Y69.903 E6.15839
G1 X72.035 Y69.593 E6.17153
G1 X71.955 Y68.973 E6.19756
G1 X71.935 Y68.353 E6.22338
G1 X71.935 Y52.793 E6.87110
G1 X71.985 Y52.223 E6.89492
G1 X72.135 Y51.383 E6.93044
G1 X72.375 Y50.553 E6.96641
G1 X72.705 Y49.763 E7.00205
G1 X72.985 Y49.263 E7.02590
G1 X73.295 Y48.783 E7.04969
G1 X73.825 Y48.113 E7.08525
G1 X74.435 Y47.503 E7.12116
G1 X75.105 Y46.973 E7.15672
G1 X75.585 Y46.663 E7.18051
G1 X76.085 Y46.383 E7.20436
G1 X76.875 Y46.053 E7.24000
G1 X77.425 Y45.883 E7.26397
G1 X77.985 Y45.753 E7.28790
G1 X78.545 Y45.663 E7.31151
G1 X79.115 Y45.613 E7.33533
G1 X120.875 Y45.613 E9.07369
G1 X121.725 Y45.703 E9.10928
G1 X122.565 Y45.883 E9.14504
G1 X123.115 Y46.053 E9.16900
G1 X123.375 Y46.153 E9.18060
G1 X123.645 Y46.263 E9.19273
G1 X124.155 Y46.523 E9.21656
G1 X124.885 Y46.973 E9.25226
G1 X125.555 Y47.503 E9.28782
G1 X126.165 Y48.113 E9.32373
G1 X126.695 Y48.783 E9.35930
G1 X127.005 Y49.263 E9.38308
G1 X127.285 Y49.763 E9.40694
G1 X127.615 Y50.553 E9.44258
G1 X127.785 Y51.103 E9.46654
G1 X127.915 Y51.663 E9.49047
G1 X128.005 Y52.223 E9.51408
G1 X128.055 Y52.793 E9.53790
G1 X128.065 Y146.803 E13.45129
G1 X128.065 Y146.913 E13.45589
G1 X127.335 Y146.913 F6600.000
G1 X127.285 Y147.723 F900.000 E13.48967
G1 X127.245 Y147.993 E13.50103
G1 X127.135 Y148.523 E13.52356
G1 X126.985 Y149.043 E13.54609
G1 X126.685 Y149.803 E13.58010
G1 X126.285 Y150.513 E13.61403
G1 X125.975 Y150.963 E13.63677
G1 X125.635 Y151.383 E13.65927
G1 X125.265 Y151.773 E13.68165
G1 X124.855 Y152.133 E13.70436
G1 X124.425 Y152.453 E13.72667
G1 X123.965 Y152.743 E13.74931
G1 X123.485 Y153.003 E13.77203
G1 X122.985 Y153.213 E13.79461
G1 X122.465 Y153.383 E13.81738
G1 X121.945 Y153.513 E13.83969
G1 X121.405 Y153.603 E13.86248
G1 X120.595 Y153.653 E13.89627
G1 X117.935 Y153.643 E14.00700
G1 X117.385 Y153.593 E14.02999
G1 X116.565 Y153.443 E14.06469
G1 X116.035 Y153.283 E14.08773
G1 X115.515 Y153.083 E14.11092
G1 X115.265 Y152.973 E14.12229
G1 X114.545 Y152.563 E14.15678
G1 X114.095 Y152.243 E14.17977
G1 X113.465 Y151.693 E14.21458
G1 X113.085 Y151.283 E14.23785
G1 X112.745 Y150.843 E14.26100
G1 X112.445 Y150.383 E14.28386
G1 X112.175 Y149.893 E14.30715
G1 X73.365 Y71.333 E17.95471
G1 X73.115 Y70.773 E17.98023
G1 X72.845 Y69.883 E18.01895
G1 X72.695 Y68.973 E18.05734
G1 X72.665 Y68.353 E18.08318
G1 X72.665 Y53.083 E18.71883
G1 X72.715 Y52.273 E18.75262
G1 X72.805 Y51.733 E18.77541
G1 X73.015 Y50.953 E18.80903
G1 X73.315 Y50.193 E18.84304
G1 X73.715 Y49.483 E18.87697
G1 X74.185 Y48.823 E18.91070
G1 X74.735 Y48.223 E18.94458
G1 X75.145 Y47.863 E18.96729
G1 X75.575 Y47.543 E18.98960
G1 X76.035 Y47.253 E19.01224
G1 X76.515 Y46.993 E19.03496
G1 X77.015 Y46.783 E19.05754
G1 X77.795 Y46.543 E19.09151
G1 X78.325 Y46.433 E19.11404
G1 X78.595 Y46.393 E19.12541
G1 X79.405 Y46.343 E19.15919
G1 X120.855 Y46.353 E20.88465
G1 X121.395 Y46.393 E20.90719
G1 X121.665 Y46.433 E20.91855
G1 X122.455 Y46.613 E20.95228
G1 X123.225 Y46.883 E20.98625
G1 X123.475 Y46.993 E20.99762
G1 X123.955 Y47.253 E21.02034
G1 X124.635 Y47.703 E21.05429
G1 X125.255 Y48.223 E21.08797
G1 X125.805 Y48.823 E21.12185
G1 X126.125 Y49.253 E21.14417
G1 X126.415 Y49.713 E21.16680
G1 X126.675 Y50.193 E21.18953
G1 X126.975 Y50.953 E21.22354
G1 X127.125 Y51.473 E21.24607
G1 X127.235 Y52.003 E21.26860
G1 X127.275 Y52.273 E21.27996
G1 X127.325 Y53.083 E21.31374
G1 X127.335 Y146.803 E25.21506
G1 X127.335 Y146.913 E25.21966
G1 F900.000 E24.21966
G92 E0
G1 X88.876 Y62.387 F6600.000
G1 F900.000 E1.50000
G1 X87.949 Y62.773 F300.000 E1.54179
G1 X86.939 Y62.904 E1.58418
G1 X85.943 Y62.775 E1.62600
G1 X85.005 Y62.387 E1.66826
G1 X84.205 Y61.770 E1.71032
G1 X83.590 Y60.968 E1.75236
G1 X83.204 Y60.036 E1.79437
G1 X83.071 Y59.033 E1.83649
G1 X83.204 Y58.030 E1.87863
G1 X83.590 Y57.097 E1.92066
G1 X84.207 Y56.297 E1.96269
G1 X85.005 Y55.681 E2.00466
G1 X85.940 Y55.294 E2.04677
G1 X86.943 Y55.161 E2.08890
G1 X87.946 Y55.294 E2.13101
G1 X88.878 Y55.680 E2.17302
G1 X89.682 Y56.297 E2.21518
G1 X90.294 Y57.095 E2.25706
G1 X90.685 Y58.031 E2.29929
G1 X90.814 Y59.033 E2.34131
G1 X90.685 Y60.036 E2.38342
G1 X90.295 Y60.968 E2.42550
G1 X89.684 Y61.770 E2.46744
G1 X88.964 Y62.320 E2.50517
G1 X88.876 Y62.387 E2.50976
G1 X88.506 Y61.744 F6600.000
G1 X87.756 Y62.057 F300.000 E2.54360
G1 X86.941 Y62.162 E2.57781
G1 X86.134 Y62.058 E2.61167
G1 X85.377 Y61.744 E2.64578
G1 X84.730 Y61.246 E2.67978
G1 X84.233 Y60.598 E2.71379
G1 X83.921 Y59.844 E2.74775
G1 X83.813 Y59.033 E2.78180
G1 X83.921 Y58.222 E2.81585
G1 X84.233 Y57.468 E2.84983
G1 X84.731 Y56.821 E2.88381
G1 X85.377 Y56.324 E2.91775
G1 X86.132 Y56.011 E2.95178
G1 X86.943 Y55.903 E2.98582
G1 X87.754 Y56.011 E3.01987
G1 X88.508 Y56.323 E3.05383
G1 X89.157 Y56.821 E3.08791
G1 X89.652 Y57.467 E3.12178
G1 X89.968 Y58.223 E3.15589
G1 X90.072 Y59.033 E3.18987
G1 X89.968 Y59.844 E3.22391
G1 X89.652 Y60.598 E3.25792
G1 X89.158 Y61.246 E3.29185
G1 X88.594 Y61.677 E3.32142
G1 X88.506 Y61.744 E3.32601
G1 X88.136 Y61.101 F6600.000
G1 X87.562 Y61.341 F300.000 E3.35190
G1 X86.942 Y61.420 E3.37793
G1 X86.325 Y61.341 E3.40383
G1 X85.749 Y61.102 E3.42979
G1 X85.255 Y60.722 E3.45573
G1 X84.876 Y60.227 E3.48171
G1 X84.637 Y59.652 E3.50762
G1 X84.556 Y59.033 E3.53360
G1 X84.637 Y58.414 E3.55957
G1 X84.876 Y57.839 E3.58549
G1 X85.256 Y57.346 E3.61142
G1 X85.749 Y56.966 E3.63733
G1 X86.324 Y56.727 E3.66327
G1 X86.943 Y56.646 E3.68924
G1 X87.562 Y56.727 E3.71521
G1 X88.137 Y56.966 E3.74113
G1 X88.632 Y57.346 E3.76713
G1 X89.010 Y57.839 E3.79299
G1 X89.251 Y58.415 E3.81898
G1 X89.330 Y59.033 E3.84492
G1 X89.251 Y59.652 E3.87088
G1 X89.010 Y60.227 E3.89683
G1 X88.633 Y60.722 E3.92275
G1 X88.224 Y61.034 E3.94416
G1 X88.136 Y61.101 E3.94875
G1 X88.105 Y61.836 F6600.000
G1 F900.000 E2.94875
G92 E0
G1 X103.842 Y60.036 F6600.000
G1 F900.000 E1.50000
G1 X103.709 Y59.033 F300.000 E1.54211
G1 X103.842 Y58.030 E1.58424
G1 X104.227 Y57.100 E1.62613
G1 X104.842 Y56.294 E1.66833
G1 X105.648 Y55.679 E1.71053
G1 X106.578 Y55.294 E1.75243
G1 X107.581 Y55.161 E1.79455
G1 X108.584 Y55.294 E1.83667
G1 X109.516 Y55.680 E1.87865
G1 X110.317 Y56.294 E1.92067
G1 X110.934 Y57.098 E1.96283
G1 X111.216 Y57.779 E1.99355
G1 X111.320 Y58.030 E2.00484
G1 X111.453 Y59.033 E2.04696
G1 X111.320 Y60.036 E2.08908
G1 X110.934 Y60.968 E2.13106
G1 X110.320 Y61.770 E2.17311
G1 X109.517 Y62.386 E2.21525
G1 X108.584 Y62.772 E2.25726
G1 X107.581 Y62.905 E2.29938
G1 X106.578 Y62.772 E2.34150
G1 X105.648 Y62.387 E2.38339
G1 X104.842 Y61.772 E2.42560
G1 X104.227 Y60.966 E2.46780
G1 X103.884 Y60.138 E2.50510
G1 X103.842 Y60.036 E2.50969
G1 X104.559 Y59.844 F6600.000
G1 X104.451 Y59.033 F300.000 E2.54374
G1 X104.559 Y58.222 E2.57779
G1 X104.870 Y57.470 E2.61167
G1 X105.367 Y56.819 E2.64576
G1 X106.018 Y56.322 E2.67985
G1 X106.770 Y56.011 E2.71375
G1 X107.581 Y55.903 E2.74779
G1 X108.392 Y56.011 E2.78184
G1 X109.145 Y56.323 E2.81578
G1 X109.793 Y56.819 E2.84973
G1 X110.291 Y57.468 E2.88382
G1 X110.536 Y58.061 E2.91051
G1 X110.603 Y58.222 E2.91778
G1 X110.711 Y59.033 E2.95183
G1 X110.603 Y59.844 E2.98587
G1 X110.291 Y60.597 E3.01982
G1 X109.795 Y61.245 E3.05379
G1 X109.146 Y61.743 E3.08786
G1 X108.392 Y62.055 E3.12182
G1 X107.581 Y62.163 E3.15587
G1 X106.770 Y62.055 E3.18991
G1 X106.018 Y61.744 E3.22381
G1 X105.367 Y61.247 E3.25789
G1 X104.870 Y60.596 E3.29199
G1 X104.601 Y59.946 E3.32128
G1 X104.559 Y59.844 E3.32588
G1 X105.275 Y59.652 F6600.000
G1 X105.194 Y59.033 F300.000 E3.35185
G1 X105.275 Y58.414 E3.37782
G1 X105.513 Y57.840 E3.40371
G1 X105.892 Y57.344 E3.42969
G1 X106.388 Y56.965 E3.45566
G1 X106.962 Y56.727 E3.48155
G1 X107.581 Y56.646 E3.50752
G1 X108.200 Y56.727 E3.53350
G1 X108.775 Y56.966 E3.55940
G1 X109.268 Y57.344 E3.58529
G1 X109.648 Y57.839 E3.61129
G1 X109.857 Y58.342 E3.63396
G1 X109.887 Y58.414 E3.63721
G1 X109.968 Y59.033 E3.66318
G1 X109.887 Y59.652 E3.68915
G1 X109.648 Y60.227 E3.71506
G1 X109.270 Y60.720 E3.74096
G1 X108.775 Y61.100 E3.76695
G1 X108.200 Y61.339 E3.79287
G1 X107.581 Y61.420 E3.81884
G1 X106.962 Y61.339 E3.84481
G1 X106.388 Y61.101 E3.87070
G1 X105.892 Y60.722 E3.89668
G1 X105.513 Y60.226 E3.92266
G1 X105.318 Y59.753 E3.94395
G1 X105.275 Y59.652 E3.94854
G1 X104.574 Y59.431 F6600.000
G1 F900.000 E2.94854
G92 E0
G1 X98.411 Y66.886 F6600.000
G1 F900.000 E1.50000
G1 X80.878 Y66.886 F900.000 E2.22985
G1 X80.876 Y54.554 E2.74318
G1 X119.120 Y54.554 E4.33516
G1 X119.121 Y66.884 E4.84841
G1 X98.521 Y66.886 E5.70592
G1 X98.411 Y66.886 E5.71052
G1 X98.411 Y67.621 F6600.000
G1 X80.143 Y67.621 F900.000 E6.47099
G1 X80.141 Y53.819 E7.04556
G1 X119.855 Y53.819 E8.69879
G1 X119.859 Y146.181 E12.54362
G1 X118.955 Y146.181 E12.58129
G1 X118.953 Y67.619 E15.85163
G1 X98.521 Y67.621 E16.70214
G1 X98.411 Y67.621 E16.70673
G1 X98.411 Y68.357 F6600.000
G1 X79.407 Y68.357 F900.000 E17.49782
G1 X79.405 Y53.083 E18.13364
G1 X120.591 Y53.083 E19.84811
G1 X120.595 Y146.917 E23.75419
G1 X118.219 Y146.917 E23.85310
G1 X118.217 Y68.355 E27.12344
G1 X98.521 Y68.357 E27.94332
G1 X98.411 Y68.357 E27.94792
G1 X98.043 Y67.720 F6600.000
G1 F900.000 E26.94792
G92 E0
G1 X99.753 Y66.150 F6600.000
G1 F900.000 E1.50000
G1 X81.282 Y66.150 F1200.000 E2.31081
G1 X81.282 Y65.374 E2.34486
G1 X118.716 Y65.374 E3.98813
G1 X118.716 Y64.599 E4.02218
G1 X81.282 Y64.599 E5.66545
G1 X81.282 Y63.823 E5.69950
G1 X118.716 Y63.823 E7.34277
G1 X118.716 Y63.047 E7.37683
G1 X109.510 Y63.047 E7.78095
G1 X110.532 Y62.271 E7.83726
G1 X118.716 Y62.271 E8.19653
G1 X118.716 Y61.496 E8.23058
G1 X111.125 Y61.496 E8.56380
G1 X111.502 Y60.720 E8.60165
G1 X118.716 Y60.720 E8.91835
G1 X118.716 Y59.944 E8.95240
G1 X111.743 Y59.944 E9.25850
G1 X111.846 Y59.168 E9.29285
G1 X118.716 Y59.168 E9.59444
G1 X118.716 Y58.393 E9.62849
G1 X111.779 Y58.393 E9.93301
G1 X111.614 Y57.617 E9.96783
G1 X118.716 Y57.617 E10.27958
G1 X118.716 Y56.841 E10.31363
G1 X111.293 Y56.841 E10.63949
G1 X110.738 Y56.066 E10.68135
G1 X118.716 Y56.066 E11.03154
G1 X118.715 Y55.290 E11.06560
G1 X110.143 Y55.290 E11.44190
G1 F900.000 E10.44190
G92 E0
G1 X105.013 Y55.290 F6600.000
G1 F900.000 E1.50000
G1 X89.506 Y55.290 F1200.000 E2.18071
G1 X90.100 Y56.066 E2.22360
G1 X104.422 Y56.066 E2.85229
G1 X103.869 Y56.841 E2.89410
G1 X90.654 Y56.841 E3.47424
G1 X90.978 Y57.617 E3.51115
G1 X103.548 Y57.617 E4.06295
G1 X103.383 Y58.393 E4.09777
G1 X91.142 Y58.393 E4.63513
G1 X91.207 Y59.168 E4.66930
G1 X103.316 Y59.168 E5.20089
G1 X103.419 Y59.944 E5.23524
G1 X91.107 Y59.944 E5.77572
G1 X90.865 Y60.720 E5.81139
G1 X103.660 Y60.720 E6.37308
G1 X104.037 Y61.496 E6.41094
G1 X90.487 Y61.496 E7.00580
G1 X89.895 Y62.271 E7.04861
G1 X104.629 Y62.271 E7.69537
G1 X105.652 Y63.047 E7.75173
G1 X88.873 Y63.047 E8.48829
G1 F900.000 E7.48829
G92 E0
G1 X85.009 Y63.047 F6600.000
G1 F900.000 E1.50000
G1 X81.282 Y63.047 F1200.000 E1.66361
G1 X81.282 Y62.271 E1.69766
G1 X83.994 Y62.271 E1.81670
G1 X83.399 Y61.496 E1.85962
G1 X81.282 Y61.496 E1.95255
G1 X81.282 Y60.720 E1.98661
G1 X83.022 Y60.720 E2.06302
G1 X82.781 Y59.944 E2.09868
G1 X81.282 Y59.944 E2.16450
G1 X81.282 Y59.168 E2.19856
G1 X82.679 Y59.168 E2.25988
G1 X82.745 Y58.393 E2.29406
G1 X81.281 Y58.393 E2.35832
G1 X81.281 Y57.617 E2.39237
G1 X82.910 Y57.617 E2.46387
G1 X83.231 Y56.841 E2.50072
G1 X81.281 Y56.841 E2.58631
G1 X81.281 Y56.066 E2.62036
G1 X83.787 Y56.066 E2.73038
G1 X84.385 Y55.290 E2.77337
G1 X81.281 Y55.290 E2.90964
M106 S97
G1 F900.000 E1.90964
G92 E0
G1 Z0.800 F6600.000
G1 X104.364 Y58.425
G1 F900.000 E1.50000
G1 X104.397 Y58.179 F600.000 E1.50732
G1 X104.725 Y57.386 E1.53253
G1 X105.248 Y56.700 E1.55791
G1 X105.934 Y56.177 E1.58328
G1 X106.727 Y55.849 E1.60850
G1 X107.581 Y55.736 E1.63384
G1 X108.435 Y55.849 E1.65918
G1 X109.229 Y56.178 E1.68444
G1 X109.911 Y56.700 E1.70971
G1 X110.436 Y57.385 E1.73507
G1 X110.765 Y58.179 E1.76035
G1 X110.878 Y59.033 E1.78569
G1 X110.765 Y59.887 E1.81102
G1 X110.436 Y60.681 E1.83629
G1 X109.914 Y61.364 E1.86158
G1 X109.229 Y61.888 E1.88693
G1 X108.435 Y62.217 E1.91220
G1 X107.581 Y62.330 E1.93754
G1 X106.727 Y62.217 E1.96288
G1 X105.935 Y61.889 E1.98809
G1 X105.248 Y61.366 E2.01347
G1 X104.725 Y60.679 E2.03884
G1 X104.397 Y59.887 E2.06406
G1 X104.284 Y59.033 E2.08940
G1 X104.354 Y58.503 E2.10513
G1 X104.364 Y58.425 E2.10742
G1 X104.879 Y58.494 F6600.000
G1 X104.903 Y58.315 F600.000 E2.11273
G1 X105.179 Y57.648 E2.13395
G1 X105.619 Y57.071 E2.15528
G1 X106.196 Y56.631 E2.17661
G1 X106.863 Y56.355 E2.19783
G1 X107.581 Y56.260 E2.21914
G1 X108.299 Y56.355 E2.24045
G1 X108.967 Y56.632 E2.26170
G1 X109.541 Y57.071 E2.28294
G1 X109.982 Y57.647 E2.30428
G1 X110.259 Y58.315 E2.32554
G1 X110.354 Y59.033 E2.34685
G1 X110.259 Y59.751 E2.36816
G1 X109.982 Y60.419 E2.38941
G1 X109.543 Y60.993 E2.41067
G1 X108.967 Y61.434 E2.43199
G1 X108.299 Y61.711 E2.45325
G1 X107.581 Y61.806 E2.47456
G1 X106.863 Y61.711 E2.49587
G1 X106.196 Y61.435 E2.51709
G1 X105.619 Y60.995 E2.53842
G1 X105.179 Y60.418 E2.55975
G1 X104.903 Y59.751 E2.58097
G1 X104.808 Y59.033 E2.60228
G1 X104.869 Y58.571 E2.61599
G1 X104.879 Y58.494 E2.61828
G1 X105.395 Y58.562 F6600.000
G1 X105.409 Y58.450 F600.000 E2.62158
G1 X105.634 Y57.909 E2.63881
G1 X105.990 Y57.442 E2.65609
G1 X106.457 Y57.086 E2.67337
G1 X106.998 Y56.861 E2.69060
G1 X107.581 Y56.784 E2.70788
G1 X108.164 Y56.861 E2.72516
G1 X108.705 Y57.086 E2.74240
G1 X109.170 Y57.442 E2.75962
G1 X109.528 Y57.909 E2.77692
G1 X109.753 Y58.450 E2.79417
G1 X109.830 Y59.033 E2.81145
G1 X109.753 Y59.616 E2.82873
G1 X109.528 Y60.157 E2.84597
G1 X109.172 Y60.623 E2.86320
G1 X108.705 Y60.980 E2.88049
G1 X108.164 Y61.205 E2.89774
G1 X107.581 Y61.282 E2.91502
G1 X106.998 Y61.205 E2.93230
G1 X106.457 Y60.980 E2.94953
G1 X105.990 Y60.624 E2.96681
G1 X105.634 Y60.157 E2.98409
G1 X105.409 Y59.616 E3.00132
G1 X105.332 Y59.033 E3.01860
G1 X105.384 Y58.639 E3.03028
