; generated by Slic3r 0.9.8 on 2013-05-21 at 14:14:01

; layer_height = .25
; perimeters = 1
; top_solid_layers = 4
; bottom_solid_layers = 4
; fill_density = .9
; perimeter_speed = 30
; infill_speed = 40
; travel_speed = 130
; scale = 1
; nozzle_diameter = 0.5
; filament_diameter = 3
; extrusion_multiplier = 1
; perimeters extrusion width = 0.80mm
; infill extrusion width = 0.80mm
; first layer extrusion width = 0.50mm

M107
M104 S225 ; set temperature
G28 ; home all axes
M109 S225 ; wait for temperature to be reached
G90 ; use absolute coordinates
G21 ; set units to millimeters
G92 E0
M82 ; use absolute distances for extrusion
G1 F900.000 E-1.00000
G92 E0
G1 Z0.250 F7800.000
G1 X127.737 Y149.643
G1 F900.000 E1.50000
G1 X127.717 Y150.193 F900.000 E1.50973
G1 X127.607 Y151.013 E1.52436
G1 X127.477 Y151.543 E1.53401
G1 X127.307 Y152.063 E1.54369
G1 X127.097 Y152.573 E1.55344
G1 X126.847 Y153.063 E1.56317
G1 X126.557 Y153.533 E1.57294
G1 X126.237 Y153.973 E1.58256
G1 X125.877 Y154.393 E1.59234
G1 X125.487 Y154.783 E1.60209
G1 X125.067 Y155.143 E1.61187
G1 X124.627 Y155.463 E1.62150
G1 X124.157 Y155.753 E1.63126
G1 X123.667 Y156.003 E1.64099
G1 X123.157 Y156.213 E1.65074
G1 X122.637 Y156.383 E1.66042
G1 X122.107 Y156.513 E1.67007
G1 X121.287 Y156.623 E1.68470
G1 X120.737 Y156.643 E1.69443
G1 X118.067 Y156.643 E1.74165
G1 X117.507 Y156.623 E1.75156
G1 X117.237 Y156.593 E1.75636
G1 X116.687 Y156.503 E1.76622
G1 X116.147 Y156.373 E1.77604
G1 X115.357 Y156.103 E1.79080
G1 X114.607 Y155.733 E1.80559
G1 X114.137 Y155.433 E1.81545
G1 X113.477 Y154.933 E1.83009
G1 X113.077 Y154.553 E1.83985
G1 X112.697 Y154.133 E1.84987
G1 X112.357 Y153.693 E1.85970
G1 X112.057 Y153.233 E1.86941
G1 X111.787 Y152.743 E1.87930
G1 X72.977 Y74.183 E3.42883
G1 X72.857 Y73.923 E3.43389
G1 X72.647 Y73.373 E3.44430
G1 X72.407 Y72.533 E3.45975
G1 X72.307 Y71.953 E3.47016
G1 X72.277 Y71.663 E3.47532
G1 X72.257 Y71.083 E3.48558
G1 X72.257 Y50.343 E3.85234
G1 X72.277 Y49.793 E3.86208
G1 X72.387 Y48.973 E3.87671
G1 X72.597 Y48.183 E3.89116
G1 X72.897 Y47.413 E3.90578
G1 X73.287 Y46.683 E3.92041
G1 X73.757 Y46.013 E3.93488
G1 X74.307 Y45.393 E3.94954
G1 X74.927 Y44.843 E3.96420
G1 X75.597 Y44.373 E3.97867
G1 X76.327 Y43.983 E3.99331
G1 X77.097 Y43.683 E4.00792
G1 X77.887 Y43.473 E4.02237
G1 X78.707 Y43.363 E4.03701
G1 X79.257 Y43.343 E4.04674
G1 X120.737 Y43.343 E4.78027
G1 X121.287 Y43.363 E4.79000
G1 X122.107 Y43.473 E4.80463
G1 X122.897 Y43.683 E4.81908
G1 X123.667 Y43.983 E4.83370
G1 X124.397 Y44.373 E4.84833
G1 X125.067 Y44.843 E4.86281
G1 X125.687 Y45.393 E4.87746
G1 X126.057 Y45.793 E4.88710
G1 X126.557 Y46.453 E4.90174
G1 X126.847 Y46.923 E4.91151
G1 X127.097 Y47.413 E4.92123
G1 X127.307 Y47.923 E4.93099
G1 X127.477 Y48.443 E4.94066
G1 X127.607 Y48.973 E4.95031
G1 X127.687 Y49.523 E4.96014
G1 X127.717 Y49.793 E4.96495
G1 X127.737 Y50.343 E4.97468
G1 X127.737 Y149.568 E6.72936
G1 X127.737 Y149.643 E6.73069
G1 X127.237 Y149.643 F7800.000
G1 X127.217 Y150.163 F900.000 E6.73989
G1 X127.157 Y150.683 E6.74915
G1 X127.047 Y151.203 E6.75855
G1 X126.907 Y151.703 E6.76773
G1 X126.717 Y152.193 E6.77702
G1 X126.497 Y152.663 E6.78620
G1 X126.367 Y152.893 E6.79087
G1 X125.937 Y153.543 E6.80465
G1 X125.607 Y153.953 E6.81396
G1 X125.237 Y154.333 E6.82334
G1 X125.047 Y154.513 E6.82797
G1 X124.427 Y154.993 E6.84183
G1 X123.757 Y155.403 E6.85572
G1 X123.287 Y155.623 E6.86490
G1 X122.797 Y155.813 E6.87419
G1 X122.297 Y155.953 E6.88338
G1 X121.777 Y156.063 E6.89277
G1 X121.257 Y156.123 E6.90203
G1 X120.737 Y156.143 E6.91123
G1 X118.067 Y156.143 E6.95845
G1 X117.537 Y156.123 E6.96783
G1 X117.267 Y156.093 E6.97263
G1 X116.477 Y155.943 E6.98685
G1 X115.967 Y155.793 E6.99625
G1 X115.467 Y155.603 E7.00571
G1 X114.747 Y155.233 E7.02003
G1 X114.527 Y155.093 E7.02464
G1 X114.087 Y154.783 E7.03416
G1 X113.487 Y154.253 E7.04831
G1 X113.117 Y153.863 E7.05782
G1 X112.787 Y153.443 E7.06727
G1 X112.497 Y152.993 E7.07673
G1 X112.237 Y152.523 E7.08623
G1 X73.427 Y73.963 E8.63576
G1 X73.187 Y73.413 E8.64637
G1 X72.997 Y72.853 E8.65683
G1 X72.927 Y72.563 E8.66210
G1 X72.817 Y71.973 E8.67272
G1 X72.757 Y71.083 E8.68849
G1 X72.757 Y50.343 E9.05525
G1 X72.777 Y49.823 E9.06446
G1 X72.837 Y49.303 E9.07371
G1 X72.947 Y48.783 E9.08311
G1 X73.087 Y48.283 E9.09229
G1 X73.277 Y47.793 E9.10159
G1 X73.497 Y47.323 E9.11076
G1 X73.627 Y47.093 E9.11544
G1 X74.057 Y46.443 E9.12922
G1 X74.387 Y46.033 E9.13853
G1 X74.567 Y45.843 E9.14315
G1 X74.947 Y45.473 E9.15253
G1 X75.357 Y45.143 E9.16184
G1 X76.007 Y44.713 E9.17562
G1 X76.237 Y44.583 E9.18029
G1 X76.707 Y44.363 E9.18947
G1 X77.197 Y44.173 E9.19876
G1 X77.957 Y43.973 E9.21266
G1 X78.217 Y43.923 E9.21734
G1 X78.737 Y43.863 E9.22660
G1 X79.257 Y43.843 E9.23580
G1 X120.737 Y43.843 E9.96933
G1 X121.257 Y43.863 E9.97853
G1 X121.777 Y43.923 E9.98779
G1 X122.037 Y43.973 E9.99247
G1 X122.797 Y44.173 E10.00637
G1 X123.287 Y44.363 E10.01566
G1 X123.757 Y44.583 E10.02484
G1 X123.987 Y44.713 E10.02951
G1 X124.637 Y45.143 E10.04329
G1 X125.047 Y45.473 E10.05260
G1 X125.607 Y46.033 E10.06661
G1 X126.087 Y46.653 E10.08047
G1 X126.497 Y47.323 E10.09436
G1 X126.717 Y47.793 E10.10354
G1 X126.907 Y48.283 E10.11283
G1 X127.047 Y48.783 E10.12201
G1 X127.157 Y49.303 E10.13141
G1 X127.217 Y49.823 E10.14067
G1 X127.237 Y50.343 E10.14987
G1 X127.237 Y149.568 E11.90456
G1 X127.237 Y149.643 E11.90588
G1 F900.000 E10.90588
G92 E0
G1 X88.315 Y58.826 F7800.000
G1 F900.000 E1.50000
G1 X87.654 Y59.100 F300.000 E1.51265
G1 X86.944 Y59.194 E1.52531
G1 X86.235 Y59.100 E1.53796
G1 X85.574 Y58.826 E1.55061
G1 X85.006 Y58.391 E1.56326
G1 X84.571 Y57.823 E1.57592
G1 X84.297 Y57.162 E1.58857
G1 X84.204 Y56.453 E1.60122
G1 X84.297 Y55.743 E1.61388
G1 X84.571 Y55.082 E1.62653
G1 X85.006 Y54.515 E1.63918
G1 X85.574 Y54.079 E1.65183
G1 X86.235 Y53.805 E1.66449
G1 X86.944 Y53.712 E1.67714
G1 X87.654 Y53.805 E1.68979
G1 X87.760 Y53.849 E1.69183
G1 X88.315 Y54.079 E1.70245
G1 X88.883 Y54.515 E1.71510
G1 X89.318 Y55.082 E1.72775
G1 X89.548 Y55.637 E1.73837
G1 X89.592 Y55.744 E1.74041
G1 X89.685 Y56.453 E1.75306
G1 X89.592 Y57.162 E1.76571
G1 X89.318 Y57.823 E1.77836
G1 X88.882 Y58.391 E1.79102
G1 X88.374 Y58.781 E1.80234
G1 X88.315 Y58.826 E1.80367
G1 X88.063 Y58.390 F7800.000
G1 X87.523 Y58.613 F300.000 E1.81399
G1 X86.944 Y58.689 E1.82432
G1 X86.366 Y58.613 E1.83464
G1 X85.826 Y58.390 E1.84497
G1 X85.363 Y58.034 E1.85529
G1 X85.008 Y57.571 E1.86562
G1 X84.784 Y57.032 E1.87594
G1 X84.708 Y56.453 E1.88627
G1 X84.784 Y55.874 E1.89659
G1 X85.008 Y55.335 E1.90692
G1 X85.363 Y54.871 E1.91724
G1 X85.826 Y54.516 E1.92757
G1 X86.366 Y54.293 E1.93789
G1 X86.944 Y54.216 E1.94822
G1 X87.569 Y54.311 E1.95938
G1 X88.063 Y54.516 E1.96884
G1 X88.526 Y54.871 E1.97916
G1 X88.881 Y55.335 E1.98949
G1 X89.086 Y55.829 E1.99894
G1 X89.181 Y56.453 E2.01011
G1 X89.105 Y57.032 E2.02043
G1 X88.881 Y57.571 E2.03076
G1 X88.526 Y58.034 E2.04109
G1 X88.122 Y58.344 E2.05008
G1 X88.063 Y58.390 E2.05141
G1 X88.041 Y58.889 F7800.000
G1 F900.000 E1.05141
G92 E0
G1 X104.856 Y56.567 F7800.000
G1 F900.000 E1.50000
G1 X104.841 Y56.453 F300.000 E1.50203
G1 X104.934 Y55.743 E1.51469
G1 X105.208 Y55.082 E1.52734
G1 X105.644 Y54.515 E1.53999
G1 X106.211 Y54.079 E1.55264
G1 X106.873 Y53.805 E1.56530
G1 X107.582 Y53.712 E1.57795
G1 X108.291 Y53.805 E1.59060
G1 X108.952 Y54.079 E1.60326
G1 X109.520 Y54.515 E1.61591
G1 X109.886 Y54.991 E1.62653
G1 X109.956 Y55.082 E1.62856
G1 X110.229 Y55.744 E1.64122
G1 X110.323 Y56.453 E1.65387
G1 X110.229 Y57.162 E1.66652
G1 X109.956 Y57.823 E1.67917
G1 X109.520 Y58.391 E1.69183
G1 X108.952 Y58.826 E1.70448
G1 X108.291 Y59.100 E1.71713
G1 X107.582 Y59.194 E1.72979
G1 X107.468 Y59.179 E1.73182
G1 X106.873 Y59.100 E1.74244
G1 X106.212 Y58.827 E1.75509
G1 X105.644 Y58.391 E1.76774
G1 X105.208 Y57.823 E1.78040
G1 X104.934 Y57.162 E1.79305
G1 X104.866 Y56.641 E1.80234
G1 X104.856 Y56.567 E1.80367
G1 X105.352 Y56.502 F7800.000
G1 X105.422 Y55.874 F300.000 E1.81484
G1 X105.645 Y55.335 E1.82516
G1 X106.000 Y54.871 E1.83549
G1 X106.464 Y54.516 E1.84581
G1 X107.003 Y54.293 E1.85614
G1 X107.582 Y54.216 E1.86646
G1 X108.206 Y54.311 E1.87763
G1 X108.700 Y54.516 E1.88708
G1 X109.163 Y54.871 E1.89741
G1 X109.519 Y55.335 E1.90773
G1 X109.742 Y55.874 E1.91806
G1 X109.812 Y56.404 E1.92751
G1 X109.742 Y57.032 E1.93868
G1 X109.519 Y57.571 E1.94900
G1 X109.163 Y58.034 E1.95933
G1 X108.700 Y58.390 E1.96965
G1 X108.161 Y58.613 E1.97998
G1 X107.582 Y58.689 E1.99030
G1 X106.958 Y58.594 E2.00147
G1 X106.464 Y58.390 E2.01092
G1 X106.000 Y58.034 E2.02125
G1 X105.645 Y57.571 E2.03158
G1 X105.422 Y57.032 E2.04190
G1 X105.362 Y56.576 E2.05003
G1 X105.352 Y56.502 E2.05135
G1 X104.927 Y56.239 F7800.000
G1 F900.000 E1.05135
G92 E0
G1 X120.243 Y50.853 F7800.000
G1 F900.000 E1.50000
G1 X120.243 Y149.147 F900.000 E3.23823
G1 X118.568 Y149.147 E3.26785
G1 X118.568 Y70.585 E4.65712
G1 X79.757 Y70.585 E5.34345
G1 X79.757 Y50.853 E5.69240
G1 X120.168 Y50.853 E6.40703
G1 X120.243 Y50.853 E6.40836
G1 X120.743 Y50.353 F7800.000
G1 X120.743 Y149.647 F900.000 E8.16427
G1 X118.068 Y149.647 E8.21157
G1 X118.068 Y71.085 E9.60085
G1 X79.257 Y71.085 E10.28718
G1 X79.257 Y50.353 E10.65381
G1 X120.668 Y50.353 E11.38612
G1 X120.743 Y50.353 E11.38745
G1 X120.493 Y50.786 F7800.000
G1 X119.968 Y51.353
G1 X80.032 Y51.353 F1500.000 E12.09581
G1 X80.032 Y51.854 E12.10471
G1 X119.968 Y51.854 E12.81307
G1 X119.968 Y52.356 E12.82197
G1 X80.032 Y52.356 E13.53033
G1 X80.032 Y52.857 E13.53923
G1 X119.968 Y52.857 E14.24759
G1 X119.968 Y53.359 E14.25648
G1 X108.295 Y53.359 E14.46354
G1 X109.264 Y53.860 E14.48289
G1 X119.968 Y53.860 E14.67275
G1 X119.968 Y54.362 E14.68165
G1 X109.808 Y54.362 E14.86186
G1 X110.181 Y54.863 E14.87295
G1 X119.968 Y54.863 E15.04654
G1 X119.968 Y55.365 E15.05544
G1 X110.389 Y55.365 E15.22535
G1 X110.525 Y55.867 E15.23456
G1 X119.968 Y55.867 E15.40206
G1 X119.968 Y56.368 E15.41096
G1 X110.591 Y56.368 E15.57728
G1 X110.547 Y56.870 E15.58621
G1 X119.968 Y56.870 E15.75332
G1 X119.968 Y57.371 E15.76221
G1 X110.459 Y57.371 E15.93088
G1 X110.252 Y57.873 E15.94050
G1 X119.968 Y57.873 E16.11284
G1 X119.968 Y58.374 E16.12173
G1 X109.938 Y58.374 E16.29964
G1 X109.485 Y58.876 E16.31163
G1 X119.968 Y58.876 E16.49757
G1 X119.968 Y59.377 E16.50647
G1 X108.705 Y59.377 E16.70625
G1 F900.000 E15.70625
G92 E0
G1 X106.460 Y59.377 F7800.000
G1 F900.000 E1.50000
G1 X88.067 Y59.377 F1500.000 E1.82624
G1 X88.847 Y58.876 E1.84270
G1 X105.680 Y58.876 E2.14127
G1 X105.226 Y58.374 E2.15327
G1 X89.301 Y58.374 E2.43574
G1 X89.614 Y57.873 E2.44623
G1 X104.913 Y57.873 E2.71759
G1 X104.705 Y57.371 E2.72722
G1 X89.821 Y57.371 E2.99121
G1 X89.910 Y56.870 E3.00025
G1 X104.617 Y56.870 E3.26111
G1 X104.573 Y56.368 E3.27004
G1 X89.953 Y56.368 E3.52935
G1 X89.887 Y55.867 E3.53833
G1 X104.639 Y55.867 E3.79998
G1 X104.776 Y55.365 E3.80920
G1 X89.751 Y55.365 E4.07570
G1 X89.543 Y54.863 E4.08533
G1 X104.983 Y54.863 E4.35918
G1 X105.356 Y54.362 E4.37027
G1 X89.170 Y54.362 E4.65735
G1 X88.626 Y53.860 E4.67048
G1 X105.901 Y53.860 E4.97689
G1 X106.870 Y53.359 E4.99625
G1 X87.657 Y53.359 E5.33703
G1 X86.232 Y53.359 F7800.000
G1 X80.032 Y53.359 F1500.000 E5.44700
G1 X80.032 Y53.860 E5.45589
G1 X85.263 Y53.860 E5.54868
G1 X84.719 Y54.362 E5.56181
G1 X80.032 Y54.362 E5.64494
G1 X80.032 Y54.863 E5.65384
G1 X84.345 Y54.863 E5.73035
G1 X84.138 Y55.365 E5.73998
G1 X80.032 Y55.365 E5.81281
G1 X80.032 Y55.867 E5.82170
G1 X84.002 Y55.867 E5.89211
G1 X83.936 Y56.368 E5.90109
G1 X80.032 Y56.368 E5.97033
G1 X80.032 Y56.870 E5.97922
G1 X83.979 Y56.870 E6.04924
G1 X84.067 Y57.371 E6.05827
G1 X80.032 Y57.371 E6.12985
G1 X80.032 Y57.873 E6.13875
G1 X84.275 Y57.873 E6.21401
G1 X84.588 Y58.374 E6.22450
G1 X80.032 Y58.374 E6.30532
G1 X80.032 Y58.876 E6.31422
G1 X85.042 Y58.876 E6.40309
G1 X85.822 Y59.377 E6.41954
G1 X80.032 Y59.377 E6.52224
G1 X80.032 Y59.879 E6.53114
G1 X119.968 Y59.879 E7.23950
G1 X119.968 Y60.380 E7.24839
G1 X80.032 Y60.380 E7.95676
G1 X80.032 Y60.882 E7.96565
G1 X119.968 Y60.882 E8.67402
G1 X119.968 Y61.383 E8.68291
G1 X80.032 Y61.383 E9.39127
G1 X80.032 Y61.885 E9.40017
G1 X119.968 Y61.885 E10.10853
G1 X119.968 Y62.386 E10.11743
G1 X80.032 Y62.386 E10.82579
G1 X80.032 Y62.888 E10.83469
G1 X119.968 Y62.888 E11.54305
G1 X119.968 Y63.389 E11.55195
G1 X80.032 Y63.389 E12.26031
G1 X80.032 Y63.891 E12.26921
G1 X119.968 Y63.891 E12.97757
G1 X119.968 Y64.392 E12.98647
G1 X80.032 Y64.392 E13.69483
G1 X80.032 Y64.894 E13.70372
G1 X119.968 Y64.894 E14.41209
G1 X119.968 Y65.395 E14.42098
G1 X80.032 Y65.395 E15.12935
G1 X80.032 Y65.897 E15.13824
G1 X119.968 Y65.897 E15.84660
G1 X119.968 Y66.398 E15.85550
G1 X80.032 Y66.398 E16.56386
G1 X80.032 Y66.900 E16.57276
G1 X119.968 Y66.900 E17.28112
G1 X119.968 Y67.401 E17.29002
G1 X80.032 Y67.401 E17.99838
G1 X80.032 Y67.903 E18.00728
G1 X119.968 Y67.903 E18.71564
G1 X119.968 Y68.404 E18.72454
G1 X80.032 Y68.404 E19.43290
G1 X80.032 Y68.906 E19.44179
G1 X119.968 Y68.906 E20.15016
G1 X119.968 Y69.407 E20.15905
G1 X80.032 Y69.407 E20.86742
G1 X80.032 Y69.909 E20.87631
G1 X119.968 Y69.909 E21.58467
G1 X118.843 Y70.411 E21.60652
G1 X119.968 Y70.411 E21.62648
G1 X119.968 Y70.912 E21.63537
G1 X118.843 Y70.912 E21.65533
G1 X118.843 Y71.414 E21.66422
G1 X119.968 Y71.414 E21.68418
G1 X119.968 Y71.915 E21.69307
G1 X118.843 Y71.915 E21.71303
G1 X118.843 Y72.417 E21.72192
G1 X119.968 Y72.417 E21.74188
G1 X119.968 Y72.918 E21.75077
G1 X118.843 Y72.918 E21.77073
G1 X118.843 Y73.420 E21.77962
G1 X119.968 Y73.420 E21.79958
G1 X119.968 Y73.921 E21.80847
G1 X118.843 Y73.921 E21.82843
G1 X118.843 Y74.423 E21.83732
G1 X119.968 Y74.423 E21.85728
G1 X119.968 Y74.924 E21.86617
G1 X118.843 Y74.924 E21.88613
G1 X118.843 Y75.426 E21.89502
G1 X119.968 Y75.426 E21.91498
G1 X119.968 Y75.927 E21.92388
G1 X118.843 Y75.927 E21.94383
G1 X118.843 Y76.429 E21.95273
G1 X119.968 Y76.429 E21.97268
G1 X119.968 Y76.930 E21.98158
G1 X118.843 Y76.930 E22.00153
G1 X118.843 Y77.432 E22.01043
G1 X119.968 Y77.432 E22.03038
G1 X119.968 Y77.933 E22.03928
G1 X118.843 Y77.933 E22.05923
G1 X118.843 Y78.435 E22.06813
G1 X119.968 Y78.435 E22.08808
G1 X119.968 Y78.936 E22.09698
G1 X118.843 Y78.936 E22.11693
G1 X118.843 Y79.438 E22.12583
G1 X119.968 Y79.438 E22.14578
G1 X119.968 Y79.939 E22.15468
G1 X118.843 Y79.939 E22.17463
G1 X118.843 Y80.441 E22.18353
G1 X119.968 Y80.441 E22.20348
G1 X119.968 Y80.942 E22.21238
G1 X118.843 Y80.942 E22.23233
G1 X118.843 Y81.444 E22.24123
G1 X119.968 Y81.444 E22.26118
G1 X119.968 Y81.945 E22.27008
G1 X118.843 Y81.945 E22.29004
G1 X118.843 Y82.447 E22.29893
G1 X119.968 Y82.447 E22.31889
G1 X119.968 Y82.948 E22.32778
G1 X118.843 Y82.948 E22.34774
G1 X118.843 Y83.450 E22.35663
G1 X119.968 Y83.450 E22.37659
G1 X119.968 Y83.951 E22.38548
G1 X118.843 Y83.951 E22.40544
G1 X118.843 Y84.453 E22.41433
G1 X119.968 Y84.453 E22.43429
G1 X119.968 Y84.955 E22.44318
G1 X118.843 Y84.955 E22.46314
G1 X118.843 Y85.456 E22.47203
G1 X119.968 Y85.456 E22.49199
G1 X119.968 Y85.958 E22.50088
G1 X118.843 Y85.958 E22.52084
G1 X118.843 Y86.459 E22.52973
G1 X119.968 Y86.459 E22.54969
G1 X119.968 Y86.961 E22.55858
G1 X118.843 Y86.961 E22.57854
G1 X118.843 Y87.462 E22.58743
G1 X119.968 Y87.462 E22.60739
G1 X119.968 Y87.964 E22.61629
G1 X118.843 Y87.964 E22.63624
G1 X118.843 Y88.465 E22.64514
G1 X119.968 Y88.465 E22.66509
G1 X119.968 Y88.967 E22.67399
G1 X118.843 Y88.967 E22.69394
G1 X118.843 Y89.468 E22.70284
G1 X119.968 Y89.468 E22.72279
G1 X119.968 Y89.970 E22.73169
G1 X118.843 Y89.970 E22.75164
G1 X118.843 Y90.471 E22.76054
G1 X119.968 Y90.471 E22.78049
