; generated by Slic3r 0.9.8 on 2013-05-24 at 20:58:25

; layer_height = .25
; perimeters = 1
; top_solid_layers = 4
; bottom_solid_layers = 4
; fill_density = .9
; perimeter_speed = 30
; infill_speed = 40
; travel_speed = 130
; scale = 1
; nozzle_diameter = 0.5
; filament_diameter = 3
; extrusion_multiplier = 1
; perimeters extrusion width = 0.80mm
; infill extrusion width = 0.80mm
; first layer extrusion width = 0.50mm

M107
M104 S210 ; set temperature
G28 ; home all axes
M109 S210 ; wait for temperature to be reached
G90 ; use absolute coordinates
G21 ; set units to millimeters
G92 E0
M82 ; use absolute distances for extrusion
G1 Z0.250 F7800.000
G1 X127.033 Y128.242
G1 X126.483 Y128.862 F900.000 E0.01466
G1 X126.083 Y129.232 E0.02429
G1 X125.423 Y129.732 E0.03893
G1 X124.713 Y130.152 E0.05352
G1 X123.953 Y130.482 E0.06817
G1 X123.163 Y130.722 E0.08278
G1 X122.903 Y130.782 E0.08749
G1 X122.353 Y130.862 E0.09732
G1 X122.083 Y130.892 E0.10213
G1 X121.533 Y130.912 E0.11186
G1 X78.463 Y130.912 E0.87350
G1 X77.913 Y130.892 E0.88324
G1 X77.093 Y130.782 E0.89787
G1 X76.563 Y130.652 E0.90752
G1 X76.043 Y130.482 E0.91719
G1 X75.533 Y130.272 E0.92695
G1 X75.043 Y130.022 E0.93667
G1 X74.573 Y129.732 E0.94644
G1 X73.913 Y129.232 E0.96108
G1 X73.513 Y128.862 E0.97072
G1 X73.143 Y128.462 E0.98035
G1 X72.643 Y127.802 E0.99500
G1 X72.223 Y127.092 E1.00958
G1 X71.993 Y126.592 E1.01932
G1 X71.723 Y125.812 E1.03391
G1 X71.593 Y125.282 E1.04356
G1 X71.483 Y124.462 E1.05819
G1 X71.463 Y123.912 E1.06793
G1 X71.463 Y76.082 E1.91375
G1 X71.483 Y75.532 E1.92348
G1 X71.593 Y74.712 E1.93811
G1 X71.723 Y74.182 E1.94776
G1 X71.893 Y73.662 E1.95743
G1 X72.103 Y73.152 E1.96719
G1 X72.353 Y72.662 E1.97692
G1 X72.643 Y72.192 E1.98668
G1 X72.963 Y71.752 E1.99630
G1 X73.513 Y71.132 E2.01096
G1 X73.913 Y70.762 E2.02059
G1 X74.573 Y70.262 E2.03524
G1 X75.283 Y69.842 E2.04982
G1 X76.043 Y69.512 E2.06448
G1 X76.833 Y69.272 E2.07908
G1 X77.093 Y69.212 E2.08380
G1 X77.643 Y69.132 E2.09362
G1 X77.913 Y69.102 E2.09843
G1 X78.463 Y69.082 E2.10816
G1 X121.533 Y69.082 E2.86981
G1 X122.083 Y69.102 E2.87954
G1 X122.903 Y69.212 E2.89417
G1 X123.433 Y69.342 E2.90382
G1 X123.953 Y69.512 E2.91349
G1 X124.463 Y69.722 E2.92325
G1 X124.953 Y69.972 E2.93298
G1 X125.423 Y70.262 E2.94274
G1 X126.083 Y70.762 E2.95738
G1 X126.483 Y71.132 E2.96702
G1 X126.853 Y71.532 E2.97666
G1 X127.353 Y72.192 E2.99130
G1 X127.773 Y72.902 E3.00589
G1 X128.003 Y73.402 E3.01562
G1 X128.273 Y74.182 E3.03021
G1 X128.403 Y74.712 E3.03986
G1 X128.513 Y75.532 E3.05450
G1 X128.533 Y76.082 E3.06423
G1 X128.533 Y123.912 E3.91005
G1 X128.513 Y124.462 E3.91978
G1 X128.403 Y125.282 E3.93441
G1 X128.193 Y126.072 E3.94887
G1 X128.003 Y126.592 E3.95866
G1 X127.773 Y127.092 E3.96839
G1 X127.503 Y127.572 E3.97813
G1 X127.077 Y128.181 E3.99128
G1 X127.033 Y128.242 E3.99260
G1 X126.563 Y128.022 F7800.000
G1 X126.403 Y128.222 F900.000 E3.99713
G1 X126.033 Y128.602 E4.00651
G1 X125.843 Y128.782 E4.01114
G1 X125.433 Y129.112 E4.02045
G1 X124.783 Y129.542 E4.03423
G1 X124.323 Y129.782 E4.04340
G1 X123.593 Y130.082 E4.05736
G1 X122.833 Y130.282 E4.07126
G1 X122.573 Y130.332 E4.07594
G1 X122.053 Y130.392 E4.08520
G1 X121.533 Y130.412 E4.09440
G1 X78.463 Y130.412 E4.85604
G1 X77.943 Y130.392 E4.86525
G1 X77.423 Y130.332 E4.87450
G1 X77.163 Y130.282 E4.87918
G1 X76.403 Y130.082 E4.89308
G1 X75.913 Y129.892 E4.90237
G1 X75.443 Y129.672 E4.91155
G1 X75.213 Y129.542 E4.91622
G1 X74.563 Y129.112 E4.93001
G1 X74.153 Y128.782 E4.93931
G1 X73.593 Y128.222 E4.95332
G1 X73.263 Y127.812 E4.96263
G1 X72.833 Y127.162 E4.97641
G1 X72.593 Y126.702 E4.98558
G1 X72.383 Y126.212 E4.99501
G1 X72.293 Y125.972 E4.99954
G1 X72.153 Y125.472 E5.00872
G1 X72.043 Y124.952 E5.01812
G1 X71.983 Y124.432 E5.02738
G1 X71.963 Y123.912 E5.03658
G1 X71.963 Y76.082 E5.88240
G1 X71.983 Y75.562 E5.89161
G1 X72.043 Y75.042 E5.90086
G1 X72.153 Y74.522 E5.91026
G1 X72.293 Y74.022 E5.91944
G1 X72.383 Y73.782 E5.92398
G1 X72.593 Y73.292 E5.93340
G1 X72.833 Y72.832 E5.94258
G1 X73.263 Y72.182 E5.95636
G1 X73.593 Y71.772 E5.96567
G1 X74.153 Y71.212 E5.97967
G1 X74.563 Y70.882 E5.98898
G1 X75.213 Y70.452 E6.00276
G1 X75.443 Y70.322 E6.00743
G1 X75.913 Y70.102 E6.01661
G1 X76.403 Y69.912 E6.02590
G1 X77.163 Y69.712 E6.03980
G1 X77.423 Y69.662 E6.04448
G1 X77.943 Y69.602 E6.05374
G1 X78.463 Y69.582 E6.06294
G1 X121.533 Y69.582 E6.82459
G1 X122.053 Y69.602 E6.83379
G1 X122.573 Y69.662 E6.84305
G1 X122.833 Y69.712 E6.84773
G1 X123.593 Y69.912 E6.86163
G1 X124.083 Y70.102 E6.87092
G1 X124.553 Y70.322 E6.88010
G1 X124.783 Y70.452 E6.88477
G1 X125.433 Y70.882 E6.89855
G1 X125.843 Y71.212 E6.90786
G1 X126.403 Y71.772 E6.92186
G1 X126.733 Y72.182 E6.93117
G1 X127.163 Y72.832 E6.94495
G1 X127.403 Y73.292 E6.95413
G1 X127.613 Y73.782 E6.96355
G1 X127.703 Y74.022 E6.96809
G1 X127.843 Y74.522 E6.97727
G1 X127.953 Y75.042 E6.98667
G1 X128.013 Y75.562 E6.99593
G1 X128.033 Y76.082 E7.00513
G1 X128.033 Y123.912 E7.85095
G1 X128.013 Y124.432 E7.86015
G1 X127.953 Y124.952 E7.86941
G1 X127.843 Y125.472 E7.87881
G1 X127.703 Y125.972 E7.88799
G1 X127.513 Y126.462 E7.89728
G1 X127.293 Y126.932 E7.90646
G1 X126.883 Y127.602 E7.92035
G1 X126.610 Y127.964 E7.92836
G1 X126.563 Y128.022 E7.92969
G1 X86.204 Y89.088 F7800.000
G1 X84.573 Y90.719 F300.000 E7.97048
G1 X82.269 Y90.719 E8.01122
G1 X80.638 Y89.088 E8.05201
G1 X80.638 Y86.785 E8.09275
G1 X82.269 Y85.153 E8.13354
G1 X84.573 Y85.153 E8.17428
G1 X86.204 Y86.785 E8.21507
G1 X86.204 Y89.013 E8.25448
G1 X86.204 Y89.088 E8.25580
G1 X85.704 Y88.881 F7800.000
G1 X84.366 Y90.219 F300.000 E8.28928
G1 X82.477 Y90.219 E8.32268
G1 X81.138 Y88.881 E8.35616
G1 X81.138 Y86.992 E8.38956
G1 X82.477 Y85.653 E8.42304
G1 X84.366 Y85.653 E8.45644
G1 X85.704 Y86.992 E8.48992
G1 X85.704 Y88.806 E8.52200
G1 X85.704 Y88.881 E8.52332
G1 X85.954 Y89.314 F7800.000
G1 X111.734 Y89.123
G1 X111.734 Y86.820 F300.000 E8.56406
G1 X113.365 Y85.189 E8.60485
G1 X115.668 Y85.189 E8.64558
G1 X117.300 Y86.820 E8.68638
G1 X117.300 Y89.123 E8.72711
G1 X115.668 Y90.755 E8.76791
G1 X113.365 Y90.755 E8.80864
G1 X111.787 Y89.176 E8.84812
G1 X111.734 Y89.123 E8.84944
G1 X112.234 Y88.916 F7800.000
G1 X112.234 Y87.027 F300.000 E8.88285
G1 X113.572 Y85.689 E8.91632
G1 X115.461 Y85.689 E8.94973
G1 X116.800 Y87.027 E8.98320
G1 X116.800 Y88.916 E9.01661
G1 X115.461 Y90.255 E9.05008
G1 X113.572 Y90.255 E9.08349
G1 X112.287 Y88.969 E9.11563
G1 X112.234 Y88.916 E9.11696
G1 X111.751 Y88.787 F7800.000
G1 X113.365 Y116.177
G1 X115.668 Y116.177 F300.000 E9.15769
G1 X117.300 Y117.808 E9.19849
G1 X117.300 Y120.111 E9.23922
G1 X115.668 Y121.743 E9.28002
G1 X113.365 Y121.743 E9.32075
G1 X111.734 Y120.111 E9.36155
G1 X111.734 Y117.808 E9.40228
G1 X113.312 Y116.230 E9.44175
G1 X113.365 Y116.177 E9.44308
G1 X113.572 Y116.677 F7800.000
G1 X115.461 Y116.677 F300.000 E9.47648
G1 X116.800 Y118.015 E9.50996
G1 X116.800 Y119.904 E9.54336
G1 X115.461 Y121.243 E9.57684
G1 X113.572 Y121.243 E9.61024
G1 X112.234 Y119.904 E9.64372
G1 X112.234 Y118.015 E9.67712
G1 X113.519 Y116.730 E9.70927
G1 X113.572 Y116.677 E9.71060
G1 X113.702 Y116.194 F7800.000
G1 X86.312 Y117.808
G1 X86.312 Y120.111 F300.000 E9.75133
G1 X84.680 Y121.743 E9.79213
G1 X82.377 Y121.743 E9.83286
G1 X80.746 Y120.111 E9.87366
G1 X80.746 Y117.808 E9.91439
G1 X82.377 Y116.177 E9.95519
G1 X84.680 Y116.177 E9.99592
G1 X86.259 Y117.755 E10.03539
G1 X86.312 Y117.808 E10.03671
G1 X85.812 Y118.015 F7800.000
G1 X85.812 Y119.904 F300.000 E10.07012
G1 X84.473 Y121.243 E10.10359
G1 X82.584 Y121.243 E10.13700
G1 X81.246 Y119.904 E10.17047
G1 X81.246 Y118.015 E10.20388
G1 X82.584 Y116.677 E10.23735
G1 X84.473 Y116.677 E10.27076
G1 X85.759 Y117.962 E10.30291
G1 X85.812 Y118.015 E10.30423
G1 X86.295 Y118.145 F7800.000
G1 X87.028 Y114.965
G1 X87.028 Y123.418 F900.000 E10.45371
G1 X78.963 Y123.418 E10.59633
G1 X78.963 Y76.582 E11.42457
G1 X121.037 Y76.582 E12.16860
G1 X121.037 Y123.418 E12.99684
G1 X111.018 Y123.418 E13.17402
G1 X111.018 Y114.965 E13.32351
G1 X113.545 Y111.672 E13.39692
G1 X113.545 Y95.260 E13.68714
G1 X110.637 Y91.471 E13.77160
G1 X87.408 Y91.471 E14.18238
G1 X84.501 Y95.260 E14.26683
G1 X84.501 Y111.672 E14.55705
G1 X86.982 Y114.906 E14.62914
G1 X87.028 Y114.965 E14.63046
G1 X87.528 Y114.795 F7800.000
G1 X87.528 Y123.918 F900.000 E14.79178
G1 X78.463 Y123.918 E14.95209
G1 X78.463 Y76.082 E15.79801
G1 X121.537 Y76.082 E16.55972
G1 X121.537 Y123.918 E17.40565
G1 X110.518 Y123.918 E17.60052
G1 X110.518 Y114.795 E17.76184
G1 X113.045 Y111.502 E17.83526
G1 X113.045 Y95.430 E18.11947
G1 X110.391 Y91.971 E18.19657
G1 X87.655 Y91.971 E18.59863
G1 X85.001 Y95.430 E18.67572
G1 X85.001 Y111.502 E18.95994
G1 X87.482 Y114.736 E19.03202
G1 X87.528 Y114.795 E19.03335
G1 X87.160 Y115.133 F7800.000
G1 X85.860 Y116.874
G1 X86.753 Y116.874 F1500.000 E19.04927
G1 X86.753 Y116.370 E19.05824
G1 X85.356 Y116.370 E19.08314
G1 X84.852 Y115.866 E19.09583
G1 X86.753 Y115.866 E19.12970
G1 X86.753 Y115.363 E19.13867
G1 X79.238 Y115.363 E19.27255
G1 X79.238 Y114.859 E19.28152
G1 X86.542 Y114.859 E19.41163
G1 X86.155 Y114.355 E19.42294
G1 X79.238 Y114.355 E19.54617
G1 X79.238 Y113.852 E19.55514
G1 X85.769 Y113.852 E19.67148
G1 X85.382 Y113.348 E19.68279
G1 X79.238 Y113.348 E19.79224
G1 X79.238 Y112.844 E19.80122
G1 X84.996 Y112.844 E19.90379
G1 X84.609 Y112.340 E19.91510
G1 X79.238 Y112.340 E20.01078
G1 X79.238 Y111.837 E20.01975
G1 X84.226 Y111.837 E20.10861
G1 X84.226 Y111.333 E20.11758
G1 X79.238 Y111.333 E20.20644
G1 X79.238 Y110.829 E20.21541
G1 X84.226 Y110.829 E20.30427
G1 X84.226 Y110.326 E20.31324
G1 X79.238 Y110.326 E20.40210
G1 X79.238 Y109.822 E20.41107
G1 X84.226 Y109.822 E20.49993
G1 X84.226 Y109.318 E20.50890
G1 X79.238 Y109.318 E20.59776
G1 X79.238 Y108.815 E20.60674
G1 X84.226 Y108.815 E20.69559
G1 X84.226 Y108.311 E20.70457
G1 X79.238 Y108.311 E20.79342
G1 X79.238 Y107.807 E20.80240
G1 X84.226 Y107.807 E20.89125
G1 X84.226 Y107.304 E20.90023
G1 X79.238 Y107.304 E20.98908
G1 X79.238 Y106.800 E20.99806
G1 X84.226 Y106.800 E21.08691
G1 X84.226 Y106.296 E21.09589
G1 X79.238 Y106.296 E21.18475
G1 X79.238 Y105.792 E21.19372
G1 X84.226 Y105.792 E21.28258
G1 X84.226 Y105.289 E21.29155
G1 X79.238 Y105.289 E21.38041
G1 X79.238 Y104.785 E21.38938
G1 X84.226 Y104.785 E21.47824
G1 X84.226 Y104.281 E21.48721
G1 X79.238 Y104.281 E21.57607
G1 X79.238 Y103.778 E21.58504
G1 X84.226 Y103.778 E21.67390
G1 X84.226 Y103.274 E21.68287
G1 X79.238 Y103.274 E21.77173
G1 X79.238 Y102.770 E21.78070
G1 X84.226 Y102.770 E21.86956
G1 X84.226 Y102.267 E21.87853
G1 X79.238 Y102.267 E21.96739
G1 X79.238 Y101.763 E21.97636
G1 X84.226 Y101.763 E22.06522
G1 X84.226 Y101.259 E22.07419
G1 X79.238 Y101.259 E22.16305
G1 X79.238 Y100.756 E22.17202
G1 X84.226 Y100.756 E22.26088
G1 X84.226 Y100.252 E22.26985
G1 X79.238 Y100.252 E22.35871
G1 X79.238 Y99.748 E22.36768
G1 X84.226 Y99.748 E22.45654
G1 X84.226 Y99.244 E22.46551
G1 X79.238 Y99.244 E22.55437
G1 X79.238 Y98.741 E22.56334
G1 X84.226 Y98.741 E22.65220
G1 X84.226 Y98.237 E22.66117
G1 X79.238 Y98.237 E22.75003
G1 X79.238 Y97.733 E22.75900
G1 X84.226 Y97.733 E22.84786
G1 X84.226 Y97.230 E22.85683
G1 X79.238 Y97.230 E22.94569
G1 X79.238 Y96.726 E22.95467
G1 X84.226 Y96.726 E23.04352
G1 X84.226 Y96.222 E23.05250
G1 X79.238 Y96.222 E23.14135
G1 X79.238 Y95.719 E23.15033
G1 X84.226 Y95.719 E23.23918
G1 X84.226 Y95.215 E23.24816
G1 X79.238 Y95.215 E23.33701
G1 X79.238 Y94.711 E23.34599
G1 X84.517 Y94.711 E23.44003
G1 X84.903 Y94.207 E23.45134
G1 X79.238 Y94.207 E23.55226
G1 X79.238 Y93.704 E23.56124
G1 X85.290 Y93.704 E23.66905
G1 X85.676 Y93.200 E23.68036
G1 X79.238 Y93.200 E23.79505
G1 X79.238 Y92.696 E23.80402
G1 X86.063 Y92.696 E23.92561
G1 X86.449 Y92.193 E23.93691
G1 X79.238 Y92.193 E24.06538
G1 X79.238 Y91.689 E24.07435
G1 X86.836 Y91.689 E24.20970
G1 X87.222 Y91.185 E24.22101
G1 X84.589 Y91.185 E24.26793
G1 X85.092 Y90.682 E24.28062
G1 X112.810 Y90.682 E24.77440
G1 X113.314 Y91.185 E24.78709
G1 X110.823 Y91.185 E24.83146
G1 X111.210 Y91.689 E24.84277
G1 X120.762 Y91.689 E25.01294
G1 X120.762 Y92.193 E25.02191
G1 X111.596 Y92.193 E25.18520
G1 X111.983 Y92.696 E25.19651
G1 X120.762 Y92.696 E25.35290
G1 X120.762 Y93.200 E25.36188
G1 X112.369 Y93.200 E25.51139
G1 X112.756 Y93.704 E25.52270
G1 X120.762 Y93.704 E25.66533
G1 X120.762 Y94.207 E25.67430
G1 X113.142 Y94.207 E25.81004
G1 X113.529 Y94.711 E25.82135
G1 X120.762 Y94.711 E25.95021
G1 X120.762 Y95.215 E25.95918
G1 X113.820 Y95.215 E26.08286
G1 X113.820 Y95.719 E26.09183
G1 X120.762 Y95.719 E26.21550
G1 X120.762 Y96.222 E26.22448
G1 X113.820 Y96.222 E26.34815
G1 X113.820 Y96.726 E26.35712
G1 X120.762 Y96.726 E26.48080
G1 X120.762 Y97.230 E26.48977
G1 X113.820 Y97.230 E26.61345
G1 X113.820 Y97.733 E26.62242
G1 X120.762 Y97.733 E26.74609
G1 X120.762 Y98.237 E26.75507
G1 X113.820 Y98.237 E26.87874
G1 X113.820 Y98.741 E26.88771
G1 X120.762 Y98.741 E27.01139
G1 X120.762 Y99.244 E27.02036
G1 X113.820 Y99.244 E27.14403
G1 X113.820 Y99.748 E27.15301
G1 X120.762 Y99.748 E27.27668
G1 X120.762 Y100.252 E27.28566
G1 X113.820 Y100.252 E27.40933
G1 X113.820 Y100.756 E27.41830
G1 X120.762 Y100.756 E27.54198
G1 X120.762 Y101.259 E27.55095
G1 X113.820 Y101.259 E27.67462
G1 X113.820 Y101.763 E27.68360
G1 X120.762 Y101.763 E27.80727
G1 X120.762 Y102.267 E27.81624
G1 X113.820 Y102.267 E27.93992
G1 X113.820 Y102.770 E27.94889
G1 X120.762 Y102.770 E28.07256
G1 X120.762 Y103.274 E28.08154
G1 X113.820 Y103.274 E28.20521
G1 X113.820 Y103.778 E28.21418
G1 X120.762 Y103.778 E28.33786
G1 X120.762 Y104.281 E28.34683
G1 X113.820 Y104.281 E28.47051
G1 X113.820 Y104.785 E28.47948
G1 X120.762 Y104.785 E28.60315
G1 X120.762 Y105.289 E28.61213
G1 X113.820 Y105.289 E28.73580
G1 X113.820 Y105.792 E28.74477
G1 X120.762 Y105.792 E28.86845
G1 X120.762 Y106.296 E28.87742
G1 X113.820 Y106.296 E29.00109
G1 X113.820 Y106.800 E29.01007
G1 X120.762 Y106.800 E29.13374
G1 X120.762 Y107.304 E29.14272
G1 X113.820 Y107.304 E29.26639
G1 X113.820 Y107.807 E29.27536
G1 X120.762 Y107.807 E29.39904
G1 X120.762 Y108.311 E29.40801
G1 X113.820 Y108.311 E29.53168
G1 X113.820 Y108.815 E29.54066
G1 X120.762 Y108.815 E29.66433
G1 X120.762 Y109.318 E29.67330
G1 X113.820 Y109.318 E29.79698
G1 X113.820 Y109.822 E29.80595
G1 X120.762 Y109.822 E29.92963
G1 X120.762 Y110.326 E29.93860
G1 X113.820 Y110.326 E30.06227
G1 X113.820 Y110.829 E30.07125
G1 X120.762 Y110.829 E30.19492
G1 X120.762 Y111.333 E30.20389
G1 X113.820 Y111.333 E30.32757
G1 X113.820 Y111.837 E30.33654
G1 X120.762 Y111.837 E30.46021
G1 X120.762 Y112.340 E30.46919
G1 X113.436 Y112.340 E30.59969
G1 X113.050 Y112.844 E30.61100
G1 X120.762 Y112.844 E30.74838
G1 X120.762 Y113.348 E30.75736
G1 X112.663 Y113.348 E30.90163
G1 X112.277 Y113.852 E30.91294
G1 X120.762 Y113.852 E31.06410
G1 X120.762 Y114.355 E31.07307
G1 X111.890 Y114.355 E31.23111
G1 X111.504 Y114.859 E31.24242
G1 X120.762 Y114.859 E31.40735
G1 X120.762 Y115.363 E31.41632
G1 X111.292 Y115.363 E31.58502
G1 X111.292 Y116.874 F7800.000
G1 X112.186 Y116.874 F1500.000 E31.60094
G1 X112.690 Y116.370 E31.61363
G1 X111.292 Y116.370 E31.63852
G1 X111.292 Y115.866 E31.64749
G1 X113.194 Y115.866 E31.68136
G1 X115.840 Y115.866 F7800.000
G1 X120.762 Y115.866 F1500.000 E31.76904
G1 X120.762 Y116.370 E31.77801
G1 X116.344 Y116.370 E31.85672
G1 X116.848 Y116.874 E31.86941
G1 X120.762 Y116.874 E31.93914
G1 X120.762 Y117.377 E31.94812
G1 X117.351 Y117.377 E32.00888
G1 X117.575 Y117.881 F7800.000
G1 X120.762 Y117.881 F1500.000 E32.06566
G1 X120.762 Y118.385 E32.07463
G1 X117.575 Y118.385 E32.13141
