; generated by Slic3r 0.9.8 on 2013-05-24 at 21:56:57

; layer_height = .25
; perimeters = 1
; top_solid_layers = 4
; bottom_solid_layers = 4
; fill_density = .9
; perimeter_speed = 30
; infill_speed = 40
; travel_speed = 130
; scale = 1
; nozzle_diameter = 0.5
; filament_diameter = 3
; extrusion_multiplier = 1
; perimeters extrusion width = 0.80mm
; infill extrusion width = 0.80mm
; first layer extrusion width = 0.50mm

M107
M104 S210 ; set temperature
G28 ; home all axes
M109 S210 ; wait for temperature to be reached
G90 ; use absolute coordinates
G21 ; set units to millimeters
G92 E0
M82 ; use absolute distances for extrusion
G1 Z0.250 F7800.000
G1 X123.953 Y108.598
G1 X123.433 Y108.768 F900.000 E0.00967
G1 X122.903 Y108.898 E0.01932
G1 X122.083 Y109.008 E0.03396
G1 X121.533 Y109.028 E0.04369
G1 X78.463 Y109.028 E0.80533
G1 X77.913 Y109.008 E0.81507
G1 X77.093 Y108.898 E0.82970
G1 X76.563 Y108.768 E0.83935
G1 X76.043 Y108.598 E0.84902
G1 X75.533 Y108.388 E0.85877
G1 X75.043 Y108.138 E0.86850
G1 X74.573 Y107.848 E0.87827
G1 X74.133 Y107.528 E0.88789
G1 X73.713 Y107.168 E0.89767
G1 X73.323 Y106.778 E0.90743
G1 X72.963 Y106.358 E0.91721
G1 X72.643 Y105.918 E0.92683
G1 X72.353 Y105.448 E0.93659
G1 X72.103 Y104.958 E0.94632
G1 X71.893 Y104.448 E0.95608
G1 X71.723 Y103.928 E0.96575
G1 X71.593 Y103.398 E0.97540
G1 X71.513 Y102.848 E0.98523
G1 X71.483 Y102.578 E0.99003
G1 X71.463 Y102.028 E0.99977
G1 X71.463 Y97.968 E1.07156
G1 X71.483 Y97.418 E1.08129
G1 X71.593 Y96.598 E1.09593
G1 X71.653 Y96.338 E1.10064
G1 X71.803 Y95.808 E1.11038
G1 X71.993 Y95.288 E1.12018
G1 X72.223 Y94.788 E1.12991
G1 X72.643 Y94.078 E1.14450
G1 X73.143 Y93.418 E1.15914
G1 X73.513 Y93.018 E1.16877
G1 X73.913 Y92.648 E1.17841
G1 X74.573 Y92.148 E1.19305
G1 X75.283 Y91.728 E1.20764
G1 X75.783 Y91.498 E1.21737
G1 X76.563 Y91.228 E1.23197
G1 X77.093 Y91.098 E1.24162
G1 X77.913 Y90.988 E1.25625
G1 X78.463 Y90.968 E1.26598
G1 X121.533 Y90.968 E2.02763
G1 X122.083 Y90.988 E2.03736
G1 X122.903 Y91.098 E2.05199
G1 X123.433 Y91.228 E2.06164
G1 X123.953 Y91.398 E2.07131
G1 X124.463 Y91.608 E2.08107
G1 X124.953 Y91.858 E2.09080
G1 X125.423 Y92.148 E2.10056
G1 X125.863 Y92.468 E2.11018
G1 X126.283 Y92.828 E2.11997
G1 X126.673 Y93.218 E2.12972
G1 X127.033 Y93.638 E2.13950
G1 X127.353 Y94.078 E2.14912
G1 X127.643 Y94.548 E2.15889
G1 X127.893 Y95.038 E2.16862
G1 X128.103 Y95.548 E2.17837
G1 X128.273 Y96.068 E2.18804
G1 X128.403 Y96.598 E2.19769
G1 X128.483 Y97.148 E2.20752
G1 X128.513 Y97.418 E2.21233
G1 X128.533 Y97.968 E2.22206
G1 X128.533 Y102.028 E2.29386
G1 X128.513 Y102.578 E2.30359
G1 X128.403 Y103.398 E2.31822
G1 X128.343 Y103.658 E2.32294
G1 X128.193 Y104.188 E2.33268
G1 X128.003 Y104.708 E2.34247
G1 X127.773 Y105.208 E2.35220
G1 X127.353 Y105.918 E2.36679
G1 X126.853 Y106.578 E2.38143
G1 X126.483 Y106.978 E2.39107
G1 X125.863 Y107.528 E2.40572
G1 X125.193 Y107.998 E2.42020
G1 X124.713 Y108.268 E2.42994
G1 X124.023 Y108.571 E2.44326
G1 X123.953 Y108.598 E2.44459
G1 X123.833 Y108.108 F7800.000
G1 X123.593 Y108.198 F900.000 E2.44912
G1 X123.093 Y108.338 E2.45830
G1 X122.573 Y108.448 E2.46770
G1 X122.053 Y108.508 E2.47696
G1 X121.533 Y108.528 E2.48616
G1 X78.463 Y108.528 E3.24781
G1 X77.943 Y108.508 E3.25701
G1 X77.423 Y108.448 E3.26627
G1 X76.903 Y108.338 E3.27566
G1 X76.403 Y108.198 E3.28485
G1 X75.913 Y108.008 E3.29414
G1 X75.443 Y107.788 E3.30332
G1 X75.213 Y107.658 E3.30799
G1 X74.563 Y107.228 E3.32177
G1 X74.153 Y106.898 E3.33108
G1 X73.963 Y106.718 E3.33571
G1 X73.593 Y106.338 E3.34509
G1 X73.263 Y105.928 E3.35439
G1 X73.113 Y105.718 E3.35896
G1 X72.703 Y105.048 E3.37285
G1 X72.483 Y104.578 E3.38202
G1 X72.293 Y104.088 E3.39132
G1 X72.153 Y103.588 E3.40050
G1 X72.043 Y103.068 E3.40990
G1 X71.983 Y102.548 E3.41916
G1 X71.963 Y102.028 E3.42836
G1 X71.963 Y97.968 E3.50015
G1 X71.983 Y97.448 E3.50936
G1 X72.043 Y96.928 E3.51861
G1 X72.093 Y96.668 E3.52330
G1 X72.293 Y95.908 E3.53719
G1 X72.383 Y95.668 E3.54173
G1 X72.593 Y95.178 E3.55115
G1 X72.833 Y94.718 E3.56033
G1 X73.263 Y94.068 E3.57411
G1 X73.593 Y93.658 E3.58342
G1 X73.773 Y93.468 E3.58805
G1 X74.153 Y93.098 E3.59743
G1 X74.773 Y92.618 E3.61129
G1 X75.443 Y92.208 E3.62518
G1 X75.913 Y91.988 E3.63436
G1 X76.403 Y91.798 E3.64365
G1 X77.163 Y91.598 E3.65755
G1 X77.423 Y91.548 E3.66223
G1 X77.943 Y91.488 E3.67149
G1 X78.463 Y91.468 E3.68069
G1 X121.533 Y91.468 E4.44234
G1 X122.053 Y91.488 E4.45154
G1 X122.573 Y91.548 E4.46079
G1 X123.093 Y91.658 E4.47019
G1 X123.593 Y91.798 E4.47938
G1 X124.083 Y91.988 E4.48867
G1 X124.553 Y92.208 E4.49785
G1 X124.783 Y92.338 E4.50252
G1 X125.433 Y92.768 E4.51630
G1 X125.843 Y93.098 E4.52561
G1 X126.033 Y93.278 E4.53024
G1 X126.403 Y93.658 E4.53962
G1 X126.733 Y94.068 E4.54892
G1 X126.883 Y94.278 E4.55349
G1 X127.293 Y94.948 E4.56738
G1 X127.513 Y95.418 E4.57655
G1 X127.703 Y95.908 E4.58585
G1 X127.843 Y96.408 E4.59503
G1 X127.953 Y96.928 E4.60443
G1 X128.013 Y97.448 E4.61368
G1 X128.033 Y97.968 E4.62289
G1 X128.033 Y102.028 E4.69468
G1 X128.013 Y102.548 E4.70389
G1 X127.953 Y103.068 E4.71314
G1 X127.843 Y103.588 E4.72254
G1 X127.703 Y104.088 E4.73172
G1 X127.513 Y104.578 E4.74102
G1 X127.293 Y105.048 E4.75019
G1 X126.883 Y105.718 E4.76409
G1 X126.403 Y106.338 E4.77795
G1 X126.033 Y106.718 E4.78733
G1 X125.843 Y106.898 E4.79196
G1 X125.223 Y107.378 E4.80582
G1 X124.553 Y107.788 E4.81971
G1 X123.903 Y108.080 E4.83232
G1 X123.833 Y108.108 E4.83365
G1 X121.037 Y101.532 F7800.000
G1 X107.767 Y101.532 F900.000 E5.06832
G1 X107.497 Y101.421 E5.07347
G1 X106.788 Y101.327 E5.08612
G1 X106.079 Y101.421 E5.09877
G1 X105.810 Y101.532 E5.10392
G1 X87.129 Y101.532 E5.43427
G1 X86.860 Y101.421 E5.43942
G1 X86.151 Y101.327 E5.45207
G1 X85.441 Y101.421 E5.46473
G1 X85.172 Y101.532 E5.46987
G1 X78.963 Y101.532 E5.57968
G1 X78.963 Y98.468 E5.63386
G1 X121.037 Y98.468 E6.37788
G1 X121.037 Y101.457 E6.43074
G1 X121.037 Y101.532 E6.43207
G1 X121.537 Y102.032 F7800.000
G1 X107.667 Y102.032 F900.000 E6.67734
G1 X107.367 Y101.908 E6.68308
G1 X106.788 Y101.831 E6.69341
G1 X106.209 Y101.908 E6.70373
G1 X105.909 Y102.032 E6.70947
G1 X87.029 Y102.032 E7.04334
G1 X86.729 Y101.908 E7.04908
G1 X86.151 Y101.832 E7.05941
G1 X85.572 Y101.908 E7.06973
G1 X85.272 Y102.032 E7.07547
G1 X78.463 Y102.032 E7.19588
G1 X78.463 Y97.968 E7.26774
G1 X121.537 Y97.968 E8.02945
G1 X121.537 Y101.957 E8.09999
G1 X121.537 Y102.032 E8.10132
G1 X121.104 Y101.782 F7800.000
G1 X120.762 Y101.032
G1 X107.641 Y101.032 F1500.000 E8.34078
G1 X105.936 Y101.032 F7800.000
G1 X87.003 Y101.032 F1500.000 E8.68629
G1 X85.298 Y101.032 F7800.000
G1 X79.238 Y101.032 F1500.000 E8.79689
G1 X79.238 Y100.516 E8.80631
G1 X120.762 Y100.516 E9.56411
G1 X120.762 Y100.000 E9.57352
G1 X79.238 Y100.000 E10.33133
G1 X79.238 Y99.484 E10.34074
G1 X120.762 Y99.484 E11.09854
G1 X120.762 Y98.968 E11.10796
G1 X79.238 Y98.968 E11.86576
M106 S255
G1 Z0.500 F7800.000
G1 X78.613 Y98.118
G1 X121.387 Y98.118 F863.851 E12.99485
G1 X121.387 Y101.882 E13.09420
G1 X107.697 Y101.882 E13.45557
G1 X107.406 Y101.762 E13.46388
G1 X106.788 Y101.680 E13.48033
G1 X106.170 Y101.762 E13.49679
G1 X105.879 Y101.882 E13.50510
G1 X87.059 Y101.882 E14.00189
G1 X86.769 Y101.762 E14.01019
G1 X86.151 Y101.680 E14.02664
G1 X85.533 Y101.762 E14.04310
G1 X85.242 Y101.882 E14.05140
G1 X78.613 Y101.882 E14.22638
G1 X78.613 Y98.230 E14.32278
G1 X78.613 Y98.118 E14.32573
G1 X79.359 Y98.528 F7800.000
G1 X79.359 Y101.472 F1439.751 E14.40386
G1 X80.110 Y101.472 E14.42379
G1 X80.110 Y98.528 E14.50191
G1 X80.861 Y98.528 E14.52183
G1 X80.861 Y101.472 E14.59996
G1 X81.611 Y101.472 E14.61989
G1 X81.611 Y98.528 E14.69801
G1 X82.362 Y98.528 E14.71794
G1 X82.362 Y101.472 E14.79606
G1 X83.112 Y101.472 E14.81598
G1 X83.112 Y98.528 E14.89411
G1 X83.863 Y98.528 E14.91404
G1 X83.863 Y101.472 E14.99216
G1 X84.613 Y101.472 E15.01208
G1 X84.613 Y98.528 E15.09021
G1 X85.364 Y98.528 E15.11013
G1 X85.364 Y101.367 E15.18549
G1 X86.115 Y101.268 E15.20558
G1 X86.115 Y98.528 E15.27831
G1 X86.865 Y98.528 E15.29823
G1 X86.865 Y101.357 E15.37333
G1 X87.616 Y101.472 E15.39349
G1 X87.616 Y98.528 E15.47161
G1 X88.366 Y98.528 E15.49154
G1 X88.366 Y101.472 E15.56966
G1 X89.117 Y101.472 E15.58959
G1 X89.117 Y98.528 E15.66771
G1 X89.867 Y98.528 E15.68764
G1 X89.867 Y101.472 E15.76576
G1 X90.618 Y101.472 E15.78569
G1 X90.618 Y98.528 E15.86381
G1 X91.368 Y98.528 E15.88374
G1 X91.368 Y101.472 E15.96186
G1 X92.119 Y101.472 E15.98179
G1 X92.119 Y98.528 E16.05991
G1 X92.870 Y98.528 E16.07984
G1 X92.870 Y101.472 E16.15796
G1 X93.620 Y101.472 E16.17789
G1 X93.620 Y98.528 E16.25601
G1 X94.371 Y98.528 E16.27594
G1 X94.371 Y101.472 E16.35406
G1 X95.121 Y101.472 E16.37399
G1 X95.121 Y98.528 E16.45211
G1 X95.872 Y98.528 E16.47204
G1 X95.872 Y101.472 E16.55016
G1 X96.622 Y101.472 E16.57009
G1 X96.622 Y98.528 E16.64821
G1 X97.373 Y98.528 E16.66814
G1 X97.373 Y101.472 E16.74626
G1 X98.124 Y101.472 E16.76619
G1 X98.124 Y98.528 E16.84431
G1 X98.874 Y98.528 E16.86424
G1 X98.874 Y101.472 E16.94236
G1 X99.625 Y101.472 E16.96229
G1 X99.625 Y98.528 E17.04041
G1 X100.375 Y98.528 E17.06034
G1 X100.375 Y101.472 E17.13846
G1 X101.126 Y101.472 E17.15839
G1 X101.126 Y98.528 E17.23651
G1 X101.876 Y98.528 E17.25644
G1 X101.876 Y101.472 E17.33456
G1 X102.627 Y101.472 E17.35449
G1 X102.627 Y98.528 E17.43261
G1 X103.378 Y98.528 E17.45254
G1 X103.378 Y101.472 E17.53066
G1 X104.128 Y101.472 E17.55059
G1 X104.128 Y98.528 E17.62871
G1 X104.879 Y98.528 E17.64864
G1 X104.879 Y101.472 E17.72676
G1 X105.629 Y101.472 E17.74669
G1 X105.629 Y98.528 E17.82481
G1 X106.380 Y98.528 E17.84474
G1 X106.380 Y101.317 E17.91876
G1 X107.130 Y101.308 F7800.000
G1 X107.130 Y98.528 F1439.751 E17.99256
G1 X107.881 Y98.528 E18.01248
G1 X107.881 Y101.472 E18.09061
G1 X108.631 Y101.472 E18.11053
G1 X108.631 Y98.528 E18.18866
G1 X109.382 Y98.528 E18.20859
G1 X109.382 Y101.472 E18.28671
G1 X110.133 Y101.472 E18.30663
G1 X110.133 Y98.528 E18.38476
G1 X110.883 Y98.528 E18.40468
G1 X110.883 Y101.472 E18.48281
G1 X111.634 Y101.472 E18.50274
G1 X111.634 Y98.528 E18.58086
G1 X112.384 Y98.528 E18.60078
G1 X112.384 Y101.472 E18.67891
G1 X113.135 Y101.472 E18.69883
G1 X113.135 Y98.528 E18.77696
G1 X113.885 Y98.528 E18.79689
G1 X113.885 Y101.472 E18.87501
G1 X114.636 Y101.472 E18.89493
G1 X114.636 Y98.528 E18.97306
G1 X115.387 Y98.528 E18.99298
G1 X115.387 Y101.472 E19.07111
G1 X116.137 Y101.472 E19.09103
G1 X116.137 Y98.528 E19.16916
G1 X116.888 Y98.528 E19.18908
G1 X116.888 Y101.472 E19.26721
G1 X117.638 Y101.472 E19.28713
G1 X117.638 Y98.528 E19.36526
G1 X118.389 Y98.528 E19.38518
G1 X118.389 Y101.472 E19.46331
G1 X119.139 Y101.472 E19.48323
G1 X119.139 Y98.528 E19.56136
G1 X119.890 Y98.528 E19.58129
G1 X119.890 Y101.472 E19.65941
G1 X120.640 Y101.472 E19.67933
G1 X120.640 Y98.528 E19.75746
G1 Z0.750 F7800.000
G1 X121.387 Y98.118
G1 X121.387 Y101.882 F774.045 E19.85682
G1 X107.697 Y101.882 E20.21819
G1 X107.406 Y101.762 E20.22649
G1 X106.788 Y101.680 E20.24295
G1 X106.170 Y101.762 E20.25940
G1 X105.879 Y101.882 E20.26771
G1 X87.059 Y101.882 E20.76450
G1 X86.769 Y101.762 E20.77280
G1 X86.151 Y101.680 E20.78925
G1 X85.533 Y101.762 E20.80571
G1 X85.242 Y101.882 E20.81401
G1 X78.613 Y101.882 E20.98899
G1 X78.613 Y98.118 E21.08835
G1 X121.275 Y98.118 E22.21448
G1 X121.387 Y98.118 E22.21743
G1 X120.976 Y98.864 F7800.000
G1 X79.024 Y98.864 F1290.074 E23.34082
G1 X79.024 Y99.621 E23.36109
G1 X120.976 Y99.621 E24.48448
G1 X120.976 Y100.379 E24.50475
G1 X79.024 Y100.379 E25.62814
G1 X79.024 Y101.136 E25.64841
G1 X85.430 Y101.136 E25.81994
G1 X86.872 Y101.136 F7800.000
G1 X106.067 Y101.136 F1290.074 E26.33395
G1 X107.509 Y101.136 F7800.000
G1 X120.976 Y101.136 F1290.074 E26.69456
G1 Z1.000 F7800.000
G1 X121.387 Y101.882
G1 X107.697 Y101.882 F863.851 E27.05593
G1 X107.406 Y101.762 E27.06424
G1 X106.788 Y101.680 E27.08069
G1 X106.170 Y101.762 E27.09715
G1 X105.879 Y101.882 E27.10545
G1 X87.059 Y101.882 E27.60224
G1 X86.769 Y101.762 E27.61055
G1 X86.151 Y101.680 E27.62700
G1 X85.533 Y101.762 E27.64345
G1 X85.242 Y101.882 E27.65176
G1 X78.613 Y101.882 E27.82674
G1 X78.613 Y98.118 E27.92609
G1 X121.387 Y98.118 E29.05518
G1 X121.387 Y101.770 E29.15158
G1 X121.387 Y101.882 E29.15453
G1 X120.640 Y98.528 F7800.000
G1 X120.640 Y101.472 F1439.751 E29.23266
G1 X119.890 Y101.472 E29.25258
G1 X119.890 Y98.528 E29.33071
G1 X119.139 Y98.528 E29.35063
G1 X119.139 Y101.472 E29.42876
G1 X118.389 Y101.472 E29.44868
G1 X118.389 Y98.528 E29.52681
G1 X117.638 Y98.528 E29.54673
G1 X117.638 Y101.472 E29.62486
G1 X116.888 Y101.472 E29.64478
G1 X116.888 Y98.528 E29.72291
G1 X116.137 Y98.528 E29.74283
G1 X116.137 Y101.472 E29.82096
G1 X115.387 Y101.472 E29.84088
G1 X115.387 Y98.528 E29.91901
G1 X114.636 Y98.528 E29.93893
G1 X114.636 Y101.472 E30.01706
G1 X113.885 Y101.472 E30.03698
G1 X113.885 Y98.528 E30.11511
G1 X113.135 Y98.528 E30.13503
G1 X113.135 Y101.472 E30.21316
G1 X112.384 Y101.472 E30.23308
G1 X112.384 Y98.528 E30.31121
G1 X111.634 Y98.528 E30.33113
G1 X111.634 Y101.472 E30.40926
G1 X110.883 Y101.472 E30.42918
G1 X110.883 Y98.528 E30.50731
G1 X110.133 Y98.528 E30.52723
G1 X110.133 Y101.472 E30.60536
G1 X109.382 Y101.472 E30.62528
G1 X109.382 Y98.528 E30.70341
G1 X108.631 Y98.528 E30.72333
G1 X108.631 Y101.472 E30.80146
G1 X107.881 Y101.472 E30.82138
G1 X107.881 Y98.528 E30.89951
G1 X107.130 Y98.528 E30.91943
G1 X107.130 Y101.308 E30.99323
G1 X106.380 Y101.317 F7800.000
G1 X106.380 Y98.528 F1439.751 E31.06726
G1 X105.629 Y98.528 E31.08718
G1 X105.629 Y101.472 E31.16531
G1 X104.879 Y101.472 E31.18523
G1 X104.879 Y98.528 E31.26336
G1 X104.128 Y98.528 E31.28328
G1 X104.128 Y101.472 E31.36141
G1 X103.377 Y101.472 E31.38133
G1 X103.377 Y98.528 E31.45946
G1 X102.627 Y98.528 E31.47938
G1 X102.627 Y101.472 E31.55751
G1 X101.876 Y101.472 E31.57743
G1 X101.876 Y98.528 E31.65556
G1 X101.126 Y98.528 E31.67548
G1 X101.126 Y101.472 E31.75361
G1 X100.375 Y101.472 E31.77353
G1 X100.375 Y98.528 E31.85166
G1 X99.625 Y98.528 E31.87158
G1 X99.625 Y101.472 E31.94971
G1 X98.874 Y101.472 E31.96963
G1 X98.874 Y98.528 E32.04776
G1 X98.124 Y98.528 E32.06768
G1 X98.124 Y101.472 E32.14581
G1 X97.373 Y101.472 E32.16573
G1 X97.373 Y98.528 E32.24386
G1 X96.622 Y98.528 E32.26378
G1 X96.622 Y101.472 E32.34191
G1 X95.872 Y101.472 E32.36183
G1 X95.872 Y98.528 E32.43996
G1 X95.121 Y98.528 E32.45988
G1 X95.121 Y101.472 E32.53801
G1 X94.371 Y101.472 E32.55793
G1 X94.371 Y98.528 E32.63606
G1 X93.620 Y98.528 E32.65598
G1 X93.620 Y101.472 E32.73411
G1 X92.870 Y101.472 E32.75403
G1 X92.870 Y98.528 E32.83216
G1 X92.119 Y98.528 E32.85208
G1 X92.119 Y101.472 E32.93021
G1 X91.368 Y101.472 E32.95013
G1 X91.368 Y98.528 E33.02826
G1 X90.618 Y98.528 E33.04818
G1 X90.618 Y101.472 E33.12631
G1 X89.867 Y101.472 E33.14623
G1 X89.867 Y98.528 E33.22436
G1 X89.117 Y98.528 E33.24428
G1 X89.117 Y101.472 E33.32241
G1 X88.366 Y101.472 E33.34233
G1 X88.366 Y98.528 E33.42046
G1 X87.616 Y98.528 E33.44038
G1 X87.616 Y101.472 E33.51851
G1 X86.865 Y101.357 E33.53866
G1 X86.865 Y98.528 E33.61376
G1 X86.115 Y98.528 E33.63368
G1 X86.115 Y101.268 E33.70641
G1 X85.364 Y101.367 E33.72651
G1 X85.364 Y98.528 E33.80186
G1 X84.613 Y98.528 E33.82178
G1 X84.613 Y101.472 E33.89991
G1 X83.863 Y101.472 E33.91983
G1 X83.863 Y98.528 E33.99796
G1 X83.112 Y98.528 E34.01788
G1 X83.112 Y101.472 E34.09601
G1 X82.362 Y101.472 E34.11593
G1 X82.362 Y98.528 E34.19406
G1 X81.611 Y98.528 E34.21398
G1 X81.611 Y101.472 E34.29211
G1 X80.861 Y101.472 E34.31203
G1 X80.861 Y98.528 E34.39016
G1 X80.110 Y98.528 E34.41008
G1 X80.110 Y101.472 E34.48821
G1 X79.359 Y101.472 E34.50813
