; generated by Slic3r 0.9.8 on 2013-05-21 at 09:21:10

; layer_height = 0.4
; perimeters = 3
; top_solid_layers = 3
; bottom_solid_layers = 3
; fill_density = 0.4
; perimeter_speed = 30
; infill_speed = 40
; travel_speed = 110
; scale = 1
; nozzle_diameter = 0.5
; filament_diameter = 3
; extrusion_multiplier = 1
; perimeters extrusion width = 0.53mm
; infill extrusion width = 0.53mm
; first layer extrusion width = 0.80mm

M107
M104 S225 ; set temperature
G28 ; home all axes
M109 S225 ; wait for temperature to be reached
G90 ; use absolute coordinates
G21 ; set units to millimeters
G92 E0
M82 ; use absolute distances for extrusion
G1 F900.000 E-1.00000
G92 E0
G1 Z0.400 F6600.000
G1 X129.997 Y72.126
G1 F900.000 E1.50000
G1 X103.987 Y137.206 F900.000 E4.41747
G1 X103.727 Y137.716 E4.44130
G1 X103.437 Y138.216 E4.46536
G1 X103.107 Y138.686 E4.48927
G1 X102.747 Y139.126 E4.51293
G1 X102.347 Y139.536 E4.53678
G1 X101.917 Y139.926 E4.56094
G1 X101.227 Y140.436 E4.59666
G1 X100.987 Y140.586 E4.60844
G1 X100.477 Y140.856 E4.63246
G1 X99.957 Y141.096 E4.65631
G1 X99.417 Y141.286 E4.68014
G1 X98.587 Y141.496 E4.71577
G1 X98.017 Y141.586 E4.73980
G1 X97.447 Y141.636 E4.76362
G1 X76.287 Y141.636 E5.64445
G1 X75.437 Y141.546 E5.68004
G1 X74.597 Y141.366 E5.71580
G1 X74.047 Y141.196 E5.73976
G1 X73.517 Y140.986 E5.76349
G1 X73.257 Y140.866 E5.77541
G1 X72.757 Y140.586 E5.79927
G1 X72.047 Y140.106 E5.83494
G1 X71.607 Y139.746 E5.85861
G1 X71.397 Y139.546 E5.87068
G1 X70.997 Y139.136 E5.89452
G1 X70.637 Y138.696 E5.91819
G1 X70.157 Y137.986 E5.95387
G1 X69.877 Y137.486 E5.97772
G1 X69.647 Y136.956 E6.00177
G1 X69.457 Y136.416 E6.02560
G1 X69.307 Y135.866 E6.04933
G1 X69.157 Y135.026 E6.08485
G1 X69.107 Y134.456 E6.10867
G1 X69.107 Y74.976 E8.58468
G1 X69.157 Y74.396 E8.60891
G1 X69.247 Y73.816 E8.63334
G1 X69.307 Y73.536 E8.64527
G1 X69.557 Y72.696 E8.68175
G1 X69.907 Y71.896 E8.71810
G1 X70.047 Y71.636 E8.73039
G1 X70.187 Y71.386 E8.74232
G1 X70.687 Y70.666 E8.77881
G1 X71.067 Y70.226 E8.80301
G1 X71.477 Y69.806 E8.82744
G1 X71.917 Y69.426 E8.85164
G1 X72.377 Y69.086 E8.87546
G1 X97.897 Y53.186 E10.12711
G1 X98.427 Y52.906 E10.15206
G1 X99.257 Y52.576 E10.18924
G1 X99.827 Y52.416 E10.21389
G1 X100.417 Y52.296 E10.23895
G1 X101.297 Y52.206 E10.27577
G1 X115.987 Y52.206 E10.88728
G1 X117.137 Y52.296 E10.93530
G1 X119.787 Y52.716 E11.04699
G1 X120.117 Y52.786 E11.06103
G1 X120.767 Y52.976 E11.08922
G1 X121.087 Y53.096 E11.10345
G1 X121.697 Y53.376 E11.13139
G1 X123.757 Y54.426 E11.22764
G1 X124.347 Y54.756 E11.25578
G1 X124.627 Y54.946 E11.26987
G1 X125.157 Y55.346 E11.29751
G1 X125.647 Y55.806 E11.32548
G1 X127.517 Y57.686 E11.43587
G1 X127.747 Y57.936 E11.45001
G1 X128.147 Y58.466 E11.47765
G1 X128.507 Y59.036 E11.50571
G1 X129.717 Y61.396 E11.61611
G1 X129.987 Y62.006 E11.64388
G1 X130.217 Y62.636 E11.67180
G1 X130.307 Y62.966 E11.68604
G1 X130.437 Y63.616 E11.71363
G1 X130.797 Y65.896 E11.80972
G1 X130.867 Y66.566 E11.83776
G1 X130.887 Y67.226 E11.86525
G1 X130.847 Y67.896 E11.89319
G1 X130.437 Y70.516 E12.00358
G1 X130.307 Y71.176 E12.03158
G1 X130.117 Y71.816 E12.05937
G1 X130.037 Y72.023 E12.06862
G1 X129.997 Y72.126 E12.07321
G1 X129.307 Y71.856 F6600.000
G1 X103.307 Y136.916 F900.000 E14.98976
G1 X103.057 Y137.416 E15.01303
G1 X102.617 Y138.116 E15.04744
G1 X102.087 Y138.756 E15.08204
G1 X101.897 Y138.956 E15.09352
G1 X101.487 Y139.326 E15.11651
G1 X101.047 Y139.666 E15.13966
G1 X100.587 Y139.966 E15.16252
G1 X99.847 Y140.346 E15.19715
G1 X99.327 Y140.546 E15.22034
G1 X99.067 Y140.626 E15.23166
G1 X98.527 Y140.756 E15.25478
G1 X97.987 Y140.846 E15.27757
G1 X97.157 Y140.906 E15.31221
G1 X76.577 Y140.906 E16.16891
G1 X75.767 Y140.856 E16.20269
G1 X75.497 Y140.816 E16.21405
G1 X74.967 Y140.706 E16.23658
G1 X74.447 Y140.556 E16.25911
G1 X73.687 Y140.256 E16.29313
G1 X72.977 Y139.856 E16.32705
G1 X72.317 Y139.386 E16.36078
G1 X71.717 Y138.836 E16.39466
G1 X71.357 Y138.426 E16.41737
G1 X71.037 Y137.996 E16.43969
G1 X70.747 Y137.536 E16.46232
G1 X70.487 Y137.056 E16.48505
G1 X70.277 Y136.556 E16.50762
G1 X70.037 Y135.776 E16.54159
G1 X69.927 Y135.246 E16.56413
G1 X69.887 Y134.976 E16.57549
G1 X69.837 Y134.166 E16.60927
G1 X69.837 Y75.266 E19.06113
G1 X69.887 Y74.446 E19.09533
G1 X69.977 Y73.906 E19.11812
G1 X70.107 Y73.376 E19.14084
G1 X70.387 Y72.606 E19.17494
G1 X70.497 Y72.356 E19.18631
G1 X70.897 Y71.646 E19.22024
G1 X71.207 Y71.196 E19.24298
G1 X71.557 Y70.776 E19.26574
G1 X72.137 Y70.196 E19.29989
G1 X72.567 Y69.856 E19.32271
G1 X73.017 Y69.546 E19.34545
G1 X98.037 Y53.956 E20.57262
G1 X98.797 Y53.546 E20.60856
G1 X99.607 Y53.246 E20.64452
G1 X100.447 Y53.036 E20.68056
G1 X101.017 Y52.966 E20.70447
G1 X101.597 Y52.936 E20.72865
G1 X115.987 Y52.936 E21.32767
G1 X117.017 Y53.016 E21.37067
G1 X119.337 Y53.376 E21.46840
G1 X119.937 Y53.496 E21.49388
G1 X120.527 Y53.676 E21.51955
G1 X121.367 Y54.036 E21.55760
G1 X123.427 Y55.086 E21.65385
G1 X124.207 Y55.546 E21.69154
G1 X124.687 Y55.916 E21.71677
G1 X125.127 Y56.326 E21.74180
G1 X126.977 Y58.186 E21.85101
G1 X127.177 Y58.406 E21.86339
G1 X127.547 Y58.886 E21.88861
G1 X128.007 Y59.666 E21.92631
G1 X129.057 Y61.726 E22.02256
G1 X129.307 Y62.276 E22.04771
G1 X129.507 Y62.846 E22.07286
G1 X129.657 Y63.436 E22.09820
G1 X130.067 Y66.016 E22.20694
G1 X130.137 Y66.616 E22.23209
G1 X130.147 Y67.216 E22.25707
G1 X130.137 Y67.516 E22.26956
G1 X130.067 Y68.116 E22.29471
G1 X129.657 Y70.696 E22.40346
G1 X129.507 Y71.286 E22.42880
G1 X129.347 Y71.753 E22.44936
G1 X129.307 Y71.856 E22.45395
G1 F900.000 E21.45395
G92 E0
G1 X92.604 Y98.926 F6600.000
G1 F900.000 E1.50000
G1 X92.990 Y99.859 F300.000 E1.54202
G1 X93.123 Y100.862 E1.58416
G1 X92.990 Y101.862 E1.62613
G1 X92.604 Y102.799 E1.66830
G1 X91.987 Y103.598 E1.71033
G1 X91.188 Y104.215 E1.75236
G1 X90.251 Y104.601 E1.79452
G1 X89.252 Y104.734 E1.83650
G1 X88.248 Y104.601 E1.87864
G1 X87.315 Y104.215 E1.92065
G1 X86.514 Y103.600 E1.96270
G1 X85.896 Y102.798 E2.00482
G1 X85.510 Y101.862 E2.04698
G1 X85.377 Y100.862 E2.08896
G1 X85.510 Y99.859 E2.13110
G1 X85.896 Y98.926 E2.17312
G1 X86.512 Y98.123 E2.21524
G1 X87.315 Y97.507 E2.25738
G1 X88.248 Y97.121 E2.29940
G1 X89.252 Y96.988 E2.34154
G1 X90.251 Y97.121 E2.38352
G1 X91.188 Y97.507 E2.42568
G1 X91.989 Y98.125 E2.46780
G1 X92.536 Y98.839 E2.50524
G1 X92.604 Y98.926 E2.50984
G1 X91.961 Y99.297 F6600.000
G1 X92.273 Y100.051 F300.000 E2.54380
G1 X92.381 Y100.862 E2.57786
G1 X92.273 Y101.670 E2.61179
G1 X91.961 Y102.427 E2.64588
G1 X91.463 Y103.074 E2.67986
G1 X90.816 Y103.572 E2.71383
G1 X90.059 Y103.884 E2.74792
G1 X89.251 Y103.992 E2.78185
G1 X88.440 Y103.884 E2.81590
G1 X87.686 Y103.572 E2.84987
G1 X87.038 Y103.075 E2.88388
G1 X86.539 Y102.427 E2.91791
G1 X86.227 Y101.670 E2.95200
G1 X86.119 Y100.862 E2.98593
G1 X86.227 Y100.051 E3.01999
G1 X86.539 Y99.297 E3.05395
G1 X87.037 Y98.648 E3.08801
G1 X87.686 Y98.150 E3.12208
G1 X88.440 Y97.838 E3.15605
G1 X89.251 Y97.730 E3.19011
G1 X90.059 Y97.838 E3.22404
G1 X90.816 Y98.150 E3.25812
G1 X91.464 Y98.649 E3.29215
G1 X91.894 Y99.210 E3.32157
G1 X91.961 Y99.297 E3.32616
G1 X91.318 Y99.668 F6600.000
G1 X91.557 Y100.243 F300.000 E3.35208
G1 X91.638 Y100.862 E3.37806
G1 X91.557 Y101.478 E3.40393
G1 X91.318 Y102.056 E3.42994
G1 X90.938 Y102.549 E3.45587
G1 X90.445 Y102.929 E3.48179
G1 X89.867 Y103.168 E3.50780
G1 X89.251 Y103.249 E3.53368
G1 X88.632 Y103.168 E3.55966
G1 X88.057 Y102.929 E3.58557
G1 X87.562 Y102.550 E3.61155
G1 X87.182 Y102.056 E3.63750
G1 X86.943 Y101.478 E3.66351
G1 X86.861 Y100.862 E3.68938
G1 X86.943 Y100.243 E3.71536
G1 X87.182 Y99.668 E3.74128
G1 X87.562 Y99.173 E3.76727
G1 X88.057 Y98.793 E3.79328
G1 X88.632 Y98.554 E3.81919
G1 X89.251 Y98.472 E3.84517
G1 X89.867 Y98.554 E3.87105
G1 X90.445 Y98.793 E3.89705
G1 X90.939 Y99.173 E3.92300
G1 X91.251 Y99.581 E3.94439
G1 X91.318 Y99.668 E3.94898
G1 X92.053 Y99.700 F6600.000
G1 F900.000 E2.94898
G92 E0
G1 X89.251 Y123.564 F6600.000
G1 F900.000 E1.50000
G1 X90.251 Y123.697 F300.000 E1.54199
G1 X91.188 Y124.083 E1.58415
G1 X91.987 Y124.700 E1.62618
G1 X92.603 Y125.498 E1.66815
G1 X92.990 Y126.433 E1.71026
G1 X93.123 Y127.436 E1.75238
G1 X92.990 Y128.439 E1.79449
G1 X92.604 Y129.372 E1.83651
G1 X91.987 Y130.175 E1.87868
G1 X91.187 Y130.788 E1.92060
G1 X90.251 Y131.178 E1.96283
G1 X89.251 Y131.307 E2.00480
G1 X88.248 Y131.178 E2.04691
G1 X87.315 Y130.788 E2.08898
G1 X86.514 Y130.177 E2.13093
G1 X85.896 Y129.371 E2.17317
G1 X85.510 Y128.439 E2.21519
G1 X85.377 Y127.436 E2.25731
G1 X85.510 Y126.433 E2.29943
G1 X85.897 Y125.498 E2.34153
G1 X86.514 Y124.698 E2.38360
G1 X87.315 Y124.083 E2.42564
G1 X88.248 Y123.697 E2.46765
G1 X89.142 Y123.579 E2.50520
G1 X89.251 Y123.564 E2.50979
G1 X89.251 Y124.306 F6600.000
G1 X90.059 Y124.414 F300.000 E2.54372
G1 X90.816 Y124.726 E2.57781
G1 X91.463 Y125.224 E2.61178
G1 X91.960 Y125.870 E2.64573
G1 X92.273 Y126.625 E2.67975
G1 X92.380 Y127.436 E2.71379
G1 X92.273 Y128.247 E2.74784
G1 X91.961 Y129.001 E2.78181
G1 X91.463 Y129.650 E2.81589
G1 X90.816 Y130.145 E2.84979
G1 X90.059 Y130.461 E2.88392
G1 X89.251 Y130.565 E2.91784
G1 X88.440 Y130.461 E2.95188
G1 X87.686 Y130.145 E2.98589
G1 X87.038 Y129.651 E3.01982
G1 X86.539 Y129.001 E3.05396
G1 X86.227 Y128.247 E3.08792
G1 X86.119 Y127.436 E3.12197
G1 X86.227 Y126.625 E3.15602
G1 X86.540 Y125.870 E3.19004
G1 X87.038 Y125.223 E3.22403
G1 X87.686 Y124.726 E3.25805
G1 X88.440 Y124.414 E3.29201
G1 X89.142 Y124.321 E3.32147
G1 X89.251 Y124.306 E3.32607
G1 X89.251 Y125.049 F6600.000
G1 X89.867 Y125.130 F300.000 E3.35195
G1 X90.445 Y125.369 E3.37795
G1 X90.938 Y125.749 E3.40388
G1 X91.318 Y126.242 E3.42979
G1 X91.557 Y126.817 E3.45573
G1 X91.638 Y127.436 E3.48170
G1 X91.557 Y128.055 E3.50767
G1 X91.318 Y128.630 E3.53359
G1 X90.938 Y129.125 E3.55960
G1 X90.445 Y129.503 E3.58546
G1 X89.867 Y129.744 E3.61151
G1 X89.251 Y129.823 E3.63737
G1 X88.632 Y129.744 E3.66333
G1 X88.057 Y129.503 E3.68929
G1 X87.562 Y129.126 E3.71521
G1 X87.182 Y128.630 E3.74123
G1 X86.943 Y128.055 E3.76715
G1 X86.861 Y127.436 E3.79312
G1 X86.943 Y126.817 E3.81909
G1 X87.182 Y126.242 E3.84503
G1 X87.562 Y125.748 E3.87096
G1 X88.057 Y125.369 E3.89694
G1 X88.632 Y125.130 E3.92286
G1 X89.142 Y125.063 E3.94424
G1 X89.251 Y125.049 E3.94883
G1 X89.647 Y124.428 F6600.000
G1 F900.000 E2.94883
G92 E0
G1 X95.692 Y132.703 F6600.000
G1 F900.000 E1.50000
G1 X78.048 Y132.703 F900.000 E2.23446
G1 X78.048 Y76.745 E4.56383
G1 X103.077 Y76.745 E5.60570
G1 X103.077 Y71.445 E5.82633
G1 X111.426 Y71.445 E6.17391
G1 X112.825 Y72.618 E6.24989
G1 X114.154 Y73.101 E6.30873
G1 X114.154 Y85.703 E6.83331
G1 X95.692 Y85.703 E7.60184
G1 X95.692 Y132.592 E9.55374
G1 X95.692 Y132.703 E9.55834
G1 F900.000 E8.55834
G92 E0
G1 X103.077 Y62.703 F6600.000
G1 F900.000 E1.50000
G1 X103.077 Y61.147 F300.000 E1.56475
G1 X113.285 Y61.147 E1.98969
G1 X111.429 Y62.703 E2.09050
G1 X103.187 Y62.703 E2.43359
G1 X103.077 Y62.703 E2.43818
G1 X102.341 Y63.438 F6600.000
G1 X102.341 Y60.412 F900.000 E2.56417
G1 X115.936 Y60.412 E3.13010
G1 X118.080 Y60.750 E3.22045
G1 X119.933 Y61.694 E3.30703
G1 X121.405 Y63.166 E3.39367
G1 X122.349 Y65.019 E3.48025
G1 X122.673 Y67.074 E3.56686
G1 X122.349 Y69.131 E3.65354
G1 X121.405 Y70.984 E3.74012
G1 X119.933 Y72.456 E3.82676
G1 X118.080 Y73.400 E3.91334
G1 X114.889 Y73.903 E4.04780
G1 X114.889 Y86.438 E4.56960
G1 X96.427 Y86.438 E5.33813
G1 X96.427 Y133.438 E7.29462
G1 X77.313 Y133.438 E8.09032
G1 X77.313 Y76.010 E10.48094
G1 X102.341 Y76.010 E11.52282
G1 X102.341 Y70.710 E11.74344
G1 X111.694 Y70.710 E12.13278
G1 X113.199 Y71.971 E12.21451
G1 X115.043 Y72.642 E12.29619
G1 X117.005 Y72.642 E12.37787
G1 X118.851 Y71.971 E12.45965
G1 X120.354 Y70.709 E12.54134
G1 X121.337 Y69.009 E12.62309
G1 X121.678 Y67.074 E12.70488
G1 X121.336 Y65.141 E12.78657
G1 X120.354 Y63.441 E12.86832
G1 X118.851 Y62.179 E12.94999
G1 X117.005 Y61.508 E13.03178
G1 X115.043 Y61.508 E13.11345
G1 X113.199 Y62.179 E13.19514
G1 X111.696 Y63.438 E13.27675
G1 X102.451 Y63.438 E13.66158
G1 X102.341 Y63.438 E13.66618
G1 X101.605 Y64.174 F6600.000
G1 X101.605 Y59.676 F900.000 E13.85342
G1 X115.994 Y59.676 E14.45236
G1 X118.310 Y60.041 E14.54997
G1 X120.371 Y61.092 E14.64627
G1 X122.007 Y62.728 E14.74260
G1 X123.058 Y64.789 E14.83890
G1 X123.418 Y67.074 E14.93519
G1 X123.058 Y69.361 E15.03157
G1 X122.007 Y71.422 E15.12786
G1 X120.371 Y73.058 E15.22420
G1 X118.310 Y74.109 E15.32049
G1 X115.625 Y74.532 E15.43364
G1 X115.625 Y87.174 E15.95989
G1 X97.163 Y87.174 E16.72842
G1 X97.163 Y134.174 E18.68491
G1 X76.577 Y134.174 E19.54186
G1 X76.577 Y75.274 E21.99372
G1 X101.605 Y75.274 E23.03559
G1 X101.605 Y69.974 E23.25622
G1 X112.119 Y69.974 E23.69388
G1 X112.265 Y70.229 E23.70611
G1 X113.572 Y71.324 E23.77707
G1 X115.172 Y71.906 E23.84797
G1 X116.875 Y71.906 E23.91886
G1 X118.478 Y71.324 E23.98983
G1 X119.782 Y70.229 E24.06071
G1 X120.635 Y68.753 E24.13167
G1 X120.931 Y67.074 E24.20265
G1 X120.635 Y65.397 E24.27354
G1 X120.589 Y65.319 E24.27731
G1 X119.782 Y63.921 E24.34450
G1 X118.478 Y62.826 E24.41537
G1 X116.875 Y62.244 E24.48635
G1 X115.173 Y62.244 E24.55724
G1 X113.572 Y62.826 E24.62814
G1 X112.266 Y63.921 E24.69908
G1 X112.120 Y64.174 E24.71124
G1 X101.716 Y64.174 E25.14434
G1 X101.605 Y64.174 E25.14893
G1 X101.973 Y63.537 F6600.000
G1 F900.000 E24.14893
G92 E0
G1 X103.481 Y72.181 F6600.000
G1 F900.000 E1.50000
G1 X111.490 Y72.181 F1200.000 E1.83451
G1 X112.371 Y72.919 E1.88252
G1 X103.481 Y72.919 E2.25382
G1 X103.481 Y73.657 E2.28465
G1 X113.749 Y73.657 E2.71352
G1 X113.749 Y74.395 E2.74435
G1 X103.481 Y74.395 E3.17321
G1 X103.481 Y75.133 E3.20404
G1 X113.749 Y75.133 E3.63290
G1 X113.749 Y75.871 E3.66373
G1 X103.481 Y75.871 E4.09260
G1 X103.481 Y76.609 E4.12343
G1 X113.749 Y76.609 E4.55229
G1 X113.749 Y77.348 E4.58312
G1 X103.481 Y77.348 E5.01199
G1 F900.000 E4.01199
G92 E0
G1 X95.287 Y85.467 F6600.000
G1 F900.000 E1.50000
G1 X78.453 Y85.467 F1200.000 E2.20314
G1 X78.453 Y86.205 E2.23397
G1 X95.287 Y86.205 E2.93712
G1 X95.287 Y86.943 E2.96794
G1 X78.453 Y86.943 E3.67109
G1 X78.453 Y87.681 E3.70192
G1 X95.287 Y87.681 E4.40506
G1 X95.287 Y88.419 E4.43589
G1 X78.453 Y88.419 E5.13903
G1 X78.453 Y89.157 E5.16986
G1 X95.287 Y89.157 E5.87300
G1 X95.287 Y89.895 E5.90383
G1 X78.453 Y89.895 E6.60698
G1 X78.453 Y90.633 E6.63780
G1 X95.287 Y90.633 E7.34095
G1 X95.287 Y91.371 E7.37178
G1 X78.453 Y91.371 E8.07492
G1 X78.453 Y92.110 E8.10575
G1 X95.287 Y92.110 E8.80889
G1 X95.287 Y92.848 E8.83972
G1 X78.453 Y92.848 E9.54286
G1 X78.453 Y93.586 E9.57369
G1 X95.287 Y93.586 E10.27684
G1 X95.287 Y94.324 E10.30767
G1 X78.453 Y94.324 E11.01081
G1 X78.453 Y95.062 E11.04164
G1 X95.287 Y95.062 E11.74478
G1 X95.287 Y95.800 E11.77561
G1 X78.453 Y95.800 E12.47875
G1 X78.453 Y96.538 E12.50959
G1 X88.064 Y96.538 E12.91104
G1 X86.739 Y97.276 E12.97439
G1 X78.453 Y97.276 E13.32050
G1 X78.453 Y98.014 E13.35133
G1 X86.000 Y98.014 E13.66656
G1 X85.503 Y98.753 E13.70371
G1 X78.453 Y98.753 E13.99820
G1 X78.453 Y99.491 E14.02903
G1 X85.198 Y99.491 E14.31075
G1 X85.050 Y100.229 E14.34218
G1 X78.453 Y100.229 E14.61775
G1 X78.453 Y100.967 E14.64858
G1 X84.980 Y100.967 E14.92122
G1 X85.078 Y101.705 E14.95232
G1 X78.453 Y101.705 E15.22905
G1 X78.453 Y102.443 E15.25988
G1 X85.285 Y102.443 E15.54525
G1 X85.594 Y103.181 E15.57866
G1 X78.453 Y103.181 E15.87693
G1 X78.453 Y103.919 E15.90776
G1 X86.163 Y103.919 E16.22978
G1 X87.015 Y104.657 E16.27688
G1 X78.453 Y104.657 E16.63451
G1 X78.453 Y105.395 E16.66534
G1 X88.977 Y105.395 E17.10493
G1 X89.524 Y105.395 F6600.000
