; generated by Slic3r 0.9.8 on 2013-05-29 at 16:21:59

; layer_height = .25
; perimeters = 1
; top_solid_layers = 4
; bottom_solid_layers = 4
; fill_density = .9
; perimeter_speed = 30
; infill_speed = 40
; travel_speed = 130
; scale = 1
; nozzle_diameter = 0.5
; filament_diameter = 3
; extrusion_multiplier = 1
; perimeters extrusion width = 0.80mm
; infill extrusion width = 0.80mm
; first layer extrusion width = 0.50mm

M107
M104 S210 ; set temperature
G28 ; home all axes
M109 S210 ; wait for temperature to be reached
G90 ; use absolute coordinates
G21 ; set units to millimeters
G92 E0
M82 ; use absolute distances for extrusion
G1 F1800.000 E-1.00000
G92 E0
G1 Z0.250 F7800.000
G1 X113.813 Y103.968
G1 F1800.000 E1.00000
G1 X113.593 Y104.128 F900.000 E1.00481
G1 X113.123 Y104.418 E1.01458
G1 X103.463 Y109.938 E1.21133
G1 X102.973 Y110.198 E1.22114
G1 X102.193 Y110.508 E1.23598
G1 X101.383 Y110.718 E1.25078
G1 X100.833 Y110.808 E1.26063
G1 X100.553 Y110.838 E1.26561
G1 X99.993 Y110.858 E1.27552
G1 X99.433 Y110.838 E1.28543
G1 X98.883 Y110.768 E1.29523
G1 X98.333 Y110.658 E1.30515
G1 X97.793 Y110.508 E1.31506
G1 X97.273 Y110.308 E1.32492
G1 X97.013 Y110.198 E1.32991
G1 X96.523 Y109.938 E1.33972
G1 X86.623 Y104.278 E1.54138
G1 X85.963 Y103.808 E1.55571
G1 X85.543 Y103.448 E1.56549
G1 X84.983 Y102.858 E1.57988
G1 X84.493 Y102.198 E1.59441
G1 X84.083 Y101.488 E1.60891
G1 X83.853 Y100.998 E1.61848
G1 X83.673 Y100.488 E1.62805
G1 X83.463 Y99.688 E1.64267
G1 X83.413 Y99.428 E1.64736
G1 X83.353 Y98.878 E1.65714
G1 X83.333 Y98.338 E1.66670
G1 X83.353 Y97.798 E1.67625
G1 X83.413 Y97.248 E1.68604
G1 X83.523 Y96.718 E1.69561
G1 X83.673 Y96.188 E1.70535
G1 X83.853 Y95.678 E1.71491
G1 X84.213 Y94.948 E1.72931
G1 X84.493 Y94.478 E1.73898
G1 X84.983 Y93.818 E1.75352
G1 X85.543 Y93.228 E1.76790
G1 X85.963 Y92.868 E1.77768
G1 X86.623 Y92.398 E1.79201
G1 X91.043 Y89.878 E1.88199
G1 X91.593 Y89.618 E1.89274
G1 X92.163 Y89.418 E1.90343
G1 X92.453 Y89.328 E1.90880
G1 X93.043 Y89.198 E1.91948
G1 X93.653 Y89.128 E1.93034
G1 X94.253 Y89.098 E1.94096
G1 X105.733 Y89.098 E2.14397
G1 X106.333 Y89.128 E2.15460
G1 X106.943 Y89.198 E2.16545
G1 X107.533 Y89.328 E2.17614
G1 X108.393 Y89.618 E2.19219
G1 X109.203 Y90.018 E2.20816
G1 X113.123 Y92.258 E2.28800
G1 X113.593 Y92.548 E2.29777
G1 X114.023 Y92.868 E2.30725
G1 X114.443 Y93.228 E2.31703
G1 X114.823 Y93.618 E2.32666
G1 X115.003 Y93.818 E2.33142
G1 X115.333 Y94.248 E2.34100
G1 X115.493 Y94.478 E2.34596
G1 X115.773 Y94.948 E2.35563
G1 X116.133 Y95.678 E2.37003
G1 X116.313 Y96.188 E2.37959
G1 X116.463 Y96.718 E2.38933
G1 X116.573 Y97.248 E2.39890
G1 X116.633 Y97.798 E2.40869
G1 X116.653 Y98.338 E2.41824
G1 X116.633 Y98.878 E2.42780
G1 X116.573 Y99.428 E2.43758
G1 X116.393 Y100.218 E2.45191
G1 X116.133 Y100.998 E2.46645
G1 X116.023 Y101.248 E2.47128
G1 X115.773 Y101.728 E2.48085
G1 X115.493 Y102.198 E2.49052
G1 X115.003 Y102.858 E2.50506
G1 X114.823 Y103.058 E2.50982
G1 X114.443 Y103.448 E2.51945
G1 X113.873 Y103.923 E2.53257
G1 X113.813 Y103.968 E2.53390
G1 X113.533 Y103.548 F7800.000
G1 X113.103 Y103.848 F900.000 E2.54317
G1 X103.213 Y109.498 E2.74459
G1 X102.983 Y109.628 E2.74926
G1 X102.493 Y109.858 E2.75883
G1 X101.983 Y110.048 E2.76846
G1 X101.203 Y110.248 E2.78270
G1 X100.393 Y110.348 E2.79713
G1 X100.123 Y110.358 E2.80191
G1 X99.593 Y110.348 E2.81128
G1 X98.783 Y110.248 E2.82571
G1 X98.003 Y110.048 E2.83995
G1 X97.743 Y109.958 E2.84482
G1 X97.003 Y109.628 E2.85915
G1 X86.883 Y103.848 E3.06524
G1 X86.243 Y103.388 E3.07918
G1 X85.843 Y103.038 E3.08858
G1 X85.483 Y102.668 E3.09771
G1 X85.143 Y102.258 E3.10713
G1 X84.993 Y102.048 E3.11169
G1 X84.843 Y101.828 E3.11640
G1 X84.583 Y101.368 E3.12574
G1 X84.353 Y100.898 E3.13500
G1 X84.093 Y100.158 E3.14887
G1 X83.963 Y99.648 E3.15817
G1 X83.913 Y99.388 E3.16285
G1 X83.853 Y98.868 E3.17211
G1 X83.833 Y98.338 E3.18149
G1 X83.853 Y97.808 E3.19087
G1 X83.913 Y97.288 E3.20013
G1 X84.093 Y96.518 E3.21411
G1 X84.353 Y95.778 E3.22798
G1 X84.583 Y95.308 E3.23723
G1 X84.843 Y94.848 E3.24658
G1 X85.143 Y94.418 E3.25585
G1 X85.483 Y94.008 E3.26527
G1 X85.843 Y93.638 E3.27440
G1 X86.243 Y93.288 E3.28380
G1 X86.883 Y92.828 E3.29773
G1 X91.273 Y90.318 E3.38716
G1 X91.783 Y90.088 E3.39705
G1 X92.313 Y89.898 E3.40701
G1 X92.853 Y89.748 E3.41692
G1 X93.413 Y89.648 E3.42698
G1 X93.693 Y89.618 E3.43196
G1 X94.253 Y89.598 E3.44187
G1 X105.733 Y89.598 E3.64488
G1 X106.293 Y89.618 E3.65479
G1 X106.573 Y89.648 E3.65977
G1 X107.133 Y89.748 E3.66983
G1 X107.673 Y89.898 E3.67974
G1 X108.203 Y90.088 E3.68970
G1 X108.713 Y90.318 E3.69959
G1 X113.103 Y92.828 E3.78902
G1 X113.743 Y93.288 E3.80295
G1 X114.323 Y93.818 E3.81685
G1 X114.843 Y94.418 E3.83089
G1 X115.143 Y94.848 E3.84016
G1 X115.403 Y95.308 E3.84950
G1 X115.633 Y95.778 E3.85876
G1 X115.813 Y96.268 E3.86799
G1 X115.963 Y96.778 E3.87739
G1 X116.073 Y97.288 E3.88662
G1 X116.133 Y97.808 E3.89587
G1 X116.153 Y98.338 E3.90525
G1 X116.133 Y98.868 E3.91463
G1 X116.073 Y99.388 E3.92389
G1 X115.963 Y99.898 E3.93311
G1 X115.813 Y100.408 E3.94251
G1 X115.633 Y100.898 E3.95175
G1 X115.403 Y101.368 E3.96100
G1 X115.143 Y101.828 E3.97034
G1 X114.843 Y102.258 E3.97961
G1 X114.503 Y102.668 E3.98903
G1 X114.143 Y103.038 E3.99816
G1 X113.593 Y103.503 E4.01090
G1 X113.533 Y103.548 E4.01222
G1 F1800.000 E3.01222
G92 E0
G1 X108.654 Y98.342 F7800.000
G1 F1800.000 E1.00000
G1 X99.999 Y103.288 F900.000 E1.17628
G1 X98.909 Y102.665 E1.19849
G1 X99.782 Y102.303 E1.21521
G1 X100.350 Y101.868 E1.22786
G1 X100.785 Y101.300 E1.24051
G1 X101.059 Y100.639 E1.25316
G1 X101.152 Y99.929 E1.26582
G1 X101.059 Y99.220 E1.27847
G1 X100.785 Y98.559 E1.29112
G1 X100.350 Y97.991 E1.30378
G1 X99.782 Y97.556 E1.31643
G1 X99.121 Y97.282 E1.32908
G1 X98.412 Y97.189 E1.34174
G1 X97.702 Y97.282 E1.35439
G1 X97.041 Y97.556 E1.36704
G1 X96.473 Y97.991 E1.37969
G1 X96.038 Y98.559 E1.39235
G1 X95.764 Y99.220 E1.40500
G1 X95.671 Y99.929 E1.41765
G1 X95.797 Y100.887 E1.43472
G1 X91.344 Y98.342 E1.52541
G1 X94.392 Y96.601 E1.58748
G1 X105.606 Y96.600 E1.78579
G1 X108.589 Y98.305 E1.84654
G1 X108.654 Y98.342 E1.84786
G1 X109.662 Y98.342 F7800.000
G1 X99.999 Y103.864 F900.000 E2.04466
G1 X97.182 Y102.254 E2.10204
G1 X97.263 Y102.015 E2.10651
G1 X98.412 Y102.166 E2.12700
G1 X98.990 Y102.090 E2.13733
G1 X99.530 Y101.866 E2.14765
G1 X99.993 Y101.511 E2.15797
G1 X100.348 Y101.048 E2.16830
G1 X100.572 Y100.508 E2.17862
G1 X100.648 Y99.929 E2.18895
G1 X100.572 Y99.351 E2.19927
G1 X100.348 Y98.811 E2.20960
G1 X99.993 Y98.348 E2.21992
G1 X99.530 Y97.993 E2.23025
G1 X98.990 Y97.769 E2.24057
G1 X98.412 Y97.693 E2.25090
G1 X97.833 Y97.769 E2.26122
G1 X97.293 Y97.993 E2.27155
G1 X96.830 Y98.348 E2.28187
G1 X96.475 Y98.811 E2.29220
G1 X96.251 Y99.351 E2.30252
G1 X96.175 Y99.929 E2.31285
G1 X96.251 Y100.508 E2.32317
G1 X96.475 Y101.048 E2.33350
G1 X97.188 Y101.978 E2.35423
G1 X97.025 Y102.165 E2.35861
G1 X90.337 Y98.342 E2.49484
G1 X94.259 Y96.101 E2.57473
G1 X105.739 Y96.100 E2.77774
G1 X109.596 Y98.305 E2.85631
G1 X109.662 Y98.342 E2.85763
G1 X109.169 Y98.428 F7800.000
G1 F1800.000 E1.85763
G92 E0
G1 X105.699 Y97.100 F7800.000
G1 F1800.000 E1.00000
G1 X99.984 Y97.100 F1500.000 E1.11137
G1 X100.494 Y97.652 E1.12601
G1 X106.663 Y97.652 E1.24623
G1 X107.627 Y98.203 E1.26788
G1 X100.917 Y98.203 E1.39866
G1 X101.182 Y98.754 E1.41057
G1 X107.151 Y98.754 E1.52691
G1 X106.187 Y99.305 E1.54855
G1 X101.349 Y99.305 E1.64284
G1 X101.422 Y99.856 E1.65367
G1 X105.223 Y99.856 E1.72774
G1 X104.259 Y100.407 E1.74938
G1 X101.369 Y100.407 E1.80570
G1 X101.243 Y100.958 F7800.000
G1 X103.294 Y100.958 F1500.000 E1.84568
G1 X102.330 Y101.509 E1.86733
G1 X101.015 Y101.509 E1.89296
G1 X100.916 Y102.060 E1.90388
G1 X101.366 Y102.060 E1.91265
G1 X100.502 Y102.553 F7800.000
G1 X100.052 Y102.553 F600.000 E1.92061
G1 F1800.000 E0.92061
G92 E0
G1 X99.931 Y97.155 F7800.000
G1 F1800.000 E1.00000
G1 X99.658 Y97.155 F600.000 E1.00294
G1 F1800.000 E0.00294
G92 E0
G1 X97.165 Y97.155 F7800.000
G1 F1800.000 E1.00000
G1 X96.892 Y97.155 F600.000 E1.00294
G1 F1800.000 E0.00294
G92 E0
G1 X94.300 Y97.101 F7800.000
G1 F1800.000 E1.00000
G1 X96.839 Y97.101 F1500.000 E1.05117
G1 X96.315 Y97.670 E1.06677
G1 X93.303 Y97.670 E1.12745
G1 X92.306 Y98.240 E1.15058
G1 X95.878 Y98.240 E1.22254
G1 X95.618 Y98.810 E1.23516
G1 X92.945 Y98.810 E1.28902
G1 X93.942 Y99.379 E1.31216
G1 X95.464 Y99.379 E1.34283
G1 X94.939 Y99.949 E1.35845
G1 X95.389 Y99.949 E1.36752
M106 S255
G1 F1800.000 E0.36752
G92 E0
G1 Z0.500 F7800.000
G1 X96.024 Y99.929
G1 F1800.000 E1.00000
G1 X96.105 Y100.547 F600.000 E1.01646
G1 X96.484 Y101.462 E1.04260
G1 X96.333 Y101.596 E1.04792
G1 X90.639 Y98.342 E1.22102
G1 X94.299 Y96.251 E1.33230
G1 X105.699 Y96.250 E1.63322
G1 X109.359 Y98.342 E1.74450
G1 X99.999 Y103.691 E2.02907
G1 X98.030 Y102.566 E2.08894
G1 X98.070 Y102.362 E2.09442
G1 X99.030 Y102.236 E2.11996
G1 X99.605 Y101.997 E2.13641
G1 X100.100 Y101.618 E2.15286
G1 X100.479 Y101.123 E2.16932
G1 X100.718 Y100.547 E2.18577
G1 X100.799 Y99.929 E2.20223
G1 X100.790 Y99.858 E2.20412
G1 X100.718 Y99.311 E2.21868
G1 X100.479 Y98.736 E2.23514
G1 X100.100 Y98.241 E2.25159
G1 X99.605 Y97.862 E2.26805
G1 X99.030 Y97.623 E2.28450
G1 X98.412 Y97.542 E2.30095
G1 X97.794 Y97.623 E2.31741
G1 X97.218 Y97.862 E2.33386
G1 X96.723 Y98.241 E2.35032
G1 X96.344 Y98.736 E2.36677
G1 X96.105 Y99.311 E2.38323
G1 X96.038 Y99.818 E2.39672
G1 X96.024 Y99.929 E2.39968
G1 F1800.000 E1.39968
G92 E0
G1 X97.303 Y102.118 F7800.000
G1 F1800.000 E1.00000
G1 X97.308 Y102.206 F600.000 E1.00234
G1 X97.303 Y102.118 F7800.000
G1 X97.128 Y101.997 F600.000 E1.00795
G1 X97.079 Y101.998 F7800.000
G1 X97.166 Y101.731 F600.000 E1.01536
G1 X97.079 Y101.998 F7800.000
G1 X97.008 Y102.035 F600.000 E1.01749
G1 X97.280 Y102.078 F7800.000
G1 X97.404 Y101.968 F600.000 E1.02186
G1 F1800.000 E0.02186
G92 E0
G1 X101.523 Y102.297 F7800.000
G1 F1800.000 E1.00000
G1 X101.523 Y99.813 F666.237 E1.06954
G1 X101.523 Y100.046 F7800.000
G1 X101.523 Y96.661 F666.237 E1.16430
G1 X102.315 Y96.661 E1.18646
G1 X102.315 Y101.844 E1.33156
G1 X103.106 Y101.392 E1.35708
G1 X103.106 Y96.661 E1.48952
G1 X103.898 Y96.661 E1.51167
G1 X103.898 Y100.940 E1.63144
G1 X104.689 Y100.487 E1.65696
G1 X104.689 Y96.661 E1.76408
G1 X105.481 Y96.661 E1.78623
G1 X105.481 Y100.035 E1.88068
G1 X106.272 Y99.583 E1.90620
G1 X106.272 Y97.101 E1.97566
G1 X107.064 Y97.554 E2.00118
G1 X107.064 Y99.130 E2.04531
G1 X107.855 Y98.678 E2.07083
G1 X107.855 Y98.006 E2.08964
G1 F1800.000 E1.08964
G92 E0
G1 X100.732 Y98.174 F7800.000
G1 F1800.000 E1.00000
G1 X100.732 Y96.661 F666.237 E1.04237
G1 X99.940 Y96.841 E1.06509
G1 X99.940 Y97.514 E1.08391
G1 X99.455 Y96.634 F7800.000
G1 X99.455 Y97.014 F600.000 E1.09091
G1 X98.933 Y97.222 E1.10128
G1 X98.933 Y96.634 E1.11214
G1 X98.412 Y96.634 E1.12177
G1 X98.412 Y97.153 E1.13135
G1 X97.890 Y97.222 E1.14106
G1 X97.890 Y96.634 E1.15191
G1 X97.368 Y96.634 E1.16155
G1 X97.368 Y97.014 E1.16855
G1 X96.883 Y96.842 F7800.000
G1 X96.883 Y97.514 F666.237 E1.18733
G1 X96.093 Y98.172 E1.21606
G1 X96.093 Y96.661 E1.25829
G1 X95.303 Y96.661 E1.28036
G1 X95.303 Y100.023 E1.37428
G1 X94.513 Y100.032 E1.39635
G1 X94.513 Y96.661 E1.49054
G1 X93.723 Y97.103 E1.51584
G1 X93.723 Y99.581 E1.58506
G1 X92.933 Y99.130 E1.61047
G1 X92.933 Y97.555 E1.65447
G1 X92.143 Y98.006 E1.67989
G1 X92.143 Y98.678 E1.69866
G1 F1800.000 E0.69866
G92 E0
G1 X100.282 Y102.303 F7800.000
G1 F1800.000 E1.00000
G1 X100.282 Y102.975 F600.000 E1.01774
G1 F1800.000 E0.01774
G92 E0
G1 Z0.750 F7800.000
G1 X100.633 Y103.329
G1 F1800.000 E1.00000
G1 X99.999 Y103.691 F600.000 E1.01926
G1 X98.030 Y102.566 E1.07912
G1 X98.071 Y102.362 E1.08460
G1 X99.030 Y102.236 E1.11013
G1 X99.605 Y101.997 E1.12659
G1 X100.100 Y101.618 E1.14304
G1 X100.479 Y101.123 E1.15950
G1 X100.718 Y100.547 E1.17595
G1 X100.799 Y99.929 E1.19240
G1 X100.718 Y99.311 E1.20886
G1 X100.479 Y98.736 E1.22531
G1 X100.100 Y98.241 E1.24177
G1 X99.605 Y97.862 E1.25822
G1 X99.030 Y97.623 E1.27468
G1 X98.412 Y97.542 E1.29113
G1 X97.879 Y97.612 E1.30531
G1 X97.794 Y97.623 E1.30758
G1 X97.218 Y97.862 E1.32404
G1 X96.723 Y98.241 E1.34049
G1 X96.344 Y98.736 E1.35695
G1 X96.311 Y98.815 E1.35922
G1 X96.105 Y99.311 E1.37340
G1 X96.024 Y99.929 E1.38986
G1 X96.105 Y100.547 E1.40631
G1 X96.484 Y101.462 E1.43245
G1 X96.333 Y101.596 E1.43778
G1 X90.639 Y98.342 E1.61087
G1 X94.299 Y96.250 E1.72215
G1 X105.699 Y96.250 E2.02307
G1 X109.359 Y98.342 E2.13435
G1 X100.730 Y103.273 E2.39671
G1 X100.633 Y103.329 E2.39966
G1 F1800.000 E1.39966
G92 E0
G1 X97.303 Y102.118 F7800.000
G1 F1800.000 E1.00000
G1 X97.308 Y102.206 F600.000 E1.00234
G1 X97.303 Y102.118 F7800.000
G1 X97.128 Y101.997 F600.000 E1.00795
G1 X97.079 Y101.998 F7800.000
G1 X97.164 Y101.708 F600.000 E1.01594
G1 X97.079 Y101.998 F7800.000
G1 X97.008 Y102.035 F600.000 E1.01807
G1 X97.278 Y102.074 F7800.000
G1 X97.380 Y101.981 F600.000 E1.02172
G1 F1800.000 E0.02172
G92 E0
G1 X101.349 Y102.252 F7800.000
G1 F1800.000 E1.00000
G1 X100.677 Y102.252 F627.787 E1.01785
G1 X100.795 Y101.502 E1.03803
G1 X102.662 Y101.502 E1.08763
G1 X103.976 Y100.751 E1.12781
G1 X101.106 Y100.751 E1.20404
G1 X101.207 Y100.000 E1.22415
G1 X105.290 Y100.000 E1.33258
G1 X106.604 Y99.249 E1.37276
G1 X101.127 Y99.249 E1.51820
G1 X100.853 Y98.498 E1.53942
G1 X107.918 Y98.498 E1.72702
G1 X107.151 Y97.747 E1.75551
G1 X100.326 Y97.747 E1.93675
G1 X99.666 Y96.997 E1.96330
G1 X105.837 Y96.997 E2.12719
G1 F1800.000 E1.12719
G92 E0
G1 X100.335 Y102.800 F7800.000
G1 F1800.000 E1.00000
G1 X99.663 Y102.800 F600.000 E1.01774
G1 F1800.000 E0.01774
G92 E0
G1 X95.582 Y100.115 F7800.000
G1 F1800.000 E1.00000
G1 X94.910 Y100.115 F627.787 E1.01853
G1 X95.685 Y99.336 E1.04884
G1 X93.546 Y99.336 E1.10783
G1 X92.182 Y98.556 E1.15116
G1 X95.946 Y98.556 E1.25497
G1 X96.475 Y97.776 E1.28095
G1 X92.797 Y97.776 E1.38236
G1 X94.161 Y96.997 E1.42569
G1 X97.157 Y96.997 E1.50830
G1 X97.664 Y97.135 F7800.000
G1 X97.284 Y97.135 F600.000 E1.51396
G1 F1800.000 E0.51396
G92 E0
G1 X99.539 Y97.135 F7800.000
G1 F1800.000 E1.00000
G1 X99.159 Y97.135 F600.000 E1.00566
G1 F1800.000 E0.00566
G92 E0
G1 Z1.000 F7800.000
G1 X99.030 Y97.623
G1 F1800.000 E1.00000
G1 X98.412 Y97.542 F600.000 E1.01645
G1 X97.794 Y97.623 E1.03291
G1 X97.218 Y97.862 E1.04936
G1 X96.723 Y98.241 E1.06582
G1 X96.344 Y98.736 E1.08227
G1 X96.105 Y99.311 E1.09873
G1 X96.024 Y99.929 E1.11518
G1 X96.105 Y100.547 E1.13163
G1 X96.484 Y101.462 E1.15777
G1 X96.332 Y101.596 E1.16310
G1 X90.639 Y98.342 E1.33618
G1 X94.299 Y96.250 E1.44746
G1 X105.699 Y96.250 E1.74839
G1 X109.359 Y98.342 E1.85966
G1 X99.999 Y103.691 E2.14424
G1 X98.031 Y102.566 E2.20410
G1 X98.071 Y102.362 E2.20958
G1 X99.030 Y102.236 E2.23511
G1 X99.605 Y101.997 E2.25156
G1 X100.100 Y101.618 E2.26801
G1 X100.479 Y101.123 E2.28447
G1 X100.718 Y100.547 E2.30092
G1 X100.799 Y99.929 E2.31738
G1 X100.718 Y99.311 E2.33383
G1 X100.479 Y98.736 E2.35029
G1 X100.100 Y98.241 E2.36674
G1 X99.605 Y97.862 E2.38319
G1 X99.133 Y97.666 E2.39669
G1 X99.030 Y97.623 E2.39965
G1 F1800.000 E1.39965
G92 E0
G1 X97.303 Y102.118 F7800.000
G1 F1800.000 E1.00000
G1 X97.308 Y102.206 F600.000 E1.00234
G1 X97.303 Y102.118 F7800.000
G1 X97.128 Y101.997 F600.000 E1.00794
G1 X97.079 Y101.998 F7800.000
G1 X97.163 Y101.685 F600.000 E1.01648
G1 X97.079 Y101.998 F7800.000
G1 X97.008 Y102.035 F600.000 E1.01861
G1 X97.276 Y102.070 F7800.000
G1 X97.356 Y101.996 F600.000 E1.02150
G1 F1800.000 E0.02150
G92 E0
G1 X101.523 Y102.297 F7800.000
G1 F1800.000 E1.00000
G1 X101.523 Y99.814 F665.940 E1.06950
