; generated by Slic3r 0.9.8 on 2013-05-29 at 15:15:17

; layer_height = .25
; perimeters = 1
; top_solid_layers = 4
; bottom_solid_layers = 4
; fill_density = .9
; perimeter_speed = 30
; infill_speed = 40
; travel_speed = 130
; scale = 1
; nozzle_diameter = 0.5
; filament_diameter = 3
; extrusion_multiplier = 1
; perimeters extrusion width = 0.80mm
; infill extrusion width = 0.80mm
; first layer extrusion width = 0.50mm

M107
M104 S210 ; set temperature
G28 ; home all axes
M109 S210 ; wait for temperature to be reached
G90 ; use absolute coordinates
G21 ; set units to millimeters
G92 E0
M82 ; use absolute distances for extrusion
G1 F1800.000 E-1.00000
G92 E0
G1 Z0.250 F7800.000
G1 X82.843 Y126.958
G1 F1800.000 E1.00000
G1 X81.933 Y126.898 F900.000 E1.01613
G1 X81.343 Y126.798 E1.02671
G1 X80.753 Y126.638 E1.03752
G1 X80.463 Y126.538 E1.04294
G1 X79.633 Y126.178 E1.05894
G1 X71.273 Y121.408 E1.22915
G1 X70.523 Y120.908 E1.24509
G1 X70.283 Y120.718 E1.25051
G1 X69.833 Y120.308 E1.26127
G1 X69.423 Y119.868 E1.27191
G1 X41.333 Y86.888 E2.03799
G1 X40.993 Y86.458 E2.04769
G1 X40.553 Y85.768 E2.06216
G1 X40.303 Y85.278 E2.07189
G1 X40.093 Y84.778 E2.08148
G1 X39.923 Y84.258 E2.09115
G1 X39.803 Y83.728 E2.10076
G1 X39.683 Y82.918 E2.11524
G1 X39.663 Y82.368 E2.12497
G1 X39.683 Y81.818 E2.13471
G1 X39.743 Y81.278 E2.14431
G1 X39.793 Y81.008 E2.14917
G1 X39.913 Y80.478 E2.15878
G1 X40.083 Y79.958 E2.16846
G1 X40.293 Y79.448 E2.17821
G1 X40.533 Y78.958 E2.18786
G1 X41.133 Y78.048 E2.20713
G1 X41.673 Y77.438 E2.22154
G1 X42.073 Y77.058 E2.23130
G1 X42.723 Y76.558 E2.24580
G1 X43.193 Y76.268 E2.25556
G1 X47.493 Y73.818 E2.34308
G1 X48.043 Y73.558 E2.35384
G1 X48.903 Y73.268 E2.36989
G1 X49.493 Y73.138 E2.38057
G1 X49.793 Y73.098 E2.38592
G1 X50.703 Y73.038 E2.40205
G1 X149.583 Y73.048 E4.15063
G1 X150.193 Y73.098 E4.16146
G1 X150.783 Y73.198 E4.17204
G1 X151.083 Y73.268 E4.17749
G1 X151.943 Y73.558 E4.19354
G1 X152.753 Y73.958 E4.20951
G1 X157.033 Y76.408 E4.29672
G1 X157.483 Y76.718 E4.30639
G1 X157.903 Y77.058 E4.31594
G1 X158.113 Y77.238 E4.32083
G1 X158.493 Y77.628 E4.33046
G1 X158.673 Y77.828 E4.33522
G1 X159.003 Y78.258 E4.34481
G1 X159.443 Y78.948 E4.35928
G1 X159.693 Y79.438 E4.36901
G1 X159.893 Y79.938 E4.37853
G1 X160.063 Y80.458 E4.38820
G1 X160.193 Y80.988 E4.39785
G1 X160.303 Y81.798 E4.41231
G1 X160.323 Y82.338 E4.42186
G1 X160.303 Y82.888 E4.43160
G1 X160.243 Y83.428 E4.44120
G1 X160.193 Y83.698 E4.44606
G1 X159.993 Y84.488 E4.46047
G1 X159.903 Y84.748 E4.46534
G1 X159.693 Y85.248 E4.47493
G1 X159.453 Y85.738 E4.48458
G1 X159.013 Y86.428 E4.49905
G1 X158.683 Y86.858 E4.50863
G1 X130.913 Y119.848 E5.27120
G1 X130.493 Y120.298 E5.28208
G1 X130.033 Y120.718 E5.29310
G1 X129.293 Y121.258 E5.30930
G1 X120.673 Y126.178 E5.48482
G1 X120.123 Y126.438 E5.49557
G1 X119.553 Y126.638 E5.50626
G1 X118.963 Y126.798 E5.51707
G1 X118.373 Y126.898 E5.52765
G1 X117.463 Y126.958 E5.54378
G1 X82.918 Y126.958 E6.15467
G1 X82.843 Y126.958 E6.15599
G1 X82.843 Y126.458 F7800.000
G1 X82.283 Y126.438 F900.000 E6.16590
G1 X82.003 Y126.408 E6.17088
G1 X81.443 Y126.308 E6.18094
G1 X80.633 Y126.068 E6.19588
G1 X79.863 Y125.738 E6.21070
G1 X71.253 Y120.808 E6.38615
G1 X70.723 Y120.428 E6.39768
G1 X70.243 Y120.008 E6.40896
G1 X69.803 Y119.538 E6.42034
G1 X41.543 Y86.358 E7.19107
G1 X41.383 Y86.148 E7.19574
G1 X41.093 Y85.698 E7.20521
G1 X40.723 Y84.998 E7.21921
G1 X40.443 Y84.248 E7.23337
G1 X40.373 Y83.998 E7.23796
G1 X40.223 Y83.218 E7.25200
G1 X40.173 Y82.688 E7.26142
G1 X40.163 Y82.158 E7.27079
G1 X40.203 Y81.628 E7.28019
G1 X40.283 Y81.098 E7.28967
G1 X40.403 Y80.578 E7.29911
G1 X40.573 Y80.078 E7.30845
G1 X40.893 Y79.348 E7.32254
G1 X41.023 Y79.118 E7.32721
G1 X41.303 Y78.668 E7.33659
G1 X41.623 Y78.238 E7.34606
G1 X42.163 Y77.658 E7.36008
G1 X42.563 Y77.308 E7.36948
G1 X42.983 Y76.988 E7.37881
G1 X43.433 Y76.708 E7.38819
G1 X47.723 Y74.258 E7.47555
G1 X48.493 Y73.928 E7.49037
G1 X49.303 Y73.688 E7.50530
G1 X49.863 Y73.588 E7.51536
G1 X50.143 Y73.558 E7.52034
G1 X50.703 Y73.538 E7.53025
G1 X149.283 Y73.538 E9.27353
G1 X149.843 Y73.558 E9.28344
G1 X150.123 Y73.588 E9.28842
G1 X150.683 Y73.688 E9.29848
G1 X150.953 Y73.758 E9.30341
G1 X151.493 Y73.928 E9.31342
G1 X152.013 Y74.138 E9.32334
G1 X152.513 Y74.398 E9.33331
G1 X156.773 Y76.838 E9.42012
G1 X157.213 Y77.138 E9.42954
G1 X157.823 Y77.658 E9.44371
G1 X158.353 Y78.238 E9.45761
G1 X158.523 Y78.448 E9.46239
G1 X158.823 Y78.878 E9.47166
G1 X159.083 Y79.338 E9.48100
G1 X159.313 Y79.818 E9.49041
G1 X159.413 Y80.068 E9.49518
G1 X159.573 Y80.568 E9.50446
G1 X159.703 Y81.078 E9.51377
G1 X159.783 Y81.608 E9.52324
G1 X159.823 Y82.128 E9.53247
G1 X159.823 Y82.398 E9.53724
G1 X159.773 Y83.188 E9.55124
G1 X159.733 Y83.448 E9.55589
G1 X159.623 Y83.968 E9.56529
G1 X159.463 Y84.478 E9.57474
G1 X159.163 Y85.208 E9.58870
G1 X158.913 Y85.668 E9.59796
G1 X158.623 Y86.118 E9.60743
G1 X158.293 Y86.538 E9.61687
G1 X130.523 Y119.528 E10.37944
G1 X130.313 Y119.768 E10.38508
G1 X129.843 Y120.228 E10.39671
G1 X129.593 Y120.438 E10.40248
G1 X129.053 Y120.818 E10.41416
G1 X120.443 Y125.738 E10.58952
G1 X119.933 Y125.968 E10.59941
G1 X119.403 Y126.158 E10.60937
G1 X118.853 Y126.308 E10.61945
G1 X118.303 Y126.408 E10.62934
G1 X118.023 Y126.438 E10.63432
G1 X117.463 Y126.458 E10.64423
G1 X82.918 Y126.458 E11.25512
G1 X82.843 Y126.458 E11.25644
G1 F1800.000 E10.25644
G92 E0
G1 X139.588 Y85.241 F7800.000
G1 F1800.000 E1.00000
G1 X139.314 Y84.580 F300.000 E1.01265
G1 X139.221 Y83.871 E1.02531
G1 X139.314 Y83.161 E1.03796
G1 X139.588 Y82.500 E1.05061
G1 X140.024 Y81.933 E1.06326
G1 X140.591 Y81.497 E1.07592
G1 X141.252 Y81.223 E1.08857
G1 X141.962 Y81.130 E1.10122
G1 X142.671 Y81.223 E1.11388
G1 X143.332 Y81.497 E1.12653
G1 X143.900 Y81.933 E1.13918
G1 X144.335 Y82.500 E1.15183
G1 X144.609 Y83.161 E1.16449
G1 X144.703 Y83.871 E1.17714
G1 X144.609 Y84.580 E1.18979
G1 X144.335 Y85.241 E1.20245
G1 X143.900 Y85.809 E1.21510
G1 X143.332 Y86.244 E1.22775
G1 X142.671 Y86.518 E1.24041
G1 X141.962 Y86.612 E1.25306
G1 X141.252 Y86.518 E1.26571
G1 X140.591 Y86.244 E1.27837
G1 X140.024 Y85.809 E1.29102
G1 X139.634 Y85.301 E1.30234
G1 X139.588 Y85.241 E1.30367
G1 X140.025 Y84.989 F7800.000
G1 X139.801 Y84.450 F300.000 E1.31399
G1 X139.725 Y83.871 E1.32432
G1 X139.801 Y83.292 E1.33464
G1 X140.025 Y82.753 E1.34497
G1 X140.380 Y82.289 E1.35529
G1 X140.844 Y81.934 E1.36562
G1 X141.383 Y81.710 E1.37594
G1 X141.962 Y81.634 E1.38627
G1 X142.541 Y81.710 E1.39659
G1 X143.080 Y81.934 E1.40692
G1 X143.543 Y82.289 E1.41724
G1 X143.899 Y82.753 E1.42757
G1 X144.122 Y83.292 E1.43789
G1 X144.198 Y83.871 E1.44822
G1 X144.122 Y84.450 E1.45854
G1 X143.899 Y84.989 E1.46887
G1 X143.543 Y85.452 E1.47919
G1 X143.080 Y85.808 E1.48952
G1 X142.541 Y86.031 E1.49984
G1 X141.962 Y86.107 E1.51017
G1 X141.383 Y86.031 E1.52049
G1 X140.843 Y85.808 E1.53082
G1 X140.380 Y85.452 E1.54114
G1 X140.071 Y85.049 E1.55014
G1 X140.025 Y84.989 E1.55146
G1 X139.525 Y84.967 F7800.000
G1 F1800.000 E0.55146
G92 E0
G1 X60.779 Y83.870 F7800.000
G1 F1800.000 E1.00000
G1 X60.686 Y84.579 F300.000 E1.01265
G1 X60.412 Y85.240 E1.02531
G1 X59.976 Y85.808 E1.03796
G1 X59.409 Y86.243 E1.05061
G1 X58.748 Y86.517 E1.06326
G1 X58.038 Y86.610 E1.07592
G1 X57.329 Y86.517 E1.08857
G1 X56.668 Y86.243 E1.10122
G1 X56.100 Y85.808 E1.11388
G1 X55.665 Y85.240 E1.12653
G1 X55.391 Y84.579 E1.13918
G1 X55.297 Y83.870 E1.15183
G1 X55.391 Y83.160 E1.16449
G1 X55.665 Y82.499 E1.17714
G1 X56.100 Y81.932 E1.18979
G1 X56.668 Y81.496 E1.20245
G1 X56.777 Y81.451 E1.20454
G1 X57.329 Y81.222 E1.21510
G1 X58.038 Y81.129 E1.22775
G1 X58.748 Y81.222 E1.24041
G1 X59.299 Y81.451 E1.25096
G1 X59.409 Y81.496 E1.25306
G1 X59.976 Y81.932 E1.26571
G1 X60.412 Y82.499 E1.27836
G1 X60.686 Y83.160 E1.29102
G1 X60.769 Y83.795 E1.30234
G1 X60.779 Y83.870 E1.30367
G1 X60.275 Y83.870 F7800.000
G1 X60.199 Y84.448 F300.000 E1.31399
G1 X59.975 Y84.988 E1.32432
G1 X59.620 Y85.451 E1.33464
G1 X59.157 Y85.806 E1.34497
G1 X58.617 Y86.030 E1.35529
G1 X58.038 Y86.106 E1.36562
G1 X57.459 Y86.030 E1.37594
G1 X56.920 Y85.806 E1.38627
G1 X56.457 Y85.451 E1.39659
G1 X56.101 Y84.988 E1.40692
G1 X55.878 Y84.448 E1.41724
G1 X55.802 Y83.870 E1.42757
G1 X55.878 Y83.291 E1.43789
G1 X56.101 Y82.751 E1.44822
G1 X56.457 Y82.288 E1.45854
G1 X56.920 Y81.933 E1.46887
G1 X56.969 Y81.913 E1.46980
G1 X57.459 Y81.709 E1.47919
G1 X58.038 Y81.633 E1.48952
G1 X58.617 Y81.709 E1.49984
G1 X59.108 Y81.913 E1.50923
G1 X59.157 Y81.933 E1.51017
G1 X59.620 Y82.288 E1.52049
G1 X59.975 Y82.751 E1.53081
G1 X60.199 Y83.291 E1.54114
G1 X60.265 Y83.795 E1.55014
G1 X60.275 Y83.870 E1.55146
G1 X60.696 Y84.138 F7800.000
G1 F1800.000 E0.55146
G92 E0
G1 X83.620 Y113.596 F7800.000
G1 F1800.000 E1.00000
G1 X84.188 Y113.161 F300.000 E1.01265
G1 X84.849 Y112.887 E1.02531
G1 X84.966 Y112.872 E1.02739
G1 X85.558 Y112.794 E1.03796
G1 X86.268 Y112.887 E1.05061
G1 X86.929 Y113.161 E1.06327
G1 X87.496 Y113.596 E1.07592
G1 X87.932 Y114.164 E1.08857
G1 X88.206 Y114.825 E1.10123
G1 X88.299 Y115.534 E1.11388
G1 X88.206 Y116.244 E1.12653
G1 X87.932 Y116.905 E1.13918
G1 X87.496 Y117.472 E1.15184
G1 X86.929 Y117.908 E1.16449
G1 X86.268 Y118.182 E1.17714
G1 X85.558 Y118.275 E1.18979
G1 X84.849 Y118.182 E1.20245
G1 X84.188 Y117.908 E1.21510
G1 X83.620 Y117.472 E1.22775
G1 X83.185 Y116.905 E1.24041
G1 X82.911 Y116.244 E1.25306
G1 X82.818 Y115.534 E1.26571
G1 X82.911 Y114.825 E1.27837
G1 X83.185 Y114.164 E1.29102
G1 X83.575 Y113.656 E1.30234
G1 X83.620 Y113.596 E1.30367
G1 X83.977 Y113.953 F7800.000
G1 X84.440 Y113.597 F300.000 E1.31399
G1 X85.031 Y113.367 E1.32521
G1 X85.558 Y113.298 E1.33462
G1 X86.137 Y113.374 E1.34494
G1 X86.677 Y113.597 E1.35527
G1 X87.140 Y113.953 E1.36559
G1 X87.495 Y114.416 E1.37591
G1 X87.719 Y114.956 E1.38624
G1 X87.795 Y115.534 E1.39656
G1 X87.719 Y116.113 E1.40689
G1 X87.495 Y116.653 E1.41721
G1 X87.140 Y117.116 E1.42754
G1 X86.677 Y117.471 E1.43786
G1 X86.137 Y117.695 E1.44819
G1 X85.558 Y117.771 E1.45851
G1 X84.979 Y117.695 E1.46884
G1 X84.440 Y117.471 E1.47916
G1 X83.977 Y117.116 E1.48949
G1 X83.653 Y116.694 E1.49889
G1 X83.398 Y116.113 E1.51011
G1 X83.322 Y115.534 E1.52043
G1 X83.398 Y114.955 E1.53076
G1 X83.621 Y114.416 E1.54108
G1 X83.931 Y114.012 E1.55008
G1 X83.977 Y113.953 E1.55141
G1 X83.869 Y113.465 F7800.000
G1 F1800.000 E0.55141
G92 E0
G1 X98.785 Y92.771 F7800.000
G1 F1800.000 E1.00000
G1 X98.217 Y92.336 F300.000 E1.01265
G1 X97.782 Y91.768 E1.02531
G1 X97.508 Y91.107 E1.03796
G1 X97.414 Y90.398 E1.05061
G1 X97.508 Y89.688 E1.06327
G1 X97.782 Y89.027 E1.07592
G1 X98.217 Y88.460 E1.08857
G1 X98.785 Y88.024 E1.10122
G1 X99.446 Y87.750 E1.11388
G1 X100.155 Y87.657 E1.12653
G1 X100.865 Y87.750 E1.13918
G1 X101.526 Y88.024 E1.15183
G1 X102.093 Y88.460 E1.16449
G1 X102.165 Y88.553 E1.16658
G1 X102.529 Y89.027 E1.17714
G1 X102.803 Y89.688 E1.18979
G1 X102.896 Y90.398 E1.20245
G1 X102.803 Y91.107 E1.21510
G1 X102.529 Y91.768 E1.22775
G1 X102.093 Y92.336 E1.24041
G1 X101.526 Y92.771 E1.25306
G1 X100.865 Y93.045 E1.26571
G1 X100.155 Y93.138 E1.27836
G1 X99.446 Y93.045 E1.29102
G1 X98.854 Y92.800 E1.30234
G1 X98.785 Y92.771 E1.30367
G1 X99.037 Y92.335 F7800.000
G1 X98.574 Y91.979 F300.000 E1.31399
G1 X98.218 Y91.516 E1.32432
G1 X97.995 Y90.977 E1.33464
G1 X97.919 Y90.398 E1.34497
G1 X97.995 Y89.819 E1.35529
G1 X98.218 Y89.279 E1.36562
G1 X98.574 Y88.816 E1.37594
G1 X99.037 Y88.461 E1.38627
G1 X99.576 Y88.237 E1.39659
G1 X100.155 Y88.161 E1.40692
G1 X100.734 Y88.237 E1.41724
G1 X101.274 Y88.461 E1.42757
G1 X101.737 Y88.816 E1.43789
G1 X101.769 Y88.858 E1.43882
G1 X102.092 Y89.279 E1.44822
G1 X102.316 Y89.819 E1.45854
G1 X102.392 Y90.398 E1.46887
G1 X102.316 Y90.977 E1.47919
G1 X102.092 Y91.516 E1.48952
G1 X101.737 Y91.979 E1.49984
G1 X101.274 Y92.335 E1.51017
G1 X100.734 Y92.558 E1.52049
G1 X100.155 Y92.634 E1.53081
G1 X99.576 Y92.558 E1.54114
G1 X99.106 Y92.363 E1.55014
G1 X99.037 Y92.335 E1.55146
G1 X98.594 Y92.565 F7800.000
G1 F1800.000 E0.55146
G92 E0
G1 X113.382 Y113.161 F7800.000
G1 F1800.000 E1.00000
G1 X114.043 Y112.887 F300.000 E1.01265
G1 X114.160 Y112.872 E1.01474
G1 X114.752 Y112.794 E1.02531
G1 X115.462 Y112.887 E1.03796
G1 X116.123 Y113.161 E1.05061
G1 X116.597 Y113.524 E1.06118
G1 X116.690 Y113.596 E1.06327
G1 X117.126 Y114.164 E1.07592
G1 X117.400 Y114.825 E1.08857
G1 X117.415 Y114.942 E1.09066
G1 X117.493 Y115.534 E1.10122
G1 X117.400 Y116.244 E1.11387
G1 X117.126 Y116.905 E1.12653
G1 X117.054 Y116.998 E1.12861
G1 X116.690 Y117.472 E1.13918
G1 X116.123 Y117.908 E1.15184
G1 X115.462 Y118.182 E1.16449
G1 X114.869 Y118.260 E1.17506
G1 X114.752 Y118.275 E1.17714
G1 X114.043 Y118.182 E1.18979
G1 X113.382 Y117.908 E1.20245
G1 X112.814 Y117.472 E1.21510
G1 X112.379 Y116.905 E1.22775
G1 X112.105 Y116.244 E1.24040
G1 X112.011 Y115.534 E1.25306
G1 X112.105 Y114.825 E1.26571
G1 X112.379 Y114.164 E1.27836
G1 X112.814 Y113.596 E1.29102
G1 X113.322 Y113.206 E1.30234
G1 X113.382 Y113.161 E1.30367
G1 X113.634 Y113.597 F7800.000
G1 X114.225 Y113.367 F300.000 E1.31489
G1 X114.752 Y113.298 E1.32429
G1 X115.331 Y113.374 E1.33462
G1 X115.871 Y113.597 E1.34494
G1 X116.292 Y113.921 E1.35434
G1 X116.689 Y114.416 E1.36556
G1 X116.919 Y115.007 E1.37678
G1 X116.989 Y115.534 E1.38618
G1 X116.913 Y116.113 E1.39650
G1 X116.657 Y116.694 E1.40772
G1 X116.334 Y117.116 E1.41713
G1 X115.871 Y117.471 E1.42745
G1 X115.331 Y117.695 E1.43778
G1 X114.804 Y117.764 E1.44718
G1 X114.173 Y117.695 E1.45840
G1 X113.634 Y117.471 E1.46872
G1 X113.171 Y117.116 E1.47905
G1 X112.815 Y116.653 E1.48937
G1 X112.592 Y116.113 E1.49970
G1 X112.516 Y115.534 E1.51002
G1 X112.592 Y114.956 E1.52034
G1 X112.815 Y114.416 E1.53067
G1 X113.171 Y113.953 E1.54099
G1 X113.574 Y113.643 E1.54999
G1 X113.634 Y113.597 E1.55132
G1 X113.663 Y113.098 F7800.000
G1 F1800.000 E0.55132
G92 E0
G1 X117.331 Y119.462 F7800.000
G1 F1800.000 E1.00000
G1 X82.979 Y119.462 F900.000 E1.60747
G1 X75.078 Y114.947 E1.76840
G1 X47.442 Y82.485 E2.52232
G1 X50.844 Y80.541 E2.59161
G1 X149.156 Y80.541 E4.33016
G1 X152.563 Y82.487 E4.39954
G1 X125.231 Y114.948 E5.14996
G1 X117.396 Y119.425 E5.30952
G1 X117.331 Y119.462 E5.31085
G1 X117.464 Y119.962 F7800.000
G1 X82.847 Y119.962 F900.000 E5.92302
G1 X74.754 Y115.338 E6.08784
G1 X46.670 Y82.350 E6.85397
G1 X50.711 Y80.041 E6.93627
G1 X149.289 Y80.041 E8.67952
G1 X153.331 Y82.350 E8.76184
G1 X125.556 Y115.338 E9.52444
G1 X117.529 Y119.925 E9.68792
G1 X117.464 Y119.962 E9.68925
G1 X117.143 Y119.579 F7800.000
G1 X117.424 Y118.962
G1 X115.301 Y118.962 F1500.000 E9.72722
G1 X115.880 Y118.457 E9.74096
G1 X118.308 Y118.457 E9.78439
G1 X119.193 Y117.951 E9.80262
G1 X116.663 Y117.951 E9.84787
G1 X117.116 Y117.445 E9.86001
G1 X120.078 Y117.445 E9.91298
G1 X120.963 Y116.940 E9.93120
G1 X117.428 Y116.940 E9.99442
G1 X117.637 Y116.434 E10.00421
G1 X121.848 Y116.434 E10.07951
G1 X122.733 Y115.928 E10.09774
G1 X117.720 Y115.928 E10.18737
G1 X117.758 Y115.423 E10.19643
G1 X123.617 Y115.423 E10.30122
G1 X124.502 Y114.917 E10.31945
G1 X117.691 Y114.917 E10.44125
G1 X117.544 Y114.412 E10.45067
G1 X125.254 Y114.412 E10.58853
G1 X125.680 Y113.906 E10.60035
G1 X117.333 Y113.906 E10.74961
G1 X116.945 Y113.400 E10.76101
G1 X126.105 Y113.400 E10.92482
G1 X126.531 Y112.895 E10.93664
G1 X116.372 Y112.895 E11.11831
G1 X115.285 Y112.389 E11.13976
G1 X126.957 Y112.389 E11.34849
G1 X127.383 Y111.883 E11.36031
G1 X72.901 Y111.883 E12.33457
G1 X73.332 Y112.389 E12.34645
G1 X85.026 Y112.389 E12.55557
G1 X86.091 Y112.389 F7800.000
G1 X114.220 Y112.389 F1500.000 E13.05859
