; generated by Slic3r 0.9.8 on 2013-06-13 at 13:29:48

; layer_height = .25
; perimeters = 1
; top_solid_layers = 4
; bottom_solid_layers = 4
; fill_density = .9
; perimeter_speed = 30
; infill_speed = 40
; travel_speed = 130
; scale = 1
; nozzle_diameter = 0.5
; filament_diameter = 3
; extrusion_multiplier = 1
; perimeters extrusion width = 0.80mm
; infill extrusion width = 0.80mm
; first layer extrusion width = 0.50mm

M107
M104 S220 ; set temperature
G28 ; home all axes
M109 S220 ; wait for temperature to be reached
G90 ; use absolute coordinates
G21 ; set units to millimeters
G92 E0
M82 ; use absolute distances for extrusion
G1 Z0.250 F7800.000
G1 X106.122 Y115.001
G1 X105.972 Y115.241 F900.000 E0.00500
G1 X105.652 Y115.681 E0.01463
G1 X105.102 Y116.301 E0.02928
G1 X104.692 Y116.681 E0.03917
G1 X104.262 Y117.021 E0.04886
G1 X104.042 Y117.181 E0.05367
G1 X103.572 Y117.461 E0.06335
G1 X103.082 Y117.711 E0.07307
G1 X102.572 Y117.931 E0.08290
G1 X101.782 Y118.171 E0.09750
G1 X100.962 Y118.311 E0.11221
G1 X100.692 Y118.341 E0.11701
G1 X100.142 Y118.361 E0.12674
G1 X91.112 Y118.361 E0.28643
G1 X90.562 Y118.341 E0.29616
G1 X89.742 Y118.231 E0.31079
G1 X89.212 Y118.101 E0.32044
G1 X88.432 Y117.831 E0.33504
G1 X87.932 Y117.601 E0.34477
G1 X87.452 Y117.331 E0.35451
G1 X86.782 Y116.861 E0.36898
G1 X86.562 Y116.681 E0.37401
G1 X86.162 Y116.311 E0.38365
G1 X85.612 Y115.691 E0.39830
G1 X85.292 Y115.251 E0.40792
G1 X85.002 Y114.781 E0.41769
G1 X84.752 Y114.291 E0.42742
G1 X84.542 Y113.781 E0.43717
G1 X84.372 Y113.261 E0.44685
G1 X84.242 Y112.731 E0.45650
G1 X84.132 Y111.911 E0.47113
G1 X84.112 Y111.361 E0.48086
G1 X84.112 Y89.861 E0.86106
G1 X84.132 Y89.291 E0.87115
G1 X84.252 Y88.451 E0.88615
G1 X84.392 Y87.901 E0.89619
G1 X84.572 Y87.361 E0.90626
G1 X84.682 Y87.091 E0.91141
G1 X85.062 Y86.331 E0.92644
G1 X85.542 Y85.621 E0.94159
G1 X85.712 Y85.401 E0.94651
G1 X86.092 Y84.981 E0.95653
G1 X86.732 Y84.401 E0.97180
G1 X87.422 Y83.911 E0.98677
G1 X103.242 Y74.971 E1.30811
G1 X103.792 Y74.721 E1.31879
G1 X104.352 Y74.521 E1.32930
G1 X105.232 Y74.311 E1.34530
G1 X105.822 Y74.241 E1.35581
G1 X106.422 Y74.211 E1.36643
G1 X108.872 Y74.211 E1.40976
G1 X109.422 Y74.231 E1.41949
G1 X110.242 Y74.341 E1.43412
G1 X110.502 Y74.401 E1.43884
G1 X111.032 Y74.551 E1.44858
G1 X111.552 Y74.741 E1.45837
G1 X112.052 Y74.971 E1.46810
G1 X112.532 Y75.241 E1.47784
G1 X113.202 Y75.711 E1.49232
G1 X113.422 Y75.891 E1.49734
G1 X113.822 Y76.261 E1.50698
G1 X114.372 Y76.881 E1.52163
G1 X114.842 Y77.551 E1.53611
G1 X115.112 Y78.031 E1.54585
G1 X115.342 Y78.531 E1.55558
G1 X115.532 Y79.051 E1.56537
G1 X115.682 Y79.581 E1.57511
G1 X115.742 Y79.841 E1.57983
G1 X115.852 Y80.661 E1.59446
G1 X115.872 Y81.211 E1.60419
G1 X115.872 Y95.691 E1.86025
G1 X115.812 Y96.581 E1.87603
G1 X115.772 Y96.871 E1.88121
G1 X115.652 Y97.451 E1.89168
G1 X115.372 Y98.291 E1.90734
G1 X114.992 Y99.101 E1.92316
G1 X106.161 Y114.937 E2.24380
G1 X106.122 Y115.001 E2.24513
G1 X105.822 Y114.521 F7800.000
G1 X105.542 Y114.981 F900.000 E2.25465
G1 X105.232 Y115.411 E2.26402
G1 X104.882 Y115.811 E2.27342
G1 X104.302 Y116.351 E2.28744
G1 X103.882 Y116.681 E2.29688
G1 X103.662 Y116.821 E2.30149
G1 X102.962 Y117.211 E2.31566
G1 X102.482 Y117.431 E2.32500
G1 X102.232 Y117.521 E2.32970
G1 X101.722 Y117.671 E2.33910
G1 X101.202 Y117.771 E2.34847
G1 X100.672 Y117.841 E2.35792
G1 X100.412 Y117.851 E2.36252
G1 X91.112 Y117.861 E2.52698
G1 X90.592 Y117.841 E2.53618
G1 X90.072 Y117.781 E2.54544
G1 X89.552 Y117.671 E2.55484
G1 X89.052 Y117.531 E2.56402
G1 X88.562 Y117.341 E2.57331
G1 X88.092 Y117.121 E2.58249
G1 X87.862 Y116.991 E2.58716
G1 X87.212 Y116.561 E2.60095
G1 X86.802 Y116.231 E2.61025
G1 X86.242 Y115.671 E2.62426
G1 X85.912 Y115.261 E2.63356
G1 X85.762 Y115.051 E2.63813
G1 X85.352 Y114.381 E2.65202
G1 X85.132 Y113.911 E2.66120
G1 X84.942 Y113.421 E2.67049
G1 X84.802 Y112.921 E2.67967
G1 X84.692 Y112.401 E2.68907
G1 X84.632 Y111.881 E2.69833
G1 X84.612 Y111.361 E2.70753
G1 X84.612 Y89.861 E3.08773
G1 X84.632 Y89.311 E3.09747
G1 X84.662 Y89.041 E3.10227
G1 X84.752 Y88.501 E3.11195
G1 X84.822 Y88.231 E3.11688
G1 X84.892 Y87.971 E3.12164
G1 X85.072 Y87.451 E3.13138
G1 X85.182 Y87.191 E3.13637
G1 X85.432 Y86.701 E3.14610
G1 X85.712 Y86.231 E3.15577
G1 X85.872 Y86.011 E3.16058
G1 X86.402 Y85.381 E3.17514
G1 X87.012 Y84.821 E3.18978
G1 X87.222 Y84.651 E3.19456
G1 X87.682 Y84.341 E3.20437
G1 X103.222 Y75.551 E3.52009
G1 X103.972 Y75.191 E3.53481
G1 X104.502 Y75.001 E3.54476
G1 X105.042 Y74.861 E3.55463
G1 X105.592 Y74.761 E3.56451
G1 X105.862 Y74.731 E3.56932
G1 X106.422 Y74.711 E3.57923
G1 X108.872 Y74.711 E3.62255
G1 X109.392 Y74.731 E3.63175
G1 X109.912 Y74.791 E3.64101
G1 X110.432 Y74.901 E3.65041
G1 X110.932 Y75.041 E3.65959
G1 X111.422 Y75.231 E3.66889
G1 X111.892 Y75.451 E3.67806
G1 X112.562 Y75.861 E3.69195
G1 X113.182 Y76.341 E3.70582
G1 X113.372 Y76.521 E3.71045
G1 X113.742 Y76.901 E3.71983
G1 X114.072 Y77.311 E3.72913
G1 X114.222 Y77.521 E3.73370
G1 X114.632 Y78.191 E3.74759
G1 X114.952 Y78.911 E3.76152
G1 X115.042 Y79.151 E3.76605
G1 X115.242 Y79.911 E3.77995
G1 X115.292 Y80.171 E3.78463
G1 X115.352 Y80.691 E3.79389
G1 X115.372 Y81.211 E3.80309
G1 X115.372 Y95.691 E4.05915
G1 X115.312 Y96.591 E4.07511
G1 X115.202 Y97.181 E4.08572
G1 X114.932 Y98.041 E4.10166
G1 X114.822 Y98.321 E4.10698
G1 X114.552 Y98.851 E4.11750
G1 X105.858 Y114.456 E4.43338
G1 X105.822 Y114.521 E4.43471
G1 X99.647 Y110.870 F7800.000
G1 X91.622 Y110.870 F900.000 E4.57662
G1 X91.622 Y90.369 E4.93916
G1 X103.482 Y90.369 E5.14890
G1 X106.454 Y84.619 E5.26335
G1 X106.923 Y82.799 E5.29659
G1 X106.923 Y81.721 E5.31565
G1 X108.378 Y81.721 E5.34139
G1 X108.378 Y95.196 E5.57967
G1 X99.647 Y95.196 E5.73407
G1 X99.647 Y110.795 E6.00993
G1 X99.647 Y110.870 E6.01126
G1 X100.147 Y111.370 F7800.000
G1 X91.122 Y111.370 F900.000 E6.17086
G1 X91.122 Y89.869 E6.55108
G1 X103.178 Y89.869 E6.76427
G1 X105.983 Y84.440 E6.87234
G1 X106.423 Y82.735 E6.90347
G1 X106.423 Y81.221 E6.93025
G1 X108.878 Y81.221 E6.97367
G1 X108.878 Y95.696 E7.22964
G1 X100.147 Y95.696 E7.38404
G1 X100.147 Y111.295 E7.65990
G1 X100.147 Y111.370 E7.66123
G1 X99.714 Y111.120 F7800.000
G1 X99.372 Y110.370
G1 X91.897 Y110.370 F1500.000 E7.79344
G1 X91.897 Y109.870 E7.80229
G1 X99.372 Y109.870 E7.93450
G1 X99.372 Y109.370 E7.94335
G1 X91.897 Y109.370 E8.07556
G1 X91.897 Y108.870 E8.08441
G1 X99.372 Y108.870 E8.21662
G1 X99.372 Y108.370 E8.22546
G1 X91.897 Y108.370 E8.35768
G1 X91.897 Y107.870 E8.36652
G1 X99.372 Y107.870 E8.49874
G1 X99.372 Y107.370 E8.50758
G1 X91.897 Y107.370 E8.63980
G1 X91.897 Y106.870 E8.64864
G1 X99.372 Y106.870 E8.78086
G1 X99.372 Y106.370 E8.78970
G1 X91.897 Y106.370 E8.92192
G1 X91.897 Y105.869 E8.93076
G1 X99.372 Y105.869 E9.06298
G1 X99.372 Y105.369 E9.07182
G1 X91.897 Y105.369 E9.20404
G1 X91.897 Y104.869 E9.21288
G1 X99.372 Y104.869 E9.34510
G1 X99.372 Y104.369 E9.35394
G1 X91.897 Y104.369 E9.48616
G1 X91.897 Y103.869 E9.49500
G1 X99.372 Y103.869 E9.62722
G1 X99.372 Y103.369 E9.63606
G1 X91.897 Y103.369 E9.76828
G1 X91.897 Y102.869 E9.77712
G1 X99.372 Y102.869 E9.90934
G1 X99.372 Y102.369 E9.91818
G1 X91.897 Y102.369 E10.05040
G1 X91.897 Y101.869 E10.05924
G1 X99.372 Y101.869 E10.19146
G1 X99.372 Y101.369 E10.20030
G1 X91.897 Y101.369 E10.33252
G1 X91.897 Y100.868 E10.34136
G1 X99.372 Y100.868 E10.47358
G1 X99.372 Y100.368 E10.48242
G1 X91.897 Y100.368 E10.61464
G1 X91.897 Y99.868 E10.62348
G1 X99.372 Y99.868 E10.75570
G1 X99.372 Y99.368 E10.76454
G1 X91.897 Y99.368 E10.89675
G1 X91.897 Y98.868 E10.90560
G1 X99.372 Y98.868 E11.03781
G1 X99.372 Y98.368 E11.04666
G1 X91.897 Y98.368 E11.17887
G1 X91.897 Y97.868 E11.18772
G1 X99.372 Y97.868 E11.31993
G1 X99.372 Y97.368 E11.32878
G1 X91.897 Y97.368 E11.46099
G1 X91.897 Y96.868 E11.46984
G1 X99.372 Y96.868 E11.60205
G1 X99.372 Y96.368 E11.61090
G1 X91.897 Y96.368 E11.74311
G1 X91.897 Y95.868 E11.75196
G1 X99.372 Y95.868 E11.88417
G1 X99.372 Y95.367 E11.89302
G1 X91.897 Y95.367 E12.02523
G1 X91.897 Y94.867 E12.03408
G1 X99.372 Y94.867 E12.16629
G1 X103.563 Y90.867 F7800.000
G1 X108.103 Y90.867 F1500.000 E12.24660
G1 X108.103 Y91.367 E12.25545
G1 X91.897 Y91.367 E12.54209
G1 X91.897 Y91.867 E12.55094
G1 X108.103 Y91.867 E12.83758
G1 X108.103 Y92.367 E12.84643
G1 X91.897 Y92.367 E13.13307
G1 X91.897 Y92.867 E13.14192
G1 X108.103 Y92.867 E13.42856
G1 X108.103 Y93.367 E13.43741
G1 X91.897 Y93.367 E13.72405
G1 X91.897 Y93.867 E13.73289
G1 X108.103 Y93.867 E14.01954
G1 X108.103 Y94.367 E14.02838
G1 X91.897 Y94.367 E14.31503
G1 X103.821 Y90.366 F7800.000
G1 X108.103 Y90.366 F1500.000 E14.39077
G1 X108.103 Y89.866 E14.39961
G1 X104.079 Y89.866 E14.47078
G1 X104.338 Y89.366 E14.48074
G1 X108.103 Y89.366 E14.54733
G1 X108.103 Y88.866 E14.55618
G1 X104.596 Y88.866 E14.61820
G1 X104.855 Y88.366 E14.62816
G1 X108.103 Y88.366 E14.68561
G1 X108.103 Y87.866 E14.69446
G1 X105.113 Y87.866 E14.74734
G1 X105.372 Y87.366 E14.75730
G1 X108.103 Y87.366 E14.80561
G1 X108.103 Y86.866 E14.81445
G1 X105.630 Y86.866 E14.85819
G1 X105.889 Y86.366 E14.86815
G1 X108.103 Y86.366 E14.90732
G1 X108.103 Y85.866 E14.91616
G1 X106.147 Y85.866 E14.95076
G1 X106.406 Y85.365 E14.96071
G1 X108.103 Y85.365 E14.99074
G1 X108.103 Y84.865 E14.99958
G1 X106.664 Y84.865 E15.02503
G1 X106.810 Y84.365 E15.03425
G1 X108.103 Y84.365 E15.05712
G1 X108.103 Y83.865 E15.06596
G1 X106.939 Y83.865 E15.08655
G1 X107.068 Y83.365 E15.09568
G1 X108.103 Y83.365 E15.11399
G1 X108.103 Y82.865 E15.12283
G1 X107.197 Y82.865 E15.13886
G1 X107.326 Y82.365 E15.14800
G1 X107.777 Y82.365 E15.15597
M106 S255
G1 Z0.500 F7800.000
G1 X106.573 Y82.754
G1 X106.573 Y81.371 F1180.843 E15.19248
G1 X108.728 Y81.371 E15.24938
G1 X108.728 Y95.546 E15.62354
G1 X99.997 Y95.546 E15.85402
G1 X99.997 Y112.442 E16.30003
G1 X91.272 Y112.442 E16.53034
G1 X91.272 Y90.019 E17.12224
G1 X103.269 Y90.019 E17.43892
G1 X106.124 Y84.494 E17.60310
G1 X106.545 Y82.863 E17.64756
G1 X106.573 Y82.754 E17.65051
G1 X107.982 Y81.899 F7800.000
G1 X107.982 Y95.136 F1968.072 E18.00639
G1 X107.222 Y95.136 E18.02683
G1 X107.222 Y82.891 E18.35603
G1 X106.461 Y85.131 E18.41963
G1 X106.461 Y95.136 E18.68860
G1 X105.701 Y95.136 E18.70904
G1 X105.701 Y86.602 E18.93846
G1 X104.941 Y88.073 E18.98298
G1 X104.941 Y95.136 E19.17286
G1 X104.181 Y95.136 E19.19330
G1 X104.181 Y89.544 E19.34364
G1 X103.421 Y90.429 F7800.000
G1 X103.421 Y95.136 F1968.072 E19.47017
G1 X102.661 Y95.136 E19.49061
G1 X102.661 Y90.429 E19.61714
G1 X101.900 Y90.429 E19.63757
G1 X101.900 Y95.136 E19.76410
G1 X101.140 Y95.136 E19.78454
G1 X101.140 Y90.429 E19.91107
G1 X100.380 Y90.429 E19.93151
G1 X100.380 Y95.136 E20.05804
G1 X99.620 Y95.136 E20.07847
G1 X99.620 Y90.429 E20.20500
G1 X98.860 Y90.429 E20.22544
G1 X98.860 Y108.333 E20.70679
G1 X98.100 Y108.333 E20.72723
G1 X98.100 Y90.429 E21.20858
G1 X97.339 Y90.429 E21.22902
G1 X97.339 Y108.333 E21.71037
G1 X96.579 Y108.333 E21.73081
G1 X96.579 Y90.429 E22.21216
G1 X95.819 Y90.429 E22.23260
G1 X95.819 Y108.333 E22.71395
G1 X95.059 Y108.333 E22.73439
G1 X95.059 Y90.429 E23.21574
G1 X94.299 Y90.429 E23.23618
G1 X94.299 Y108.333 E23.71753
G1 X93.539 Y108.333 E23.73797
G1 X93.539 Y90.429 E24.21932
G1 X92.778 Y90.429 E24.23976
G1 X92.778 Y108.333 E24.72111
G1 X92.018 Y108.333 E24.74155
G1 X92.018 Y90.429 E25.22290
G1 X99.427 Y108.947 F7800.000
M106 S255
G1 X91.842 Y108.947 F3600.000 E25.43361
G1 X91.842 Y109.340 E25.44452
G1 X99.427 Y109.340 E25.65523
G1 X99.427 Y109.732 E25.66614
G1 X91.842 Y109.732 E25.87686
G1 X91.842 Y110.125 E25.88777
G1 X99.427 Y110.125 E26.09848
G1 X99.427 Y110.518 E26.10939
G1 X91.842 Y110.518 E26.32010
G1 X91.842 Y110.911 E26.33101
G1 X99.427 Y110.911 E26.54173
G1 X99.427 Y111.303 E26.55264
G1 X91.842 Y111.303 E26.76335
G1 X91.842 Y111.696 E26.77426
G1 X99.427 Y111.696 E26.98497
G1 Z0.750 F7800.000
M106 S255
G1 X99.997 Y113.046
G1 X91.272 Y113.046 F1185.869 E27.21529
G1 X91.272 Y90.019 E27.82312
G1 X103.269 Y90.019 E28.13980
G1 X106.124 Y84.494 E28.30397
G1 X106.573 Y82.754 E28.35139
G1 X106.573 Y81.371 E28.38790
G1 X108.728 Y81.371 E28.44480
G1 X108.728 Y95.546 E28.81896
G1 X99.997 Y95.546 E29.04944
G1 X99.997 Y112.934 E29.50842
G1 X99.997 Y113.046 E29.51138
G1 X99.586 Y112.300 F7800.000
G1 X91.682 Y112.300 F1976.449 E29.72193
G1 X91.682 Y111.546 E29.74199
G1 X99.586 Y111.546 E29.95254
G1 X99.586 Y110.793 E29.97260
G1 X91.682 Y110.793 E30.18315
G1 X91.682 Y110.040 E30.20321
G1 X99.586 Y110.040 E30.41376
G1 X99.586 Y109.287 E30.43383
G1 X91.682 Y109.287 E30.64438
G1 X91.682 Y108.534 E30.66444
G1 X99.586 Y108.534 E30.87499
G1 X99.586 Y107.781 E30.89505
G1 X91.682 Y107.781 E31.10560
G1 X91.682 Y107.027 E31.12566
G1 X99.586 Y107.027 E31.33621
G1 X99.586 Y106.274 E31.35627
G1 X91.682 Y106.274 E31.56682
G1 X91.682 Y105.521 E31.58689
G1 X99.586 Y105.521 E31.79743
G1 X99.586 Y104.768 E31.81750
G1 X91.682 Y104.768 E32.02805
G1 X91.682 Y104.015 E32.04811
G1 X99.586 Y104.015 E32.25866
G1 X99.586 Y103.262 E32.27872
G1 X91.682 Y103.262 E32.48927
G1 X91.682 Y102.508 E32.50933
G1 X99.586 Y102.508 E32.71988
G1 X99.586 Y101.755 E32.73994
G1 X91.682 Y101.755 E32.95049
G1 X91.682 Y101.002 E32.97056
G1 X99.586 Y101.002 E33.18110
G1 X99.586 Y100.249 E33.20117
G1 X91.682 Y100.249 E33.41172
G1 X91.682 Y99.496 E33.43178
G1 X99.586 Y99.496 E33.64233
G1 X99.586 Y98.743 E33.66239
G1 X91.682 Y98.743 E33.87294
G1 X91.682 Y97.989 E33.89300
G1 X99.586 Y97.989 E34.10355
G1 X99.586 Y97.236 E34.12362
G1 X91.682 Y97.236 E34.33417
G1 X91.682 Y96.483 E34.35423
G1 X99.586 Y96.483 E34.56478
G1 X99.586 Y95.730 E34.58484
G1 X91.682 Y95.730 E34.79539
G1 X91.682 Y94.977 E34.81545
G1 X99.586 Y94.977 E35.02600
G1 X103.546 Y90.458 F7800.000
G1 X108.318 Y90.458 F1976.449 E35.15310
G1 X108.318 Y89.705 E35.17316
G1 X103.936 Y89.705 E35.28989
G1 X104.325 Y88.951 E35.31248
G1 X108.318 Y88.951 E35.41884
G1 X108.318 Y88.198 E35.43890
G1 X104.714 Y88.198 E35.53490
G1 X105.103 Y87.445 E35.55748
G1 X108.318 Y87.445 E35.64310
G1 X108.318 Y86.692 E35.66316
G1 X105.493 Y86.692 E35.73842
G1 X105.882 Y85.939 E35.76100
G1 X108.318 Y85.939 E35.82589
G1 X108.318 Y85.185 E35.84595
G1 X106.271 Y85.185 E35.90047
G1 X106.575 Y84.432 E35.92210
G1 X108.318 Y84.432 E35.96852
G1 X108.318 Y83.679 E35.98858
G1 X106.769 Y83.679 E36.02983
G1 X106.963 Y82.926 E36.05055
G1 X108.318 Y82.926 E36.08663
G1 X107.830 Y82.173 E36.11053
G1 X107.157 Y82.173 E36.12844
G1 X108.318 Y91.211 F7800.000
G1 X91.682 Y91.211 F1976.449 E36.57157
G1 X91.682 Y91.964 E36.59164
G1 X108.318 Y91.964 E37.03477
G1 X108.318 Y92.717 E37.05483
G1 X91.682 Y92.717 E37.49796
G1 X91.682 Y93.470 E37.51802
G1 X108.318 Y93.470 E37.96115
G1 X108.318 Y94.224 E37.98121
G1 X91.682 Y94.224 E38.42434
G1 Z1.000 F7800.000
G1 X91.272 Y90.019
G1 X103.269 Y90.019 F1181.374 E38.74102
G1 X106.124 Y84.494 E38.90520
G1 X106.573 Y82.754 E38.95261
G1 X106.573 Y81.371 E38.98913
G1 X108.728 Y81.371 E39.04602
G1 X108.728 Y95.546 E39.42019
G1 X99.997 Y95.546 E39.65066
G1 X99.997 Y113.649 E40.12853
G1 X91.272 Y113.649 E40.35884
G1 X91.272 Y90.131 E40.97966
G1 X91.272 Y90.019 E40.98261
G1 X92.018 Y90.429 F7800.000
G1 X92.018 Y113.239 F1968.957 E41.59586
G1 X92.778 Y113.239 E41.61630
G1 X92.778 Y90.429 E42.22955
G1 X93.539 Y90.429 E42.24999
G1 X93.539 Y113.239 E42.86324
G1 X94.299 Y113.239 E42.88367
G1 X94.299 Y90.429 E43.49692
G1 X95.059 Y90.429 E43.51736
G1 X95.059 Y113.239 E44.13061
G1 X95.819 Y113.239 E44.15105
G1 X95.819 Y90.429 E44.76430
G1 X96.579 Y90.429 E44.78474
G1 X96.579 Y113.239 E45.39799
G1 X97.339 Y113.239 E45.41842
G1 X97.339 Y90.429 E46.03167
