; generated by Slic3r 0.9.8 on 2013-06-12 at 11:03:20

; layer_height = .25
; perimeters = 1
; top_solid_layers = 4
; bottom_solid_layers = 4
; fill_density = .9
; perimeter_speed = 30
; infill_speed = 40
; travel_speed = 130
; scale = 1
; nozzle_diameter = 0.5
; filament_diameter = 3
; extrusion_multiplier = 1
; perimeters extrusion width = 0.80mm
; infill extrusion width = 0.80mm
; first layer extrusion width = 0.50mm

M107
M104 S220 ; set temperature
G28 ; home all axes
M109 S220 ; wait for temperature to be reached
G90 ; use absolute coordinates
G21 ; set units to millimeters
G92 E0
M82 ; use absolute distances for extrusion
G1 Z0.250 F7800.000
G1 X130.966 Y125.325
G1 X130.416 Y125.345 F900.000 E0.00973
G1 X69.566 Y125.345 E1.08580
G1 X69.016 Y125.325 E1.09553
G1 X68.196 Y125.215 E1.11016
G1 X67.666 Y125.085 E1.11981
G1 X67.146 Y124.915 E1.12948
G1 X66.636 Y124.705 E1.13924
G1 X66.146 Y124.455 E1.14897
G1 X65.676 Y124.165 E1.15873
G1 X65.236 Y123.845 E1.16835
G1 X64.616 Y123.295 E1.18301
G1 X64.246 Y122.895 E1.19265
G1 X63.746 Y122.235 E1.20729
G1 X63.326 Y121.525 E1.22188
G1 X63.096 Y121.025 E1.23161
G1 X62.826 Y120.245 E1.24620
G1 X62.696 Y119.715 E1.25585
G1 X62.586 Y118.895 E1.27049
G1 X62.566 Y118.345 E1.28022
G1 X62.566 Y81.645 E1.92922
G1 X62.586 Y81.095 E1.93895
G1 X62.696 Y80.275 E1.95358
G1 X62.826 Y79.745 E1.96323
G1 X62.996 Y79.225 E1.97290
G1 X63.206 Y78.715 E1.98266
G1 X63.456 Y78.225 E1.99239
G1 X63.746 Y77.755 E2.00215
G1 X64.246 Y77.095 E2.01679
G1 X64.616 Y76.695 E2.02643
G1 X65.016 Y76.325 E2.03607
G1 X65.676 Y75.825 E2.05071
G1 X66.146 Y75.535 E2.06047
G1 X66.636 Y75.285 E2.07020
G1 X67.146 Y75.075 E2.07996
G1 X67.666 Y74.905 E2.08963
G1 X68.196 Y74.775 E2.09928
G1 X69.016 Y74.665 E2.11391
G1 X69.566 Y74.645 E2.12364
G1 X130.416 Y74.645 E3.19971
G1 X130.966 Y74.665 E3.20944
G1 X131.786 Y74.775 E3.22407
G1 X132.316 Y74.905 E3.23372
G1 X132.836 Y75.075 E3.24340
G1 X133.346 Y75.285 E3.25315
G1 X133.836 Y75.535 E3.26288
G1 X134.306 Y75.825 E3.27264
G1 X134.746 Y76.145 E3.28226
G1 X135.366 Y76.695 E3.29692
G1 X135.736 Y77.095 E3.30656
G1 X136.236 Y77.755 E3.32120
G1 X136.656 Y78.465 E3.33579
G1 X136.886 Y78.965 E3.34552
G1 X137.156 Y79.745 E3.36012
G1 X137.286 Y80.275 E3.36977
G1 X137.396 Y81.095 E3.38440
G1 X137.416 Y81.645 E3.39413
G1 X137.416 Y118.345 E4.04313
G1 X137.396 Y118.895 E4.05286
G1 X137.286 Y119.715 E4.06749
G1 X137.156 Y120.245 E4.07714
G1 X136.986 Y120.765 E4.08682
G1 X136.776 Y121.275 E4.09657
G1 X136.526 Y121.765 E4.10630
G1 X136.236 Y122.235 E4.11606
G1 X135.736 Y122.895 E4.13071
G1 X135.366 Y123.295 E4.14034
G1 X134.966 Y123.665 E4.14998
G1 X134.306 Y124.165 E4.16462
G1 X133.836 Y124.455 E4.17439
G1 X133.346 Y124.705 E4.18411
G1 X132.836 Y124.915 E4.19387
G1 X132.316 Y125.085 E4.20354
G1 X131.786 Y125.215 E4.21319
G1 X131.041 Y125.317 E4.22650
G1 X130.966 Y125.325 E4.22782
G1 X130.936 Y124.825 F7800.000
G1 X130.416 Y124.845 F900.000 E4.23703
G1 X69.566 Y124.845 E5.31309
G1 X69.046 Y124.825 E5.32229
G1 X68.526 Y124.765 E5.33155
G1 X68.006 Y124.655 E5.34095
G1 X67.506 Y124.515 E5.35013
G1 X67.016 Y124.325 E5.35942
G1 X66.546 Y124.105 E5.36860
G1 X66.316 Y123.975 E5.37327
G1 X65.666 Y123.545 E5.38705
G1 X65.256 Y123.215 E5.39636
G1 X64.696 Y122.655 E5.41037
G1 X64.216 Y122.035 E5.42423
G1 X63.806 Y121.365 E5.43812
G1 X63.586 Y120.895 E5.44730
G1 X63.396 Y120.405 E5.45659
G1 X63.196 Y119.645 E5.47049
G1 X63.146 Y119.385 E5.47517
G1 X63.086 Y118.865 E5.48443
G1 X63.066 Y118.345 E5.49363
G1 X63.066 Y81.645 E6.14263
G1 X63.086 Y81.125 E6.15183
G1 X63.146 Y80.605 E6.16109
G1 X63.256 Y80.085 E6.17049
G1 X63.396 Y79.585 E6.17967
G1 X63.586 Y79.095 E6.18896
G1 X63.806 Y78.625 E6.19814
G1 X64.216 Y77.955 E6.21203
G1 X64.696 Y77.335 E6.22590
G1 X64.876 Y77.145 E6.23053
G1 X65.256 Y76.775 E6.23991
G1 X65.666 Y76.445 E6.24921
G1 X66.316 Y76.015 E6.26299
G1 X66.776 Y75.775 E6.27217
G1 X67.506 Y75.475 E6.28613
G1 X68.006 Y75.335 E6.29531
G1 X68.526 Y75.225 E6.30471
G1 X69.046 Y75.165 E6.31396
G1 X69.566 Y75.145 E6.32317
G1 X130.416 Y75.145 E7.39923
G1 X130.936 Y75.165 E7.40843
G1 X131.456 Y75.225 E7.41769
G1 X131.976 Y75.335 E7.42709
G1 X132.476 Y75.475 E7.43627
G1 X132.966 Y75.665 E7.44556
G1 X133.436 Y75.885 E7.45474
G1 X133.666 Y76.015 E7.45941
G1 X134.316 Y76.445 E7.47320
G1 X134.726 Y76.775 E7.48250
G1 X135.286 Y77.335 E7.49651
G1 X135.766 Y77.955 E7.51037
G1 X136.176 Y78.625 E7.52426
G1 X136.396 Y79.095 E7.53344
G1 X136.586 Y79.585 E7.54273
G1 X136.786 Y80.345 E7.55663
G1 X136.836 Y80.605 E7.56131
G1 X136.896 Y81.125 E7.57057
G1 X136.916 Y81.645 E7.57977
G1 X136.916 Y118.345 E8.22877
G1 X136.896 Y118.865 E8.23797
G1 X136.836 Y119.385 E8.24723
G1 X136.726 Y119.905 E8.25663
G1 X136.586 Y120.405 E8.26581
G1 X136.396 Y120.895 E8.27511
G1 X136.176 Y121.365 E8.28428
G1 X135.766 Y122.035 E8.29817
G1 X135.286 Y122.655 E8.31204
G1 X135.106 Y122.845 E8.31667
G1 X134.726 Y123.215 E8.32605
G1 X134.316 Y123.545 E8.33535
G1 X134.106 Y123.695 E8.33992
G1 X133.436 Y124.105 E8.35381
G1 X132.966 Y124.325 E8.36298
G1 X132.476 Y124.515 E8.37228
G1 X131.716 Y124.715 E8.38618
G1 X131.456 Y124.765 E8.39086
G1 X131.010 Y124.816 E8.39879
G1 X130.936 Y124.825 E8.40011
G1 X104.401 Y110.799 F7800.000
G1 X95.597 Y110.799 F900.000 E8.55580
G1 X91.196 Y103.175 E8.71148
G1 X91.447 Y102.740 E8.72036
G1 X95.597 Y95.551 E8.86715
G1 X104.401 Y95.551 E9.02284
G1 X108.802 Y103.175 E9.17851
G1 X104.439 Y110.734 E9.33286
G1 X104.401 Y110.799 E9.33418
G1 X104.112 Y110.299 F7800.000
G1 X95.886 Y110.299 F900.000 E9.47966
G1 X91.773 Y103.175 E9.62513
G1 X91.880 Y102.990 E9.62891
G1 X95.886 Y96.051 E9.77059
G1 X104.112 Y96.051 E9.91607
G1 X108.225 Y103.175 E10.06153
G1 X104.150 Y110.234 E10.20567
G1 X104.112 Y110.299 E10.20699
G1 X104.025 Y110.791 F7800.000
G1 X121.996 Y116.169
G1 X129.354 Y116.169 F900.000 E10.33710
G1 X129.354 Y114.705 E10.36299
G1 X129.354 Y83.831 E10.90897
G1 X121.996 Y83.831 E11.03908
G1 X121.996 Y82.155 E11.06872
G1 X129.922 Y82.155 E11.20888
G1 X129.922 Y117.845 E11.84002
G1 X121.996 Y117.845 E11.98018
G1 X121.996 Y116.244 E12.00849
G1 X121.996 Y116.169 E12.00982
G1 X78.004 Y116.169 F7800.000
G1 X78.004 Y117.845 F900.000 E12.03945
G1 X70.076 Y117.845 E12.17965
G1 X70.076 Y82.155 E12.81079
G1 X78.004 Y82.155 E12.95099
G1 X78.004 Y83.831 E12.98063
G1 X70.644 Y83.831 E13.11077
G1 X70.644 Y116.169 E13.68263
G1 X77.929 Y116.169 E13.81145
G1 X78.004 Y116.169 E13.81278
G1 X79.504 Y116.641 F7800.000
G1 X79.504 Y113.465 F900.000 E13.86895
G1 X72.708 Y113.477 E13.98912
G1 X72.708 Y86.155 E14.47229
G1 X78.004 Y86.155 E14.56594
G1 X78.004 Y89.331 E14.62210
G1 X121.996 Y89.331 E15.40005
G1 X121.996 Y86.155 E15.45622
G1 X127.290 Y86.155 E15.54983
G1 X127.290 Y113.478 E16.03300
G1 X120.496 Y113.464 E16.15314
G1 X120.496 Y116.641 E16.20932
G1 X79.579 Y116.641 E16.93289
G1 X79.504 Y116.641 E16.93422
G1 X79.004 Y115.669 F7800.000
G1 X79.004 Y113.965 F900.000 E16.96435
G1 X72.208 Y113.979 E17.08453
G1 X72.208 Y85.655 E17.58540
G1 X78.504 Y85.655 E17.69673
G1 X78.504 Y88.831 E17.75289
G1 X121.496 Y88.831 E18.51316
G1 X121.496 Y85.655 E18.56932
G1 X127.790 Y85.655 E18.68062
G1 X127.790 Y113.979 E19.18149
G1 X120.996 Y113.965 E19.30163
G1 X120.996 Y115.669 E19.33177
G1 X128.854 Y115.669 E19.47072
G1 X128.854 Y84.331 E20.02490
G1 X121.496 Y84.331 E20.15501
G1 X121.496 Y81.655 E20.20233
G1 X130.422 Y81.655 E20.36018
G1 X130.422 Y118.345 E21.00900
G1 X121.496 Y118.345 E21.16685
G1 X121.496 Y117.141 E21.18814
G1 X78.504 Y117.141 E21.94840
G1 X78.504 Y118.345 E21.96969
G1 X69.576 Y118.345 E22.12758
G1 X69.576 Y81.655 E22.77640
G1 X78.504 Y81.655 E22.93428
G1 X78.504 Y84.331 E22.98160
G1 X71.144 Y84.331 E23.11175
G1 X71.144 Y115.669 E23.66593
G1 X78.929 Y115.669 E23.80359
G1 X79.004 Y115.669 E23.80491
G1 X79.504 Y115.669 F7800.000
G1 X129.647 Y116.669
G1 X122.271 Y116.669 F1500.000 E23.98126
G1 X122.271 Y117.345 E23.99742
G1 X129.647 Y117.345 E24.17377
G1 X121.684 Y116.516 F7800.000
G1 X120.808 Y116.516 F600.000 E24.19536
G1 X120.221 Y116.141 F7800.000
G1 X79.779 Y116.141 F1500.000 E24.92253
G1 X79.779 Y115.633 E24.93167
G1 X120.221 Y115.633 E25.65883
G1 X120.221 Y115.124 E25.66797
G1 X79.779 Y115.124 E26.39513
G1 X79.779 Y114.616 E26.40427
G1 X120.221 Y114.616 E27.13143
G1 X120.221 Y114.108 E27.14057
G1 X79.779 Y114.108 E27.86774
G1 X79.779 Y113.599 E27.87688
G1 X120.221 Y113.599 E28.60404
G1 X120.221 Y113.091 E28.61318
G1 X79.779 Y113.091 E29.34034
G1 X72.983 Y112.582 F7800.000
G1 X127.015 Y112.582 F1500.000 E30.31184
G1 X127.015 Y112.074 E30.32098
G1 X72.983 Y112.074 E31.29247
G1 X72.983 Y111.566 E31.30161
G1 X127.015 Y111.566 E32.27311
G1 X127.015 Y111.057 E32.28225
G1 X104.604 Y111.057 E32.68519
G1 X104.898 Y110.549 E32.69575
G1 X127.015 Y110.549 E33.09342
G1 X127.015 Y110.040 E33.10256
G1 X105.191 Y110.040 E33.49495
G1 X105.485 Y109.532 E33.50551
G1 X127.015 Y109.532 E33.89262
G1 X127.015 Y109.024 E33.90176
G1 X105.778 Y109.024 E34.28360
G1 X106.071 Y108.515 E34.29415
G1 X127.015 Y108.515 E34.67072
G1 X127.015 Y108.007 E34.67986
G1 X106.365 Y108.007 E35.05114
G1 X106.658 Y107.499 E35.06170
G1 X127.015 Y107.499 E35.42770
G1 X127.015 Y106.990 E35.43685
G1 X106.952 Y106.990 E35.79758
G1 X107.245 Y106.482 E35.80813
G1 X127.015 Y106.482 E36.16359
G1 X127.015 Y105.973 E36.17273
G1 X107.539 Y105.973 E36.52291
G1 X107.832 Y105.465 E36.53346
G1 X127.015 Y105.465 E36.87837
G1 X127.015 Y104.957 E36.88751
G1 X108.126 Y104.957 E37.22713
G1 X108.419 Y104.448 E37.23769
G1 X127.015 Y104.448 E37.57204
G1 X127.015 Y103.940 E37.58118
G1 X108.713 Y103.940 E37.91025
G1 X109.006 Y103.432 E37.92081
G1 X127.015 Y103.432 E38.24460
G1 X127.015 Y102.923 E38.25374
G1 X109.009 Y102.923 E38.57749
G1 X108.715 Y102.415 E38.58805
G1 X127.015 Y102.415 E38.91707
G1 X127.015 Y101.906 E38.92621
G1 X108.422 Y101.906 E39.26051
G1 X108.128 Y101.398 E39.27107
G1 X127.015 Y101.398 E39.61065
G1 X127.015 Y100.890 E39.61979
G1 X107.835 Y100.890 E39.96464
G1 X107.541 Y100.381 E39.97520
G1 X127.015 Y100.381 E40.32533
G1 X127.015 Y99.873 E40.33447
G1 X107.248 Y99.873 E40.68988
G1 X106.955 Y99.364 E40.70043
G1 X127.015 Y99.364 E41.06112
G1 X127.015 Y98.856 E41.07026
G1 X106.661 Y98.856 E41.43622
G1 X106.368 Y98.348 E41.44677
G1 X127.015 Y98.348 E41.81801
G1 X127.015 Y97.839 E41.82715
G1 X106.074 Y97.839 E42.20366
G1 X105.781 Y97.331 E42.21422
G1 X127.015 Y97.331 E42.59601
G1 X127.015 Y96.823 E42.60515
G1 X105.487 Y96.823 E42.99222
G1 X105.194 Y96.314 E43.00277
G1 X127.015 Y96.314 E43.39512
G1 X127.015 Y95.806 E43.40426
G1 X104.900 Y95.806 E43.80188
G1 X104.607 Y95.297 E43.81243
G1 X127.015 Y95.297 E44.21533
G1 X127.015 Y94.789 E44.22447
G1 X72.983 Y94.789 E45.19597
G1 X72.983 Y95.297 E45.20511
G1 X95.391 Y95.297 E45.60801
G1 X95.098 Y95.806 E45.61856
G1 X72.983 Y95.806 E46.01618
G1 X72.983 Y96.314 E46.02532
G1 X94.804 Y96.314 E46.41767
G1 X94.511 Y96.823 E46.42822
G1 X72.983 Y96.823 E46.81529
G1 X72.983 Y97.331 E46.82443
G1 X94.217 Y97.331 E47.20622
G1 X93.924 Y97.839 E47.21678
G1 X72.983 Y97.839 E47.59329
G1 X72.983 Y98.348 E47.60244
G1 X93.630 Y98.348 E47.97367
G1 X93.337 Y98.856 E47.98423
G1 X72.983 Y98.856 E48.35019
G1 X72.983 Y99.364 E48.35933
G1 X93.043 Y99.364 E48.72002
G1 X92.750 Y99.873 E48.73057
G1 X72.983 Y99.873 E49.08598
G1 X72.983 Y100.381 E49.09512
G1 X92.457 Y100.381 E49.44526
G1 X92.163 Y100.890 E49.45581
G1 X72.983 Y100.890 E49.80067
G1 X72.983 Y101.398 E49.80981
G1 X91.870 Y101.398 E50.14939
G1 X91.576 Y101.906 E50.15994
G1 X72.983 Y101.906 E50.49424
G1 X72.983 Y102.415 E50.50338
G1 X91.283 Y102.415 E50.83241
G1 X90.989 Y102.923 E50.84296
G1 X72.983 Y102.923 E51.16672
G1 X72.983 Y103.432 E51.17586
G1 X90.992 Y103.432 E51.49965
G1 X91.285 Y103.940 E51.51021
G1 X72.983 Y103.940 E51.83928
G1 X72.983 Y104.448 E51.84842
G1 X91.579 Y104.448 E52.18277
G1 X91.872 Y104.957 E52.19333
G1 X72.983 Y104.957 E52.53296
G1 X72.983 Y105.465 E52.54210
G1 X92.166 Y105.465 E52.88700
G1 X92.459 Y105.973 E52.89756
G1 X72.983 Y105.973 E53.24774
G1 X72.983 Y106.482 E53.25688
G1 X92.753 Y106.482 E53.61233
G1 X93.046 Y106.990 E53.62289
G1 X72.983 Y106.990 E53.98362
G1 X72.983 Y107.499 E53.99276
G1 X93.340 Y107.499 E54.35877
G1 X93.633 Y108.007 E54.36932
G1 X72.983 Y108.007 E54.74061
G1 X72.983 Y108.515 E54.74975
G1 X93.926 Y108.515 E55.12631
G1 X94.220 Y109.024 E55.13687
G1 X72.983 Y109.024 E55.51871
G1 X72.983 Y109.532 E55.52785
G1 X94.513 Y109.532 E55.91496
G1 X94.807 Y110.040 E55.92552
G1 X72.983 Y110.040 E56.31791
G1 X72.983 Y110.549 E56.32705
G1 X95.100 Y110.549 E56.72472
G1 X95.394 Y111.057 E56.73528
G1 X72.983 Y111.057 E57.13822
G1 X72.983 Y94.281 F7800.000
G1 X127.015 Y94.281 F1500.000 E58.10972
G1 X127.015 Y93.772 E58.11886
G1 X72.983 Y93.772 E59.09035
G1 X72.983 Y93.264 E59.09949
G1 X127.015 Y93.264 E60.07099
G1 X127.015 Y92.756 E60.08013
G1 X72.983 Y92.756 E61.05162
G1 X72.983 Y92.247 E61.06077
G1 X127.015 Y92.247 E62.03226
G1 X127.015 Y91.739 E62.04140
G1 X72.983 Y91.739 E63.01290
G1 X72.983 Y91.230 E63.02204
G1 X127.015 Y91.230 E63.99353
G1 X127.015 Y90.722 E64.00267
G1 X72.983 Y90.722 E64.97417
G1 X72.983 Y90.214 E64.98331
G1 X127.015 Y90.214 E65.95481
G1 X127.015 Y89.705 E65.96395
G1 X122.271 Y89.705 E66.04924
G1 X122.271 Y89.197 E66.05838
G1 X127.015 Y89.197 E66.14367
G1 X127.015 Y88.689 E66.15281
G1 X122.271 Y88.689 E66.23811
G1 X122.271 Y88.180 E66.24725
G1 X127.015 Y88.180 E66.33254
G1 X127.015 Y87.672 E66.34168
G1 X122.271 Y87.672 E66.42697
G1 X122.271 Y87.163 E66.43612
G1 X127.015 Y87.163 E66.52141
G1 X127.015 Y86.655 E66.53055
G1 X122.271 Y86.655 E66.61584
G1 X77.729 Y86.655 F7800.000
G1 X72.983 Y86.655 F1500.000 E66.70117
G1 X72.983 Y87.163 E66.71031
G1 X77.729 Y87.163 E66.79564
G1 X77.729 Y87.672 E66.80478
G1 X72.983 Y87.672 E66.89011
G1 X72.983 Y88.180 E66.89925
G1 X77.729 Y88.180 E66.98458
G1 X77.729 Y88.689 E66.99372
G1 X72.983 Y88.689 E67.07905
G1 X72.983 Y89.197 E67.08819
G1 X77.729 Y89.197 E67.17352
G1 X77.729 Y89.705 E67.18266
G1 X72.983 Y89.705 E67.26799
G1 X129.647 Y83.331 F7800.000
G1 X122.271 Y83.331 F1500.000 E67.44435
G1 X122.271 Y82.655 E67.46052
G1 X129.647 Y82.655 E67.63688
G1 X77.729 Y82.655 F7800.000
G1 X70.351 Y82.655 F1500.000 E67.81329
G1 X70.351 Y83.331 E67.82946
G1 X77.729 Y83.331 E68.00587
G1 X79.192 Y116.516 F7800.000
G1 X78.316 Y116.516 F600.000 E68.02746
G1 X77.729 Y116.669 F7800.000
G1 X70.351 Y116.669 F1500.000 E68.20385
G1 X70.351 Y117.345 E68.22002
G1 X77.729 Y117.345 E68.39641
G1 Z0.500 F7800.000
G1 X94.933 Y110.442
G1 X90.738 Y103.175 F1800.000 E68.61789
G1 X95.368 Y95.155 E68.86234
G1 X104.630 Y95.155 E69.10682
G1 X109.260 Y103.175 E69.35127
G1 X104.630 Y111.195 E69.59573
G1 X95.368 Y111.195 E69.84021
G1 X94.989 Y110.539 E69.86022
G1 X94.933 Y110.442 E69.86318
G1 X95.579 Y110.069 F7800.000
G1 X91.600 Y103.175 F1800.000 E70.07329
G1 X95.799 Y95.901 E70.29499
G1 X104.199 Y95.901 E70.51672
G1 X108.398 Y103.175 E70.73842
G1 X104.199 Y110.449 E70.96013
G1 X95.799 Y110.449 E71.18186
G1 X95.635 Y110.166 E71.19050
G1 X95.579 Y110.069 E71.19346
G1 X94.833 Y110.069 F7800.000
G1 X122.392 Y116.565
G1 X129.526 Y116.565 F600.000 E71.38175
G1 X129.526 Y117.449 E71.40507
G1 X122.392 Y117.449 E71.59336
G1 X122.392 Y116.677 E71.61372
G1 X122.392 Y116.565 E71.61668
G1 X77.608 Y116.565 F7800.000
G1 X77.608 Y117.449 F600.000 E71.63999
G1 X70.472 Y117.449 E71.82834
G1 X70.472 Y116.565 E71.85166
G1 X77.496 Y116.565 E72.03705
G1 X77.608 Y116.565 E72.04001
G1 X79.900 Y116.245 F7800.000
G1 X79.900 Y113.069 F1800.000 E72.12383
G1 X73.070 Y113.080 E72.30414
G1 X73.070 Y86.551 E73.00442
G1 X77.608 Y86.551 E73.12421
