; generated by Slic3r 0.9.8 on 2013-07-04 at 16:17:19

; layer_height = .25
; perimeters = 1
; top_solid_layers = 4
; bottom_solid_layers = 4
; fill_density = .9
; perimeter_speed = 30
; infill_speed = 40
; travel_speed = 130
; scale = 1
; nozzle_diameter = 0.5
; filament_diameter = 3
; extrusion_multiplier = 1
; perimeters extrusion width = 0.80mm
; infill extrusion width = 0.80mm
; first layer extrusion width = 0.50mm

M107
M104 S220 ; set temperature
G28 ; home all axes
M109 S220 ; wait for temperature to be reached
G90 ; use absolute coordinates
G21 ; set units to millimeters
G92 E0
M82 ; use absolute distances for extrusion
G1 Z0.250 F7800.000
G1 X127.073 Y138.310
G1 X127.023 Y138.860 F900.000 E0.00977
G1 X126.853 Y139.670 E0.02440
G1 X126.683 Y140.200 E0.03425
G1 X126.473 Y140.710 E0.04400
G1 X126.233 Y141.210 E0.05381
G1 X125.943 Y141.680 E0.06357
G1 X125.623 Y142.130 E0.07334
G1 X125.073 Y142.760 E0.08813
G1 X124.673 Y143.140 E0.09788
G1 X124.013 Y143.640 E0.11253
G1 X123.543 Y143.930 E0.12229
G1 X123.043 Y144.190 E0.13226
G1 X122.533 Y144.400 E0.14201
G1 X121.743 Y144.640 E0.15661
G1 X121.193 Y144.750 E0.16653
G1 X120.643 Y144.820 E0.17633
G1 X120.093 Y144.840 E0.18607
G1 X79.893 Y144.840 E0.89696
G1 X79.343 Y144.820 E0.90669
G1 X78.513 Y144.700 E0.92152
G1 X77.983 Y144.570 E0.93117
G1 X77.193 Y144.300 E0.94594
G1 X76.693 Y144.070 E0.95567
G1 X75.973 Y143.640 E0.97050
G1 X75.313 Y143.140 E0.98514
G1 X74.723 Y142.560 E0.99977
G1 X74.363 Y142.130 E1.00969
G1 X74.043 Y141.680 E1.01945
G1 X73.753 Y141.210 E1.02922
G1 X73.403 Y140.460 E1.04386
G1 X73.133 Y139.670 E1.05862
G1 X72.963 Y138.860 E1.07326
G1 X72.933 Y138.580 E1.07824
G1 X69.733 Y90.690 E1.92701
G1 X69.713 Y90.220 E1.93532
G1 X69.713 Y62.150 E2.43171
G1 X69.733 Y61.600 E2.44144
G1 X69.843 Y60.780 E2.45607
G1 X69.973 Y60.250 E2.46572
G1 X70.143 Y59.730 E2.47540
G1 X70.353 Y59.220 E2.48515
G1 X70.603 Y58.730 E2.49488
G1 X70.893 Y58.260 E2.50465
G1 X71.393 Y57.600 E2.51929
G1 X71.763 Y57.200 E2.52892
G1 X72.163 Y56.830 E2.53856
G1 X72.823 Y56.330 E2.55320
G1 X73.293 Y56.040 E2.56297
G1 X73.783 Y55.790 E2.57270
G1 X74.293 Y55.580 E2.58245
G1 X74.813 Y55.410 E2.59212
G1 X75.343 Y55.280 E2.60177
G1 X76.163 Y55.170 E2.61641
G1 X76.713 Y55.150 E2.62614
G1 X123.273 Y55.150 E3.44950
G1 X123.823 Y55.170 E3.45923
G1 X124.643 Y55.280 E3.47386
G1 X125.173 Y55.410 E3.48351
G1 X125.953 Y55.680 E3.49811
G1 X126.453 Y55.910 E3.50784
G1 X127.163 Y56.330 E3.52243
G1 X127.823 Y56.830 E3.53707
G1 X128.223 Y57.200 E3.54671
G1 X128.773 Y57.820 E3.56136
G1 X129.243 Y58.490 E3.57584
G1 X129.513 Y58.970 E3.58558
G1 X129.743 Y59.470 E3.59531
G1 X129.933 Y59.990 E3.60510
G1 X130.083 Y60.520 E3.61484
G1 X130.143 Y60.780 E3.61956
G1 X130.253 Y61.600 E3.63419
G1 X130.273 Y62.150 E3.64392
G1 X130.273 Y90.220 E4.14031
G1 X127.078 Y138.236 E4.99128
G1 X127.073 Y138.310 E4.99261
G1 X126.583 Y138.270 F7800.000
G1 X126.523 Y138.800 F900.000 E5.00204
G1 X126.423 Y139.320 E5.01140
G1 X126.283 Y139.830 E5.02076
G1 X126.103 Y140.320 E5.02999
G1 X125.883 Y140.800 E5.03932
G1 X125.623 Y141.260 E5.04867
G1 X125.323 Y141.700 E5.05809
G1 X124.993 Y142.110 E5.06739
G1 X124.633 Y142.500 E5.07678
G1 X124.033 Y143.010 E5.09070
G1 X123.593 Y143.320 E5.10022
G1 X123.143 Y143.580 E5.10941
G1 X122.663 Y143.810 E5.11883
G1 X122.173 Y144.000 E5.12812
G1 X121.663 Y144.150 E5.13752
G1 X121.403 Y144.210 E5.14224
G1 X120.623 Y144.320 E5.15617
G1 X120.093 Y144.340 E5.16555
G1 X79.893 Y144.340 E5.87644
G1 X79.363 Y144.320 E5.88582
G1 X78.583 Y144.210 E5.89975
G1 X78.073 Y144.080 E5.90906
G1 X77.563 Y143.910 E5.91856
G1 X76.843 Y143.580 E5.93257
G1 X76.393 Y143.320 E5.94176
G1 X76.173 Y143.170 E5.94647
G1 X75.553 Y142.680 E5.96044
G1 X75.173 Y142.310 E5.96982
G1 X74.663 Y141.700 E5.98388
G1 X74.363 Y141.260 E5.99330
G1 X74.103 Y140.800 E6.00264
G1 X73.793 Y140.080 E6.01651
G1 X73.703 Y139.830 E6.02120
G1 X73.563 Y139.320 E6.03056
G1 X73.463 Y138.800 E6.03992
G1 X73.403 Y138.270 E6.04935
G1 X70.223 Y90.650 E6.89334
G1 X70.213 Y62.150 E7.39733
G1 X70.233 Y61.630 E7.40653
G1 X70.293 Y61.110 E7.41579
G1 X70.403 Y60.590 E7.42518
G1 X70.543 Y60.090 E7.43437
G1 X70.733 Y59.600 E7.44366
G1 X70.953 Y59.130 E7.45284
G1 X71.363 Y58.460 E7.46673
G1 X71.843 Y57.840 E7.48059
G1 X72.023 Y57.650 E7.48522
G1 X72.403 Y57.280 E7.49460
G1 X72.813 Y56.950 E7.50391
G1 X73.463 Y56.520 E7.51769
G1 X73.923 Y56.280 E7.52687
G1 X74.653 Y55.980 E7.54082
G1 X75.153 Y55.840 E7.55000
G1 X75.673 Y55.730 E7.55940
G1 X76.193 Y55.670 E7.56866
G1 X76.713 Y55.650 E7.57786
G1 X123.273 Y55.650 E8.40122
G1 X123.793 Y55.670 E8.41043
G1 X124.313 Y55.730 E8.41968
G1 X124.573 Y55.780 E8.42436
G1 X125.333 Y55.980 E8.43826
G1 X125.823 Y56.170 E8.44756
G1 X126.293 Y56.390 E8.45673
G1 X126.963 Y56.800 E8.47062
G1 X127.583 Y57.280 E8.48449
G1 X128.143 Y57.840 E8.49849
G1 X128.473 Y58.250 E8.50780
G1 X128.623 Y58.460 E8.51236
G1 X129.033 Y59.130 E8.52626
G1 X129.353 Y59.850 E8.54019
G1 X129.443 Y60.090 E8.54472
G1 X129.643 Y60.850 E8.55862
G1 X129.693 Y61.110 E8.56330
G1 X129.753 Y61.630 E8.57256
G1 X129.773 Y62.150 E8.58176
G1 X129.763 Y90.650 E9.08575
G1 X126.588 Y138.196 E9.92841
G1 X126.583 Y138.270 E9.92973
G1 X89.637 Y88.050 F7800.000
G1 X78.898 Y88.049 F900.000 E10.11964
G1 X78.898 Y64.326 E10.53917
G1 X89.637 Y64.326 E10.72908
G1 X89.637 Y87.975 E11.14729
G1 X89.637 Y88.050 E11.14862
G1 X89.137 Y87.550 F7800.000
G1 X79.398 Y87.549 F900.000 E11.32084
G1 X79.398 Y64.826 E11.72269
G1 X89.137 Y64.826 E11.89492
G1 X89.137 Y87.475 E12.29544
G1 X89.137 Y87.550 E12.29676
G1 X89.137 Y88.050 F7800.000
G1 X93.852 Y80.747
G1 X92.471 Y78.947 F900.000 E12.33690
G1 X91.648 Y76.960 E12.37492
G1 X91.602 Y76.850 E12.37704
G1 X91.306 Y74.600 E12.41717
G1 X91.602 Y72.349 E12.45730
G1 X92.471 Y70.253 E12.49744
G1 X93.852 Y68.452 E12.53757
G1 X95.653 Y67.070 E12.57771
G1 X97.750 Y66.202 E12.61785
G1 X100.000 Y65.906 E12.65798
G1 X102.250 Y66.202 E12.69811
G1 X104.347 Y67.070 E12.73825
G1 X106.148 Y68.452 E12.77838
G1 X107.529 Y70.253 E12.81852
G1 X108.398 Y72.349 E12.85866
G1 X108.694 Y74.600 E12.89879
G1 X108.398 Y76.850 E12.93893
G1 X107.529 Y78.947 E12.97906
G1 X106.148 Y80.747 E13.01920
G1 X104.347 Y82.129 E13.05933
G1 X102.250 Y82.997 E13.09947
G1 X100.000 Y83.294 E13.13960
G1 X97.750 Y82.997 E13.17973
G1 X95.653 Y82.129 E13.21987
G1 X93.912 Y80.793 E13.25868
G1 X93.852 Y80.747 E13.26001
G1 X94.209 Y80.390 F7800.000
G1 X92.908 Y78.694 F900.000 E13.29781
G1 X92.110 Y76.769 E13.33467
G1 X92.089 Y76.719 E13.33562
G1 X91.810 Y74.600 E13.37343
G1 X92.089 Y72.480 E13.41123
G1 X92.908 Y70.505 E13.44904
G1 X94.209 Y68.809 E13.48685
G1 X95.905 Y67.507 E13.52465
G1 X97.880 Y66.689 E13.56246
G1 X100.000 Y66.410 E13.60027
G1 X102.120 Y66.689 E13.63807
G1 X104.095 Y67.507 E13.67588
G1 X105.791 Y68.809 E13.71369
G1 X107.092 Y70.505 E13.75150
G1 X107.911 Y72.480 E13.78930
G1 X108.190 Y74.600 E13.82711
G1 X107.911 Y76.719 E13.86492
G1 X107.092 Y78.694 E13.90272
G1 X105.791 Y80.390 E13.94053
G1 X104.095 Y81.692 E13.97834
G1 X102.120 Y82.510 E14.01614
G1 X100.000 Y82.789 E14.05395
G1 X97.880 Y82.510 E14.09176
G1 X95.905 Y81.692 E14.12956
G1 X94.269 Y80.436 E14.16604
G1 X94.209 Y80.390 E14.16737
G1 X93.721 Y80.499 F7800.000
G1 X110.363 Y88.050
G1 X110.363 Y64.325 F900.000 E14.58690
G1 X121.102 Y64.325 E14.77681
G1 X121.102 Y88.049 E15.19635
G1 X110.438 Y88.050 E15.38493
G1 X110.363 Y88.050 E15.38626
G1 X110.863 Y87.550 F7800.000
G1 X110.863 Y64.825 F900.000 E15.78810
G1 X120.602 Y64.825 E15.96033
G1 X120.602 Y87.549 E16.36218
G1 X110.938 Y87.550 E16.53308
G1 X110.863 Y87.550 E16.53440
G1 X110.363 Y87.550 F7800.000
G1 X107.981 Y89.725
G1 X116.339 Y89.724 F900.000 E16.68221
G1 X116.339 Y135.675 E17.49478
G1 X107.981 Y135.675 E17.64258
G1 X107.981 Y89.800 E18.45383
G1 X107.981 Y89.725 E18.45516
G1 X108.481 Y90.225 F7800.000
G1 X115.839 Y90.224 F900.000 E18.58528
G1 X115.839 Y135.175 E19.38017
G1 X108.481 Y135.175 E19.51029
G1 X108.481 Y90.300 E20.30385
G1 X108.481 Y90.225 E20.30518
G1 X108.481 Y89.725 F7800.000
G1 X106.306 Y89.725
G1 X106.306 Y135.675 F900.000 E21.11775
G1 X93.694 Y135.675 E21.34079
G1 X93.694 Y89.725 E22.15336
G1 X106.231 Y89.725 E22.37507
G1 X106.306 Y89.725 E22.37640
G1 X105.806 Y90.225 F7800.000
G1 X105.806 Y135.175 F900.000 E23.17129
G1 X94.194 Y135.175 E23.37665
G1 X94.194 Y90.225 E24.17154
G1 X105.731 Y90.225 E24.37556
G1 X105.806 Y90.225 E24.37689
G1 X106.306 Y90.225 F7800.000
G1 X92.019 Y89.725
G1 X92.019 Y135.675 F900.000 E25.18946
G1 X83.661 Y135.674 E25.33726
G1 X83.661 Y89.724 E26.14984
G1 X91.944 Y89.725 E26.29631
G1 X92.019 Y89.725 E26.29763
G1 X91.519 Y90.225 F7800.000
G1 X91.519 Y135.175 F900.000 E27.09252
G1 X84.161 Y135.174 E27.22264
G1 X84.161 Y90.224 E28.01753
G1 X91.444 Y90.225 E28.14631
G1 X91.519 Y90.225 E28.14764
G1 X92.019 Y90.225 F7800.000
G1 X80.398 Y89.725
G1 X77.223 Y89.725 F900.000 E28.20379
G1 X77.223 Y62.650 E28.68256
G1 X122.777 Y62.650 E29.48812
G1 X122.777 Y89.725 E29.96689
G1 X119.602 Y89.725 E30.02304
G1 X119.602 Y137.350 E30.86523
G1 X80.398 Y137.350 E31.55850
G1 X80.398 Y89.800 E32.39937
G1 X80.398 Y89.725 E32.40069
G1 X79.898 Y90.225 F7800.000
G1 X76.723 Y90.225 F900.000 E32.45684
G1 X76.723 Y62.150 E32.95330
G1 X123.277 Y62.150 E33.77654
G1 X123.277 Y90.225 E34.27300
G1 X120.102 Y90.225 E34.32914
G1 X120.102 Y137.850 E35.17134
G1 X79.898 Y137.850 E35.88229
G1 X79.898 Y90.300 E36.72316
G1 X79.898 Y90.225 E36.72448
G1 X79.898 Y89.725 F7800.000
G1 X80.673 Y89.722
G1 X83.386 Y89.722 F1500.000 E36.77259
G1 X83.386 Y90.224 E36.78147
G1 X80.673 Y90.224 E36.82958
G1 X80.673 Y90.725 E36.83847
G1 X83.386 Y90.725 E36.88657
G1 X83.386 Y91.226 E36.89546
G1 X80.673 Y91.226 E36.94356
G1 X80.673 Y91.728 E36.95245
G1 X83.386 Y91.728 E37.00055
G1 X83.386 Y92.229 E37.00944
G1 X80.673 Y92.229 E37.05754
G1 X80.673 Y92.730 E37.06643
G1 X83.386 Y92.730 E37.11453
G1 X83.386 Y93.232 E37.12342
G1 X80.673 Y93.232 E37.17152
G1 X80.673 Y93.733 E37.18041
G1 X83.386 Y93.733 E37.22851
G1 X83.386 Y94.234 E37.23740
G1 X80.673 Y94.234 E37.28550
G1 X80.673 Y94.736 E37.29439
G1 X83.386 Y94.736 E37.34249
G1 X83.386 Y95.237 E37.35138
G1 X80.673 Y95.237 E37.39949
G1 X80.673 Y95.738 E37.40837
G1 X83.386 Y95.738 E37.45648
G1 X83.386 Y96.240 E37.46537
G1 X80.673 Y96.240 E37.51347
G1 X80.673 Y96.741 E37.52236
G1 X83.386 Y96.741 E37.57046
G1 X83.386 Y97.243 E37.57935
G1 X80.673 Y97.243 E37.62745
G1 X80.673 Y97.744 E37.63634
G1 X83.386 Y97.744 E37.68444
G1 X83.386 Y98.245 E37.69333
G1 X80.673 Y98.245 E37.74143
G1 X80.673 Y98.747 E37.75032
G1 X83.386 Y98.747 E37.79842
G1 X83.386 Y99.248 E37.80731
G1 X80.673 Y99.248 E37.85541
G1 X80.673 Y99.749 E37.86430
G1 X83.386 Y99.749 E37.91240
G1 X83.386 Y100.251 E37.92129
G1 X80.673 Y100.251 E37.96939
G1 X80.673 Y100.752 E37.97828
G1 X83.386 Y100.752 E38.02638
G1 X83.386 Y101.253 E38.03527
G1 X80.673 Y101.253 E38.08337
G1 X80.673 Y101.755 E38.09227
G1 X83.386 Y101.755 E38.14037
G1 X83.386 Y102.256 E38.14926
G1 X80.673 Y102.256 E38.19736
G1 X80.673 Y102.757 E38.20625
G1 X83.386 Y102.757 E38.25435
G1 X83.386 Y103.259 E38.26324
G1 X80.673 Y103.259 E38.31134
G1 X80.673 Y103.760 E38.32023
G1 X83.386 Y103.760 E38.36833
G1 X83.386 Y104.261 E38.37722
G1 X80.673 Y104.261 E38.42532
G1 X80.673 Y104.763 E38.43421
G1 X83.386 Y104.763 E38.48231
G1 X83.386 Y105.264 E38.49120
G1 X80.673 Y105.264 E38.53930
G1 X80.673 Y105.766 E38.54819
G1 X83.386 Y105.766 E38.59629
G1 X83.386 Y106.267 E38.60518
G1 X80.673 Y106.267 E38.65328
G1 X80.673 Y106.768 E38.66217
G1 X83.386 Y106.768 E38.71027
G1 X83.386 Y107.270 E38.71917
G1 X80.673 Y107.270 E38.76727
G1 X80.673 Y107.771 E38.77616
G1 X83.386 Y107.771 E38.82426
G1 X83.386 Y108.272 E38.83315
G1 X80.673 Y108.272 E38.88125
G1 X80.673 Y108.774 E38.89014
G1 X83.386 Y108.774 E38.93824
G1 X83.386 Y109.275 E38.94713
G1 X80.673 Y109.275 E38.99523
G1 X80.673 Y109.776 E39.00412
G1 X83.386 Y109.776 E39.05222
G1 X83.386 Y110.278 E39.06111
G1 X80.673 Y110.278 E39.10921
G1 X80.673 Y110.779 E39.11810
G1 X83.386 Y110.779 E39.16620
G1 X83.386 Y111.280 E39.17509
G1 X80.673 Y111.280 E39.22319
G1 X80.673 Y111.782 E39.23208
G1 X83.386 Y111.782 E39.28018
G1 X83.386 Y112.283 E39.28907
G1 X80.673 Y112.283 E39.33717
G1 X80.673 Y112.785 E39.34606
G1 X83.386 Y112.785 E39.39417
G1 X83.386 Y113.286 E39.40305
G1 X80.673 Y113.286 E39.45116
G1 X80.673 Y113.787 E39.46005
G1 X83.386 Y113.787 E39.50815
G1 X83.386 Y114.289 E39.51704
G1 X80.673 Y114.289 E39.56514
G1 X80.673 Y114.790 E39.57403
G1 X83.386 Y114.790 E39.62213
G1 X83.386 Y115.291 E39.63102
G1 X80.673 Y115.291 E39.67912
G1 X80.673 Y115.793 E39.68801
G1 X83.386 Y115.793 E39.73611
G1 X83.386 Y116.294 E39.74500
G1 X80.673 Y116.294 E39.79310
G1 X80.673 Y116.795 E39.80199
G1 X83.386 Y116.795 E39.85009
G1 X83.386 Y117.297 E39.85898
G1 X80.673 Y117.297 E39.90708
G1 X80.673 Y117.798 E39.91597
G1 X83.386 Y117.798 E39.96407
G1 X83.386 Y118.299 E39.97296
G1 X80.673 Y118.299 E40.02107
G1 X80.673 Y118.801 E40.02995
G1 X83.386 Y118.801 E40.07806
G1 X83.386 Y119.302 E40.08695
G1 X80.673 Y119.302 E40.13505
G1 X80.673 Y119.803 E40.14394
G1 X83.386 Y119.803 E40.19204
G1 X83.386 Y120.305 E40.20093
G1 X80.673 Y120.305 E40.24903
G1 X80.673 Y120.806 E40.25792
G1 X83.386 Y120.806 E40.30602
G1 X83.386 Y121.308 E40.31491
G1 X80.673 Y121.308 E40.36301
G1 X80.673 Y121.809 E40.37190
G1 X83.386 Y121.809 E40.42000
G1 X83.386 Y122.310 E40.42889
G1 X80.673 Y122.310 E40.47699
G1 X80.673 Y122.812 E40.48588
G1 X83.386 Y122.812 E40.53398
G1 X83.386 Y123.313 E40.54287
G1 X80.673 Y123.313 E40.59097
G1 X80.673 Y123.814 E40.59986
G1 X83.386 Y123.814 E40.64797
G1 X83.386 Y124.316 E40.65685
G1 X80.673 Y124.316 E40.70496
G1 X80.673 Y124.817 E40.71385
G1 X83.386 Y124.817 E40.76195
G1 X83.386 Y125.318 E40.77084
G1 X80.673 Y125.318 E40.81894
G1 X80.673 Y125.820 E40.82783
G1 X83.386 Y125.820 E40.87593
G1 X83.386 Y126.321 E40.88482
G1 X80.673 Y126.321 E40.93292
G1 X80.673 Y126.822 E40.94181
G1 X83.386 Y126.822 E40.98991
G1 X83.386 Y127.324 E40.99880
G1 X80.673 Y127.324 E41.04690
G1 X80.673 Y127.825 E41.05579
G1 X83.386 Y127.825 E41.10389
G1 X83.386 Y128.326 E41.11278
G1 X80.673 Y128.326 E41.16088
G1 X80.673 Y128.828 E41.16977
G1 X83.386 Y128.828 E41.21787
G1 X83.386 Y129.329 E41.22676
G1 X80.673 Y129.329 E41.27487
G1 X80.673 Y129.831 E41.28375
G1 X83.386 Y129.831 E41.33185
G1 X83.386 Y130.332 E41.34075
G1 X80.673 Y130.332 E41.38885
G1 X80.673 Y130.833 E41.39774
G1 X83.386 Y130.833 E41.44584
G1 X83.386 Y131.335 E41.45473
G1 X80.673 Y131.335 E41.50283
G1 X80.673 Y131.836 E41.51172
G1 X83.386 Y131.836 E41.55982
G1 X83.386 Y132.337 E41.56871
G1 X80.673 Y132.337 E41.61681
G1 X80.673 Y132.839 E41.62570
G1 X83.386 Y132.839 E41.67380
G1 X83.386 Y133.340 E41.68269
G1 X80.673 Y133.340 E41.73079
G1 X80.673 Y133.841 E41.73968
G1 X83.386 Y133.841 E41.78778
G1 X83.386 Y134.343 E41.79667
G1 X80.673 Y134.343 E41.84477
G1 X80.673 Y134.844 E41.85366
G1 X83.386 Y134.844 E41.90176
G1 X83.386 Y135.345 E41.91065
G1 X80.673 Y135.345 E41.95875
G1 X80.673 Y135.847 E41.96765
G1 X83.386 Y135.847 E42.01575
G1 X92.293 Y135.847 F7800.000
G1 X93.419 Y135.847 F1500.000 E42.03570
G1 X93.419 Y135.345 E42.04459
G1 X92.293 Y135.345 E42.06454
G1 X92.293 Y134.844 E42.07343
G1 X93.419 Y134.844 E42.09339
G1 X93.419 Y134.343 E42.10228
G1 X92.293 Y134.343 E42.12223
G1 X92.293 Y133.841 E42.13112
G1 X93.419 Y133.841 E42.15108
G1 X93.419 Y133.340 E42.15996
G1 X92.293 Y133.340 E42.17992
G1 X92.293 Y132.839 E42.18881
G1 X93.419 Y132.839 E42.20876
G1 X93.419 Y132.337 E42.21765
G1 X92.293 Y132.337 E42.23760
G1 X92.293 Y131.836 E42.24650
