; generated by Slic3r 0.9.8 on 2013-07-04 at 17:32:43

; layer_height = .25
; perimeters = 1
; top_solid_layers = 4
; bottom_solid_layers = 4
; fill_density = .9
; perimeter_speed = 30
; infill_speed = 40
; travel_speed = 130
; scale = 1
; nozzle_diameter = 0.5
; filament_diameter = 3
; extrusion_multiplier = 1
; perimeters extrusion width = 0.80mm
; infill extrusion width = 0.80mm
; first layer extrusion width = 0.50mm

M107
M104 S220 ; set temperature
G28 ; home all axes
M109 S220 ; wait for temperature to be reached
G90 ; use absolute coordinates
G21 ; set units to millimeters
G92 E0
M82 ; use absolute distances for extrusion
G1 Z0.250 F7800.000
G1 X121.052 Y117.204
G1 X120.612 Y117.524 F900.000 E0.00962
G1 X120.142 Y117.814 E0.01939
G1 X119.652 Y118.064 E0.02912
G1 X119.142 Y118.274 E0.03887
G1 X118.622 Y118.444 E0.04854
G1 X118.092 Y118.574 E0.05819
G1 X117.272 Y118.684 E0.07282
G1 X116.722 Y118.704 E0.08256
G1 X83.272 Y118.704 E0.67408
G1 X82.722 Y118.684 E0.68381
G1 X81.902 Y118.574 E0.69845
G1 X81.642 Y118.514 E0.70316
G1 X81.112 Y118.364 E0.71290
G1 X80.592 Y118.174 E0.72270
G1 X80.092 Y117.944 E0.73243
G1 X79.612 Y117.674 E0.74217
G1 X78.942 Y117.204 E0.75664
G1 X78.322 Y116.654 E0.77130
G1 X77.952 Y116.254 E0.78093
G1 X77.452 Y115.594 E0.79557
G1 X77.032 Y114.884 E0.81016
G1 X76.702 Y114.124 E0.82481
G1 X76.462 Y113.334 E0.83941
G1 X76.402 Y113.074 E0.84413
G1 X76.322 Y112.524 E0.85396
G1 X76.292 Y112.254 E0.85877
G1 X76.272 Y111.704 E0.86850
G1 X76.272 Y88.294 E1.28248
G1 X76.292 Y87.744 E1.29221
G1 X76.402 Y86.924 E1.30684
G1 X76.532 Y86.394 E1.31649
G1 X76.802 Y85.614 E1.33109
G1 X77.032 Y85.114 E1.34082
G1 X77.302 Y84.634 E1.35056
G1 X77.772 Y83.964 E1.36503
G1 X78.322 Y83.344 E1.37969
G1 X78.722 Y82.974 E1.38932
G1 X78.942 Y82.794 E1.39435
G1 X79.612 Y82.324 E1.40882
G1 X80.092 Y82.054 E1.41856
G1 X80.852 Y81.724 E1.43321
G1 X81.372 Y81.554 E1.44289
G1 X81.902 Y81.424 E1.45254
G1 X82.722 Y81.314 E1.46717
G1 X83.272 Y81.294 E1.47690
G1 X116.722 Y81.294 E2.06843
G1 X117.272 Y81.314 E2.07816
G1 X118.092 Y81.424 E2.09279
G1 X118.352 Y81.484 E2.09751
G1 X118.882 Y81.634 E2.10725
G1 X119.402 Y81.824 E2.11704
G1 X119.902 Y82.054 E2.12677
G1 X120.382 Y82.324 E2.13651
G1 X121.052 Y82.794 E2.15099
G1 X121.672 Y83.344 E2.16564
G1 X122.042 Y83.744 E2.17528
G1 X122.542 Y84.404 E2.18992
G1 X122.962 Y85.114 E2.20451
G1 X123.292 Y85.874 E2.21916
G1 X123.532 Y86.664 E2.23376
G1 X123.592 Y86.924 E2.23848
G1 X123.672 Y87.474 E2.24831
G1 X123.702 Y87.744 E2.25311
G1 X123.722 Y88.294 E2.26284
G1 X123.722 Y111.704 E2.67682
G1 X123.702 Y112.254 E2.68656
G1 X123.592 Y113.074 E2.70119
G1 X123.462 Y113.604 E2.71084
G1 X123.192 Y114.384 E2.72543
G1 X122.962 Y114.884 E2.73517
G1 X122.692 Y115.364 E2.74491
G1 X122.222 Y116.034 E2.75938
G1 X121.672 Y116.654 E2.77403
G1 X121.110 Y117.157 E2.78737
G1 X121.052 Y117.204 E2.78869
G1 X120.832 Y116.734 F7800.000
G1 X120.412 Y117.054 F900.000 E2.79803
G1 X119.972 Y117.334 E2.80725
G1 X119.742 Y117.464 E2.81192
G1 X119.272 Y117.684 E2.82110
G1 X118.782 Y117.874 E2.83039
G1 X118.282 Y118.014 E2.83958
G1 X117.762 Y118.124 E2.84898
G1 X117.242 Y118.184 E2.85823
G1 X116.722 Y118.204 E2.86743
G1 X83.272 Y118.204 E3.45896
G1 X82.752 Y118.184 E3.46816
G1 X82.232 Y118.124 E3.47742
G1 X81.712 Y118.014 E3.48682
G1 X81.212 Y117.874 E3.49600
G1 X80.972 Y117.784 E3.50053
G1 X80.482 Y117.574 E3.50996
G1 X80.022 Y117.334 E3.51914
G1 X79.372 Y116.904 E3.53292
G1 X78.962 Y116.574 E3.54223
G1 X78.402 Y116.014 E3.55623
G1 X78.072 Y115.604 E3.56554
G1 X77.922 Y115.394 E3.57010
G1 X77.512 Y114.724 E3.58399
G1 X77.292 Y114.254 E3.59317
G1 X77.102 Y113.764 E3.60246
G1 X76.902 Y113.004 E3.61636
G1 X76.852 Y112.744 E3.62104
G1 X76.792 Y112.224 E3.63030
G1 X76.772 Y111.704 E3.63950
G1 X76.772 Y88.294 E4.05348
G1 X76.792 Y87.774 E4.06268
G1 X76.852 Y87.254 E4.07194
G1 X76.962 Y86.734 E4.08134
G1 X77.102 Y86.234 E4.09052
G1 X77.192 Y85.994 E4.09505
G1 X77.512 Y85.274 E4.10899
G1 X77.922 Y84.604 E4.12288
G1 X78.402 Y83.984 E4.13674
G1 X78.962 Y83.424 E4.15075
G1 X79.372 Y83.094 E4.16006
G1 X79.582 Y82.944 E4.16462
G1 X80.252 Y82.534 E4.17851
G1 X80.722 Y82.314 E4.18769
G1 X81.212 Y82.124 E4.19698
G1 X81.712 Y81.984 E4.20616
G1 X82.232 Y81.874 E4.21556
G1 X82.752 Y81.814 E4.22482
G1 X83.272 Y81.794 E4.23402
G1 X116.722 Y81.794 E4.82555
G1 X117.242 Y81.814 E4.83475
G1 X117.762 Y81.874 E4.84401
G1 X118.282 Y81.984 E4.85340
G1 X118.782 Y82.124 E4.86259
G1 X119.022 Y82.214 E4.86712
G1 X119.512 Y82.424 E4.87655
G1 X119.972 Y82.664 E4.88572
G1 X120.622 Y83.094 E4.89950
G1 X121.032 Y83.424 E4.90881
G1 X121.592 Y83.984 E4.92282
G1 X121.922 Y84.394 E4.93212
G1 X122.072 Y84.604 E4.93669
G1 X122.482 Y85.274 E4.95058
G1 X122.702 Y85.744 E4.95975
G1 X122.892 Y86.234 E4.96905
G1 X123.092 Y86.994 E4.98294
G1 X123.142 Y87.254 E4.98763
G1 X123.202 Y87.774 E4.99688
G1 X123.222 Y88.294 E5.00609
G1 X123.222 Y111.704 E5.42007
G1 X123.202 Y112.224 E5.42927
G1 X123.142 Y112.744 E5.43852
G1 X123.092 Y113.004 E5.44321
G1 X122.892 Y113.764 E5.45710
G1 X122.592 Y114.494 E5.47106
G1 X122.352 Y114.954 E5.48024
G1 X121.922 Y115.604 E5.49402
G1 X121.592 Y116.014 E5.50333
G1 X121.412 Y116.204 E5.50795
G1 X121.032 Y116.574 E5.51733
G1 X120.890 Y116.688 E5.52054
G1 X120.832 Y116.734 E5.52186
G1 X104.464 Y102.132 F7800.000
G1 X103.156 Y103.135 F300.000 E5.55100
G1 X101.750 Y103.718 E5.57792
G1 X101.634 Y103.766 E5.58015
G1 X100.000 Y103.981 E5.60929
G1 X98.366 Y103.766 E5.63843
G1 X96.960 Y103.183 E5.66535
G1 X96.844 Y103.135 E5.66757
G1 X95.536 Y102.132 E5.69671
G1 X94.533 Y100.824 E5.72585
G1 X93.902 Y99.302 E5.75500
G1 X93.687 Y97.668 E5.78414
G1 X93.902 Y96.034 E5.81328
G1 X94.533 Y94.512 E5.84242
G1 X95.536 Y93.204 E5.87156
G1 X96.844 Y92.201 E5.90071
G1 X98.366 Y91.571 E5.92985
G1 X100.000 Y91.355 E5.95899
G1 X101.634 Y91.571 E5.98813
G1 X101.750 Y91.619 E5.99035
G1 X103.156 Y92.201 E6.01727
G1 X104.464 Y93.204 E6.04641
G1 X105.467 Y94.512 E6.07556
G1 X106.097 Y96.034 E6.10470
G1 X106.313 Y97.668 E6.13384
G1 X106.097 Y99.302 E6.16298
G1 X105.467 Y100.824 E6.19212
G1 X104.509 Y102.072 E6.21994
G1 X104.464 Y102.132 E6.22127
G1 X104.107 Y101.775 F7800.000
G1 X102.904 Y102.698 F300.000 E6.24808
G1 X101.558 Y103.256 E6.27384
G1 X101.503 Y103.279 E6.27489
G1 X100.000 Y103.476 E6.30171
G1 X98.497 Y103.279 E6.32852
G1 X97.151 Y102.721 E6.35428
G1 X97.096 Y102.698 E6.35533
G1 X95.893 Y101.775 E6.38215
G1 X94.970 Y100.572 E6.40896
G1 X94.390 Y99.171 E6.43577
G1 X94.192 Y97.668 E6.46259
G1 X94.390 Y96.165 E6.48940
G1 X94.970 Y94.764 E6.51622
G1 X95.893 Y93.561 E6.54303
G1 X97.096 Y92.638 E6.56984
G1 X98.497 Y92.058 E6.59666
G1 X100.000 Y91.860 E6.62347
G1 X101.503 Y92.058 E6.65028
G1 X102.904 Y92.638 E6.67710
G1 X104.107 Y93.561 E6.70391
G1 X105.030 Y94.764 E6.73072
G1 X105.610 Y96.165 E6.75754
G1 X105.808 Y97.668 E6.78435
G1 X105.610 Y99.171 E6.81117
G1 X105.030 Y100.572 E6.83798
G1 X104.153 Y101.716 E6.86347
G1 X104.107 Y101.775 E6.86479
G1 X104.215 Y102.263 F7800.000
G1 X116.228 Y111.206
G1 X83.772 Y111.206 F900.000 E7.43875
G1 X83.772 Y88.794 E7.83507
G1 X116.228 Y88.794 E8.40902
G1 X116.228 Y111.131 E8.80401
G1 X116.228 Y111.206 E8.80534
G1 X116.728 Y111.706 F7800.000
G1 X83.272 Y111.706 F900.000 E9.39698
G1 X83.272 Y88.294 E9.81098
G1 X116.728 Y88.294 E10.40262
G1 X116.728 Y111.631 E10.81529
G1 X116.728 Y111.706 E10.81662
G1 X116.295 Y111.456 F7800.000
G1 X115.953 Y110.706
G1 X84.047 Y110.706 F1500.000 E11.39189
G1 X84.047 Y110.196 E11.40109
G1 X115.953 Y110.196 E11.97636
G1 X115.953 Y109.686 E11.98556
G1 X84.047 Y109.686 E12.56083
G1 X84.047 Y109.176 E12.57002
G1 X115.953 Y109.176 E13.14530
G1 X115.953 Y108.666 E13.15449
G1 X84.047 Y108.666 E13.72977
G1 X84.047 Y108.157 E13.73896
G1 X115.953 Y108.157 E14.31424
G1 X115.953 Y107.647 E14.32343
G1 X84.047 Y107.647 E14.89871
G1 X84.047 Y107.137 E14.90790
G1 X115.953 Y107.137 E15.48318
G1 X115.953 Y106.627 E15.49237
G1 X84.047 Y106.627 E16.06765
G1 X84.047 Y106.117 E16.07684
G1 X115.953 Y106.117 E16.65212
G1 X115.953 Y105.608 E16.66131
G1 X84.047 Y105.608 E17.23659
G1 X84.047 Y105.098 E17.24578
G1 X115.953 Y105.098 E17.82106
G1 X115.953 Y104.588 E17.83025
G1 X84.047 Y104.588 E18.40553
G1 X84.047 Y104.078 E18.41472
G1 X98.040 Y104.078 E18.66701
G1 X96.812 Y103.569 E18.69098
G1 X84.047 Y103.569 E18.92114
G1 X84.047 Y103.059 E18.93033
G1 X96.148 Y103.059 E19.14852
G1 X95.484 Y102.549 E19.16362
G1 X84.047 Y102.549 E19.36983
G1 X84.047 Y102.039 E19.37902
G1 X95.060 Y102.039 E19.57759
G1 X94.669 Y101.529 E19.58918
G1 X84.047 Y101.529 E19.78069
G1 X84.047 Y101.020 E19.78989
G1 X94.298 Y101.020 E19.97471
G1 X94.087 Y100.510 E19.98466
G1 X84.047 Y100.510 E20.16568
G1 X84.047 Y100.000 E20.17487
G1 X93.875 Y100.000 E20.35209
G1 X93.664 Y99.490 E20.36204
G1 X84.047 Y99.490 E20.53544
G1 X84.047 Y98.980 E20.54463
G1 X93.581 Y98.980 E20.71653
G1 X93.514 Y98.471 E20.72580
G1 X84.047 Y98.471 E20.89649
G1 X84.047 Y97.961 E20.90569
G1 X93.447 Y97.961 E21.07517
G1 X93.437 Y97.451 F7800.000
G1 X84.047 Y97.451 F1500.000 E21.24447
G1 X84.047 Y96.941 E21.25366
G1 X93.504 Y96.941 E21.42417
G1 X93.571 Y96.431 E21.43344
G1 X84.047 Y96.431 E21.60516
G1 X84.047 Y95.922 E21.61435
G1 X93.638 Y95.922 E21.78729
G1 X93.844 Y95.412 E21.79720
G1 X84.047 Y95.412 E21.97385
G1 X84.047 Y94.902 E21.98304
G1 X94.055 Y94.902 E22.16349
G1 X94.266 Y94.392 E22.17344
G1 X84.047 Y94.392 E22.35770
G1 X84.047 Y93.882 E22.36689
G1 X94.611 Y93.882 E22.55737
G1 X95.002 Y93.373 E22.56895
G1 X84.047 Y93.373 E22.76648
G1 X84.047 Y92.863 E22.77567
G1 X95.393 Y92.863 E22.98024
G1 X96.049 Y92.353 E22.99523
G1 X84.047 Y92.353 E23.21164
G1 X84.047 Y91.843 E23.22083
G1 X96.714 Y91.843 E23.44921
G1 X97.857 Y91.334 E23.47178
G1 X84.047 Y91.334 E23.72078
G1 X84.047 Y90.824 E23.72997
G1 X115.953 Y90.824 E24.30525
G1 X115.953 Y91.334 E24.31444
G1 X102.143 Y91.334 E24.56345
G1 X103.286 Y91.843 E24.58602
G1 X115.953 Y91.843 E24.81441
G1 X115.953 Y92.353 E24.82360
G1 X103.950 Y92.353 E25.04001
G1 X104.607 Y92.863 E25.05499
G1 X115.953 Y92.863 E25.25957
G1 X115.953 Y93.373 E25.26877
G1 X104.998 Y93.373 E25.46629
G1 X105.389 Y93.882 E25.47788
G1 X115.953 Y93.882 E25.66835
G1 X115.953 Y94.392 E25.67754
G1 X105.733 Y94.392 E25.86181
G1 X105.945 Y94.902 E25.87176
G1 X115.953 Y94.902 E26.05221
G1 X115.953 Y95.412 E26.06140
G1 X106.156 Y95.412 E26.23806
G1 X106.362 Y95.922 E26.24797
G1 X115.953 Y95.922 E26.42090
G1 X115.953 Y96.431 E26.43010
G1 X106.429 Y96.431 E26.60182
G1 X106.496 Y96.941 E26.61109
G1 X115.953 Y96.941 E26.78160
G1 X115.953 Y97.451 E26.79079
G1 X106.563 Y97.451 E26.96010
G1 X106.553 Y97.961 F7800.000
G1 X115.953 Y97.961 F1500.000 E27.12958
G1 X115.953 Y98.471 E27.13877
G1 X106.486 Y98.471 E27.30947
G1 X106.419 Y98.980 E27.31874
G1 X115.953 Y98.980 E27.49064
G1 X115.953 Y99.490 E27.49983
G1 X106.335 Y99.490 E27.67324
G1 X106.124 Y100.000 E27.68319
G1 X115.953 Y100.000 E27.86041
G1 X115.953 Y100.510 E27.86960
G1 X105.913 Y100.510 E28.05062
G1 X105.702 Y101.020 E28.06057
G1 X115.953 Y101.020 E28.24540
G1 X115.953 Y101.529 E28.25459
G1 X105.331 Y101.529 E28.44611
G1 X104.940 Y102.039 E28.45770
G1 X115.953 Y102.039 E28.65627
G1 X115.953 Y102.549 E28.66546
G1 X104.516 Y102.549 E28.87167
G1 X103.852 Y103.059 E28.88677
G1 X115.953 Y103.059 E29.10496
G1 X115.953 Y103.569 E29.11415
G1 X103.187 Y103.569 E29.34432
G1 X101.960 Y104.078 E29.36828
G1 X115.953 Y104.078 E29.62058
G1 X115.953 Y90.314 F7800.000
G1 X84.047 Y90.314 F1500.000 E30.19586
G1 X84.047 Y89.804 E30.20505
G1 X115.953 Y89.804 E30.78033
G1 X115.953 Y89.294 E30.78952
G1 X84.047 Y89.294 E31.36480
M106 S221
G1 Z0.500 F7800.000
G1 X94.839 Y94.688
G1 X95.786 Y93.454 F600.000 E31.40587
G1 X97.020 Y92.507 E31.44693
G1 X98.457 Y91.912 E31.48800
G1 X100.000 Y91.708 E31.52907
G1 X101.542 Y91.912 E31.57014
G1 X102.980 Y92.507 E31.61120
G1 X104.214 Y93.454 E31.65227
G1 X105.161 Y94.688 E31.69334
G1 X105.756 Y96.126 E31.73440
G1 X105.960 Y97.668 E31.77547
G1 X105.756 Y99.211 E31.81654
G1 X105.161 Y100.648 E31.85761
G1 X104.214 Y101.882 E31.89867
G1 X103.085 Y102.748 E31.93622
G1 X102.980 Y102.829 E31.93974
G1 X101.542 Y103.425 E31.98081
G1 X100.000 Y103.628 E32.02188
G1 X98.590 Y103.442 E32.05943
G1 X98.457 Y103.425 E32.06294
G1 X97.020 Y102.829 E32.10401
G1 X95.786 Y101.882 E32.14508
G1 X94.920 Y100.754 E32.18263
G1 X94.839 Y100.648 E32.18614
G1 X94.243 Y99.211 E32.22721
G1 X94.040 Y97.668 E32.26828
G1 X94.243 Y96.126 E32.30935
G1 X94.796 Y94.792 E32.34746
G1 X94.839 Y94.688 E32.35041
G1 X94.494 Y94.026 F7800.000
G1 X83.422 Y88.444
G1 X116.578 Y88.444 F1800.000 E33.22563
G1 X116.578 Y111.556 E33.83569
G1 X83.422 Y111.556 E34.71091
G1 X83.422 Y88.556 E35.31802
G1 X83.422 Y88.444 E35.32097
G1 X93.215 Y88.855 F7800.000
G1 X93.215 Y111.145 F3000.000 E35.91532
G1 X92.461 Y111.145 E35.93542
G1 X92.461 Y88.855 E36.52976
G1 X91.707 Y88.855 E36.54986
G1 X91.707 Y111.145 E37.14420
G1 X90.953 Y111.145 E37.16431
G1 X90.953 Y88.855 E37.75865
G1 X90.199 Y88.855 E37.77875
G1 X90.199 Y111.145 E38.37309
G1 X89.445 Y111.145 E38.39320
G1 X89.445 Y88.855 E38.98754
G1 X88.691 Y88.855 E39.00764
G1 X88.691 Y111.145 E39.60198
G1 X87.938 Y111.145 E39.62208
G1 X87.938 Y88.855 E40.21643
G1 X87.184 Y88.855 E40.23653
G1 X87.184 Y111.145 E40.83087
G1 X86.430 Y111.145 E40.85097
G1 X86.430 Y88.855 E41.44532
G1 X85.676 Y88.855 E41.46542
G1 X85.676 Y111.145 E42.05976
G1 X84.922 Y111.145 E42.07986
G1 X84.922 Y88.855 E42.67420
G1 X84.168 Y88.855 E42.69431
G1 X84.168 Y111.145 E43.28865
G1 X93.969 Y100.162 F7800.000
G1 X93.969 Y111.145 F3000.000 E43.58150
G1 X94.723 Y111.145 E43.60161
G1 X94.723 Y101.387 E43.86180
G1 X95.477 Y102.250 E43.89236
G1 X95.477 Y111.145 E44.12955
G1 X96.230 Y111.145 E44.14965
G1 X96.230 Y102.828 E44.37141
G1 X96.984 Y103.286 E44.39493
G1 X96.984 Y111.145 E44.60448
G1 X97.738 Y111.145 E44.62458
G1 X97.738 Y103.599 E44.82580
G1 X98.492 Y103.846 E44.84696
G1 X98.492 Y111.145 E45.04158
G1 X99.246 Y111.145 E45.06168
G1 X99.246 Y103.945 E45.25366
G1 X100.000 Y104.045 E45.27393
G1 X100.000 Y111.145 E45.46326
G1 X100.754 Y111.145 E45.48336
G1 X100.754 Y103.945 E45.67534
G1 X101.508 Y103.846 E45.69561
G1 X101.508 Y111.145 E45.89023
G1 X102.262 Y111.145 E45.91034
G1 X102.262 Y103.599 E46.11156
G1 X103.016 Y103.286 E46.13332
G1 X103.016 Y111.145 E46.34286
G1 X103.769 Y111.145 E46.36296
G1 X103.769 Y102.828 E46.58473
G1 X104.523 Y102.250 E46.61007
G1 X104.523 Y111.145 E46.84726
G1 X105.277 Y111.145 E46.86736
G1 X105.277 Y101.386 E47.12756
G1 X106.031 Y100.161 E47.16592
G1 X106.031 Y111.145 E47.45878
G1 X106.785 Y111.145 E47.47888
G1 X106.785 Y88.855 E48.07323
G1 X107.539 Y88.855 E48.09333
G1 X107.539 Y111.145 E48.68767
G1 X108.293 Y111.145 E48.70777
G1 X108.293 Y88.855 E49.30212
G1 X109.047 Y88.855 E49.32222
G1 X109.047 Y111.145 E49.91656
G1 X109.801 Y111.145 E49.93666
G1 X109.801 Y88.855 E50.53101
G1 X110.555 Y88.855 E50.55111
G1 X110.555 Y111.145 E51.14545
G1 X111.308 Y111.145 E51.16555
G1 X111.308 Y88.855 E51.75989
G1 X112.062 Y88.855 E51.78000
G1 X112.062 Y111.145 E52.37434
G1 X112.816 Y111.145 E52.39444
G1 X112.816 Y88.855 E52.98878
G1 X113.570 Y88.855 E53.00888
G1 X113.570 Y111.145 E53.60323
G1 X114.324 Y111.145 E53.62333
G1 X114.324 Y88.855 E54.21767
G1 X115.078 Y88.855 E54.23777
G1 X115.078 Y111.145 E54.83212
G1 X115.832 Y111.145 E54.85222
G1 X115.832 Y88.855 E55.44656
G1 X106.031 Y88.855 F7800.000
G1 X106.031 Y95.175 F3000.000 E55.61507
G1 X105.277 Y93.950 E55.65343
G1 X105.277 Y88.855 E55.78928
G1 X104.523 Y88.855 E55.80938
G1 X104.523 Y93.087 E55.92221
G1 X103.769 Y92.508 E55.94755
