; generated by Slic3r 0.9.8 on 2013-06-07 at 15:51:02

; layer_height = .25
; perimeters = 1
; top_solid_layers = 4
; bottom_solid_layers = 4
; fill_density = .9
; perimeter_speed = 30
; infill_speed = 40
; travel_speed = 130
; scale = 1
; nozzle_diameter = 0.5
; filament_diameter = 3
; extrusion_multiplier = 1
; perimeters extrusion width = 0.80mm
; infill extrusion width = 0.80mm
; first layer extrusion width = 0.50mm

M107
M104 S220 ; set temperature
G28 ; home all axes
M109 S220 ; wait for temperature to be reached
G90 ; use absolute coordinates
G21 ; set units to millimeters
G92 E0
M82 ; use absolute distances for extrusion
G1 Z0.250 F7800.000
G1 X131.985 Y120.118
G1 X71.145 Y120.118 F900.000 E1.07589
G1 X70.595 Y120.098 E1.08562
G1 X69.775 Y119.988 E1.10025
G1 X69.245 Y119.858 E1.10990
G1 X68.725 Y119.688 E1.11958
G1 X67.965 Y119.358 E1.13423
G1 X67.485 Y119.088 E1.14397
G1 X66.815 Y118.618 E1.15844
G1 X66.595 Y118.438 E1.16347
G1 X66.195 Y118.068 E1.17310
G1 X65.645 Y117.448 E1.18776
G1 X65.175 Y116.778 E1.20223
G1 X64.905 Y116.298 E1.21197
G1 X64.675 Y115.798 E1.22170
G1 X64.405 Y115.018 E1.23630
G1 X64.275 Y114.488 E1.24595
G1 X64.165 Y113.668 E1.26058
G1 X64.145 Y113.118 E1.27031
G1 X64.145 Y76.428 E1.91913
G1 X64.165 Y75.878 E1.92887
G1 X64.275 Y75.058 E1.94350
G1 X64.405 Y74.528 E1.95315
G1 X64.575 Y74.008 E1.96282
G1 X64.785 Y73.498 E1.97258
G1 X65.035 Y73.008 E1.98230
G1 X65.325 Y72.538 E1.99207
G1 X65.825 Y71.878 E2.00671
G1 X66.195 Y71.478 E2.01635
G1 X66.595 Y71.108 E2.02598
G1 X67.255 Y70.608 E2.04063
G1 X67.725 Y70.318 E2.05039
G1 X68.215 Y70.068 E2.06012
G1 X68.725 Y69.858 E2.06987
G1 X69.245 Y69.688 E2.07955
G1 X69.775 Y69.558 E2.08920
G1 X70.595 Y69.448 E2.10383
G1 X71.145 Y69.428 E2.11356
G1 X131.985 Y69.428 E3.18945
G1 X132.535 Y69.448 E3.19918
G1 X133.355 Y69.558 E3.21381
G1 X133.885 Y69.688 E3.22346
G1 X134.405 Y69.858 E3.23314
G1 X135.165 Y70.188 E3.24779
G1 X135.645 Y70.458 E3.25753
G1 X136.315 Y70.928 E3.27200
G1 X136.535 Y71.108 E3.27703
G1 X136.935 Y71.478 E3.28666
G1 X137.485 Y72.098 E3.30132
G1 X137.955 Y72.768 E3.31579
G1 X138.225 Y73.248 E3.32553
G1 X138.455 Y73.748 E3.33526
G1 X138.725 Y74.528 E3.34986
G1 X138.855 Y75.058 E3.35951
G1 X138.965 Y75.878 E3.37414
G1 X138.985 Y76.428 E3.38387
G1 X138.985 Y113.118 E4.03269
G1 X138.965 Y113.668 E4.04243
G1 X138.855 Y114.488 E4.05706
G1 X138.725 Y115.018 E4.06671
G1 X138.455 Y115.798 E4.08130
G1 X138.225 Y116.298 E4.09104
G1 X137.955 Y116.778 E4.10078
G1 X137.485 Y117.448 E4.11525
G1 X137.125 Y117.868 E4.12503
G1 X136.735 Y118.258 E4.13478
G1 X136.315 Y118.618 E4.14457
G1 X135.645 Y119.088 E4.15904
G1 X135.165 Y119.358 E4.16878
G1 X134.665 Y119.588 E4.17851
G1 X133.885 Y119.858 E4.19311
G1 X133.355 Y119.988 E4.20276
G1 X132.535 Y120.098 E4.21739
G1 X132.060 Y120.115 E4.22579
G1 X131.985 Y120.118 E4.22712
G1 X131.985 Y119.618 F7800.000
G1 X71.145 Y119.618 F900.000 E5.30301
G1 X70.625 Y119.598 E5.31221
G1 X70.105 Y119.538 E5.32147
G1 X69.585 Y119.428 E5.33087
G1 X69.085 Y119.288 E5.34005
G1 X68.845 Y119.198 E5.34458
G1 X68.355 Y118.988 E5.35401
G1 X67.895 Y118.748 E5.36318
G1 X67.245 Y118.318 E5.37697
G1 X66.835 Y117.988 E5.38627
G1 X66.275 Y117.428 E5.40028
G1 X65.945 Y117.018 E5.40959
G1 X65.795 Y116.808 E5.41415
G1 X65.385 Y116.138 E5.42804
G1 X65.165 Y115.668 E5.43722
G1 X64.975 Y115.178 E5.44651
G1 X64.775 Y114.418 E5.46041
G1 X64.725 Y114.158 E5.46509
G1 X64.665 Y113.638 E5.47435
G1 X64.645 Y113.118 E5.48355
G1 X64.645 Y76.428 E6.13237
G1 X64.665 Y75.908 E6.14157
G1 X64.725 Y75.388 E6.15083
G1 X64.835 Y74.868 E6.16023
G1 X64.975 Y74.368 E6.16941
G1 X65.165 Y73.878 E6.17870
G1 X65.385 Y73.408 E6.18788
G1 X65.795 Y72.738 E6.20177
G1 X66.275 Y72.118 E6.21564
G1 X66.455 Y71.928 E6.22027
G1 X66.835 Y71.558 E6.22964
G1 X67.245 Y71.228 E6.23895
G1 X67.895 Y70.798 E6.25273
G1 X68.355 Y70.558 E6.26191
G1 X69.085 Y70.258 E6.27587
G1 X69.585 Y70.118 E6.28505
G1 X70.105 Y70.008 E6.29445
G1 X70.625 Y69.948 E6.30370
G1 X71.145 Y69.928 E6.31291
G1 X131.985 Y69.928 E7.38879
G1 X132.505 Y69.948 E7.39800
G1 X133.025 Y70.008 E7.40725
G1 X133.545 Y70.118 E7.41665
G1 X134.045 Y70.258 E7.42583
G1 X134.285 Y70.348 E7.43037
G1 X134.775 Y70.558 E7.43979
G1 X135.235 Y70.798 E7.44897
G1 X135.885 Y71.228 E7.46275
G1 X136.295 Y71.558 E7.47206
G1 X136.855 Y72.118 E7.48606
G1 X137.185 Y72.528 E7.49537
G1 X137.335 Y72.738 E7.49993
G1 X137.745 Y73.408 E7.51382
G1 X137.965 Y73.878 E7.52300
G1 X138.155 Y74.368 E7.53230
G1 X138.355 Y75.128 E7.54619
G1 X138.405 Y75.388 E7.55087
G1 X138.465 Y75.908 E7.56013
G1 X138.485 Y76.428 E7.56933
G1 X138.485 Y113.118 E8.21816
G1 X138.465 Y113.638 E8.22736
G1 X138.405 Y114.158 E8.23661
G1 X138.355 Y114.418 E8.24130
G1 X138.155 Y115.178 E8.25519
G1 X137.965 Y115.668 E8.26449
G1 X137.745 Y116.138 E8.27366
G1 X137.615 Y116.368 E8.27834
G1 X137.185 Y117.018 E8.29212
G1 X136.855 Y117.428 E8.30143
G1 X136.295 Y117.988 E8.31543
G1 X135.885 Y118.318 E8.32474
G1 X135.235 Y118.748 E8.33852
G1 X134.775 Y118.988 E8.34770
G1 X134.285 Y119.198 E8.35712
G1 X134.045 Y119.288 E8.36166
G1 X133.545 Y119.428 E8.37084
G1 X133.025 Y119.538 E8.38024
G1 X132.505 Y119.598 E8.38949
G1 X132.060 Y119.615 E8.39737
G1 X131.985 Y119.618 E8.39870
G1 X79.575 Y112.626 F7800.000
G1 X71.647 Y112.626 F900.000 E8.53889
G1 X71.647 Y76.938 E9.17000
G1 X79.575 Y76.938 E9.31019
G1 X79.575 Y78.612 E9.33980
G1 X72.215 Y78.612 E9.46994
G1 X72.215 Y80.076 E9.49583
G1 X72.215 Y110.950 E10.04180
G1 X79.575 Y110.950 E10.17195
G1 X79.575 Y112.551 E10.20026
G1 X79.575 Y112.626 E10.20159
G1 X80.075 Y113.126 F7800.000
G1 X71.147 Y113.126 F900.000 E10.35947
G1 X71.147 Y76.438 E11.00825
G1 X80.075 Y76.438 E11.16613
G1 X80.075 Y79.112 E11.21342
G1 X72.715 Y79.112 E11.34357
G1 X72.715 Y80.076 E11.36061
G1 X72.715 Y110.450 E11.89775
G1 X80.075 Y110.450 E12.02789
G1 X80.075 Y113.051 E12.07389
G1 X80.075 Y113.126 E12.07521
G1 X79.642 Y112.876 F7800.000
G1 X74.279 Y108.626
G1 X74.279 Y81.303 F900.000 E12.55838
G1 X79.575 Y81.316 E12.65203
G1 X128.861 Y81.303 E13.52359
G1 X128.861 Y108.626 E14.00676
G1 X74.354 Y108.626 E14.97065
G1 X74.279 Y108.626 E14.97197
G1 X73.779 Y109.126 F7800.000
G1 X73.779 Y80.802 F900.000 E15.47285
G1 X80.075 Y80.816 E15.58418
G1 X129.361 Y80.802 E16.45574
G1 X129.361 Y109.126 E16.95661
G1 X73.854 Y109.126 E17.93818
G1 X73.779 Y109.126 E17.93950
G1 X74.029 Y108.693 F7800.000
G1 X123.567 Y110.950
G1 X130.925 Y110.950 F900.000 E18.06962
G1 X130.925 Y109.486 E18.09550
G1 X130.925 Y78.612 E18.64148
G1 X123.567 Y78.612 E18.77159
G1 X123.567 Y76.938 E18.80119
G1 X131.493 Y76.938 E18.94135
G1 X131.493 Y112.626 E19.57246
G1 X123.567 Y112.626 E19.71262
G1 X123.567 Y111.025 E19.74093
G1 X123.567 Y110.950 E19.74226
G1 X123.067 Y110.450 F7800.000
G1 X130.425 Y110.450 F900.000 E19.87237
G1 X130.425 Y109.486 E19.88941
G1 X130.425 Y79.112 E20.42655
G1 X123.067 Y79.112 E20.55666
G1 X123.067 Y76.438 E20.60394
G1 X131.993 Y76.438 E20.76179
G1 X131.993 Y113.126 E21.41058
G1 X123.067 Y113.126 E21.56842
G1 X123.067 Y110.525 E21.61442
G1 X123.067 Y110.450 E21.61575
G1 X123.500 Y110.700 F7800.000
G1 X131.218 Y111.450
G1 X123.842 Y111.450 F1500.000 E21.79209
G1 X123.842 Y112.126 E21.80825
G1 X131.218 Y112.126 E21.98460
G1 X128.586 Y108.126 F7800.000
G1 X74.554 Y108.126 F1500.000 E22.95191
G1 X74.554 Y107.620 E22.96097
G1 X128.586 Y107.620 E23.92828
G1 X128.586 Y107.114 E23.93734
G1 X74.554 Y107.114 E24.90465
G1 X74.554 Y106.607 E24.91371
G1 X128.586 Y106.607 E25.88102
G1 X128.586 Y106.101 E25.89008
G1 X74.554 Y106.101 E26.85738
G1 X74.554 Y105.595 E26.86645
G1 X128.586 Y105.595 E27.83375
G1 X128.586 Y105.089 E27.84281
G1 X74.554 Y105.089 E28.81012
G1 X74.554 Y104.583 E28.81918
G1 X128.586 Y104.583 E29.78649
G1 X128.586 Y104.077 E29.79555
G1 X74.554 Y104.077 E30.76286
G1 X74.554 Y103.570 E30.77192
G1 X128.586 Y103.570 E31.73923
G1 X128.586 Y103.064 E31.74829
G1 X74.554 Y103.064 E32.71560
G1 X74.554 Y102.558 E32.72466
G1 X128.586 Y102.558 E33.69197
G1 X128.586 Y102.052 E33.70103
G1 X74.554 Y102.052 E34.66834
G1 X74.554 Y101.546 E34.67740
G1 X128.586 Y101.546 E35.64471
G1 X128.586 Y101.039 E35.65377
G1 X74.554 Y101.039 E36.62107
G1 X74.554 Y100.533 E36.63014
G1 X128.586 Y100.533 E37.59744
G1 X128.586 Y100.027 E37.60651
G1 X74.554 Y100.027 E38.57381
G1 X74.554 Y99.521 E38.58288
G1 X128.586 Y99.521 E39.55018
G1 X128.586 Y99.015 E39.55924
G1 X74.554 Y99.015 E40.52655
G1 X74.554 Y98.508 E40.53561
G1 X128.586 Y98.508 E41.50292
G1 X128.586 Y98.002 E41.51198
G1 X74.554 Y98.002 E42.47929
G1 X74.554 Y97.496 E42.48835
G1 X128.586 Y97.496 E43.45566
G1 X128.586 Y96.990 E43.46472
G1 X74.554 Y96.990 E44.43203
G1 X74.554 Y96.484 E44.44109
G1 X128.586 Y96.484 E45.40840
G1 X128.586 Y95.978 E45.41746
G1 X74.554 Y95.978 E46.38477
G1 X74.554 Y95.471 E46.39383
G1 X128.586 Y95.471 E47.36113
G1 X128.586 Y94.965 E47.37020
G1 X74.554 Y94.965 E48.33750
G1 X74.554 Y94.459 E48.34657
G1 X128.586 Y94.459 E49.31387
G1 X128.586 Y93.953 E49.32294
G1 X74.554 Y93.953 E50.29024
G1 X74.554 Y93.447 E50.29930
G1 X128.586 Y93.447 E51.26661
G1 X128.586 Y92.940 E51.27567
G1 X74.554 Y92.940 E52.24298
G1 X74.554 Y92.434 E52.25204
G1 X128.586 Y92.434 E53.21935
G1 X128.586 Y91.928 E53.22841
G1 X74.554 Y91.928 E54.19572
G1 X74.554 Y91.422 E54.20478
G1 X128.586 Y91.422 E55.17209
G1 X128.586 Y90.916 E55.18115
G1 X74.554 Y90.916 E56.14846
G1 X74.554 Y90.409 E56.15752
G1 X128.586 Y90.409 E57.12483
G1 X128.586 Y89.903 E57.13389
G1 X74.554 Y89.903 E58.10119
G1 X74.554 Y89.397 E58.11026
G1 X128.586 Y89.397 E59.07756
G1 X128.586 Y88.891 E59.08662
G1 X74.554 Y88.891 E60.05393
G1 X74.554 Y88.385 E60.06299
G1 X128.586 Y88.385 E61.03030
G1 X128.586 Y87.879 E61.03936
G1 X74.554 Y87.879 E62.00667
G1 X74.554 Y87.372 E62.01573
G1 X128.586 Y87.372 E62.98304
G1 X128.586 Y86.866 E62.99210
G1 X74.554 Y86.866 E63.95941
G1 X74.554 Y86.360 E63.96847
G1 X128.586 Y86.360 E64.93578
G1 X128.586 Y85.854 E64.94484
G1 X74.554 Y85.854 E65.91215
G1 X74.554 Y85.348 E65.92121
G1 X128.586 Y85.348 E66.88852
G1 X128.586 Y84.841 E66.89758
G1 X74.554 Y84.841 E67.86488
G1 X74.554 Y84.335 E67.87395
G1 X128.586 Y84.335 E68.84125
G1 X128.586 Y83.829 E68.85032
G1 X74.554 Y83.829 E69.81762
G1 X74.554 Y83.323 E69.82668
G1 X128.586 Y83.323 E70.79399
G1 X128.586 Y82.817 E70.80305
G1 X74.554 Y82.817 E71.77036
G1 X74.554 Y82.310 E71.77942
G1 X128.586 Y82.310 E72.74673
G1 X128.586 Y81.804 E72.75579
G1 X74.554 Y81.804 E73.72310
G1 X131.218 Y78.112 F7800.000
G1 X123.842 Y78.112 F1500.000 E73.89894
G1 X123.842 Y77.438 E73.91501
G1 X131.218 Y77.438 E74.09084
G1 X79.300 Y77.438 F7800.000
G1 X71.922 Y77.438 F1500.000 E74.26673
G1 X71.922 Y78.112 E74.28280
G1 X79.300 Y78.112 E74.45868
G1 X79.300 Y111.450 F7800.000
G1 X71.922 Y111.450 F1500.000 E74.63507
G1 X71.922 Y112.126 E74.65124
G1 X79.300 Y112.126 E74.82763
G1 Z0.500 F7800.000
G1 X79.179 Y112.230
G1 X72.043 Y112.230 F600.000 E75.01598
G1 X72.043 Y111.346 E75.03929
G1 X79.179 Y111.346 E75.22764
G1 X79.179 Y112.118 E75.24800
G1 X79.179 Y112.230 E75.25096
G1 X79.179 Y78.216 F7800.000
G1 X72.043 Y78.216 F600.000 E75.43931
G1 X72.043 Y77.334 E75.46257
G1 X79.179 Y77.334 E75.65092
G1 X79.179 Y78.104 E75.67123
G1 X79.179 Y78.216 E75.67418
G1 X79.925 Y78.962 F7800.000
G1 X72.530 Y78.962 F1800.000 E75.86938
G1 X72.530 Y81.504 E75.93647
G1 X72.530 Y110.600 E76.70452
G1 X79.925 Y110.600 E76.89971
G1 X79.925 Y112.976 E76.96243
G1 X71.297 Y112.976 E77.19018
G1 X71.297 Y76.588 E78.15071
G1 X79.925 Y76.588 E78.37846
G1 X79.925 Y78.850 E78.43817
G1 X79.925 Y78.962 E78.44112
G1 X79.279 Y78.589 F7800.000
G1 X79.925 Y80.964
G1 X129.246 Y80.952 F1800.000 E79.74303
G1 X129.246 Y108.976 E80.48276
G1 X73.894 Y108.976 E81.94386
G1 X73.894 Y80.952 E82.68359
G1 X79.813 Y80.964 E82.83982
G1 X79.925 Y80.964 E82.84278
G1 X123.963 Y111.346 F7800.000
G1 X131.097 Y111.346 F600.000 E83.03108
G1 X131.097 Y112.230 E83.05439
G1 X123.963 Y112.230 E83.24269
G1 X123.963 Y111.458 E83.26305
G1 X123.963 Y111.346 E83.26600
G1 X123.963 Y78.216 F7800.000
G1 X123.963 Y77.334 F600.000 E83.28927
G1 X131.097 Y77.334 E83.47756
G1 X131.097 Y78.216 E83.50083
G1 X124.075 Y78.216 E83.68617
G1 X123.963 Y78.216 E83.68912
G1 X123.217 Y78.962 F7800.000
G1 X123.217 Y76.588 F1800.000 E83.75179
G1 X131.843 Y76.588 E83.97949
G1 X131.843 Y112.976 E84.94001
G1 X123.217 Y112.976 E85.16771
G1 X123.217 Y110.600 E85.23043
G1 X130.610 Y110.600 E85.42558
G1 X130.610 Y78.962 E86.26071
G1 X123.329 Y78.962 E86.45291
G1 X123.217 Y78.962 E86.45586
G1 X123.590 Y78.316 F7800.000
G1 X128.499 Y81.364
G1 X128.499 Y108.566 F3000.000 E87.17553
G1 X127.751 Y108.566 E87.19532
G1 X127.751 Y81.364 E87.91498
G1 X127.003 Y81.364 E87.93477
G1 X127.003 Y108.566 E88.65442
G1 X126.255 Y108.566 E88.67422
G1 X126.255 Y81.364 E89.39387
G1 X125.507 Y81.365 E89.41366
G1 X125.507 Y108.566 E90.13330
G1 X124.759 Y108.566 E90.15309
G1 X124.759 Y81.365 E90.87273
G1 X124.011 Y81.365 E90.89252
G1 X124.011 Y108.566 E91.61216
G1 X123.263 Y108.566 E91.63194
G1 X123.263 Y81.365 E92.35157
G1 X122.515 Y81.365 E92.37137
G1 X122.515 Y108.566 E93.09099
G1 X121.767 Y108.566 E93.11078
G1 X121.767 Y81.366 E93.83040
G1 X121.019 Y81.366 E93.85019
G1 X121.019 Y108.566 E94.56980
G1 X120.271 Y108.566 E94.58959
G1 X120.271 Y81.366 E95.30920
G1 X119.523 Y81.366 E95.32899
G1 X119.523 Y108.566 E96.04860
G1 X118.775 Y108.566 E96.06839
G1 X118.775 Y81.366 E96.78799
G1 X118.027 Y81.366 E96.80778
G1 X118.027 Y108.566 E97.52737
G1 X117.279 Y108.566 E97.54717
G1 X117.279 Y81.367 E98.26676
G1 X116.531 Y81.367 E98.28655
G1 X116.531 Y108.566 E99.00613
G1 X115.783 Y108.566 E99.02592
G1 X115.783 Y81.367 E99.74550
G1 X115.035 Y81.367 E99.76529
G1 X115.035 Y108.566 E100.48486
G1 X114.287 Y108.566 E100.50465
G1 X114.287 Y81.367 E101.22422
G1 X113.539 Y81.368 E101.24401
G1 X113.539 Y108.566 E101.96358
G1 X112.791 Y108.566 E101.98337
G1 X112.791 Y81.368 E102.70293
G1 X112.043 Y81.368 E102.72271
G1 X112.043 Y108.566 E103.44227
G1 X111.294 Y108.566 E103.46206
G1 X111.294 Y81.368 E104.18161
G1 X110.546 Y81.368 E104.20140
G1 X110.546 Y108.566 E104.92094
G1 X109.798 Y108.566 E104.94074
G1 X109.798 Y81.369 E105.66028
G1 X109.050 Y81.369 E105.68007
G1 X109.050 Y108.566 E106.39960
G1 X108.302 Y108.566 E106.41939
G1 X108.302 Y81.369 E107.13892
G1 X107.554 Y81.369 E107.15871
G1 X107.554 Y108.566 E107.87823
G1 X106.806 Y108.566 E107.89802
G1 X106.806 Y81.369 E108.61754
G1 X106.058 Y81.370 E108.63733
G1 X106.058 Y108.566 E109.35684
G1 X105.310 Y108.566 E109.37663
G1 X105.310 Y81.370 E110.09614
G1 X104.562 Y81.370 E110.11593
G1 X104.562 Y108.566 E110.83544
G1 X103.814 Y108.566 E110.85523
G1 X103.814 Y81.370 E111.57473
G1 X103.066 Y81.370 E111.59452
G1 X103.066 Y108.566 E112.31401
G1 X102.318 Y108.566 E112.33380
G1 X102.318 Y81.370 E113.05329
G1 X101.570 Y81.371 E113.07308
G1 X101.570 Y108.566 E113.79256
G1 X100.822 Y108.566 E113.81235
G1 X100.822 Y81.371 E114.53183
G1 X100.074 Y81.371 E114.55162
G1 X100.074 Y108.566 E115.27110
G1 X99.326 Y108.566 E115.29088
G1 X99.326 Y81.371 E116.01035
G1 X98.578 Y81.371 E116.03014
G1 X98.578 Y108.566 E116.74961
G1 X97.830 Y108.566 E116.76940
G1 X97.830 Y81.372 E117.48885
G1 X97.082 Y81.372 E117.50864
G1 X97.082 Y108.566 E118.22810
G1 X96.334 Y108.566 E118.24789
G1 X96.334 Y81.372 E118.96733
G1 X95.586 Y81.372 E118.98712
G1 X95.586 Y108.566 E119.70657
G1 X94.838 Y108.566 E119.72636
G1 X94.838 Y81.372 E120.44580
G1 X94.090 Y81.373 E120.46559
G1 X94.090 Y108.566 E121.18502
G1 X93.341 Y108.566 E121.20481
G1 X93.341 Y81.373 E121.92424
G1 X92.593 Y81.373 E121.94403
G1 X92.593 Y108.566 E122.66345
G1 X91.845 Y108.566 E122.68325
