; generated by Slic3r 0.9.8 on 2013-07-04 at 14:43:53

; layer_height = .25
; perimeters = 1
; top_solid_layers = 4
; bottom_solid_layers = 4
; fill_density = .9
; perimeter_speed = 30
; infill_speed = 40
; travel_speed = 130
; scale = 1
; nozzle_diameter = 0.5
; filament_diameter = 3
; extrusion_multiplier = 1
; perimeters extrusion width = 0.80mm
; infill extrusion width = 0.80mm
; first layer extrusion width = 0.50mm

M107
M104 S220 ; set temperature
G28 ; home all axes
M109 S220 ; wait for temperature to be reached
G90 ; use absolute coordinates
G21 ; set units to millimeters
G92 E0
M82 ; use absolute distances for extrusion
G1 Z0.250 F7800.000
G1 X111.069 Y110.809
G1 X110.809 Y111.069 F900.000 E0.00650
G1 X110.269 Y111.529 E0.01905
G1 X108.219 Y113.099 E0.06471
G1 X107.589 Y113.489 E0.07781
G1 X106.919 Y113.809 E0.09094
G1 X104.869 Y114.659 E0.13019
G1 X104.529 Y114.789 E0.13662
G1 X103.829 Y114.999 E0.14955
G1 X103.109 Y115.129 E0.16249
G1 X100.919 Y115.419 E0.20155
G1 X100.189 Y115.479 E0.21450
G1 X99.449 Y115.459 E0.22759
G1 X99.089 Y115.419 E0.23400
G1 X96.519 Y115.069 E0.27987
G1 X96.159 Y114.999 E0.28635
G1 X95.799 Y114.899 E0.29296
G1 X95.109 Y114.649 E0.30594
G1 X93.069 Y113.799 E0.34502
G1 X92.409 Y113.489 E0.35791
G1 X92.099 Y113.309 E0.36425
G1 X91.789 Y113.109 E0.37078
G1 X89.739 Y111.539 E0.41644
G1 X89.459 Y111.319 E0.42274
G1 X89.189 Y111.069 E0.42924
G1 X88.929 Y110.819 E0.43562
G1 X88.459 Y110.269 E0.44842
G1 X86.919 Y108.259 E0.49319
G1 X86.589 Y107.739 E0.50408
G1 X86.169 Y106.889 E0.52085
G1 X85.199 Y104.509 E0.56630
G1 X84.999 Y103.819 E0.57900
G1 X84.869 Y103.109 E0.59177
G1 X84.579 Y100.919 E0.63083
G1 X84.519 Y100.189 E0.64379
G1 X84.539 Y99.449 E0.65688
G1 X84.869 Y96.889 E0.70252
G1 X84.999 Y96.169 E0.71546
G1 X85.209 Y95.469 E0.72838
G1 X85.339 Y95.129 E0.73482
G1 X86.179 Y93.089 E0.77384
G1 X86.489 Y92.429 E0.78673
G1 X86.879 Y91.799 E0.79983
G1 X87.099 Y91.499 E0.80641
G1 X88.679 Y89.449 E0.85218
G1 X88.919 Y89.179 E0.85857
G1 X89.449 Y88.679 E0.87145
G1 X91.499 Y87.099 E0.91722
G1 X91.799 Y86.879 E0.92380
G1 X92.429 Y86.489 E0.93691
G1 X93.089 Y86.179 E0.94980
G1 X95.129 Y85.339 E0.98881
G1 X95.469 Y85.209 E0.99525
G1 X96.169 Y84.999 E1.00818
G1 X96.889 Y84.869 E1.02111
G1 X99.089 Y84.579 E1.06035
G1 X99.819 Y84.519 E1.07331
G1 X100.549 Y84.539 E1.08622
G1 X103.109 Y84.869 E1.13187
G1 X103.819 Y84.999 E1.14463
G1 X104.159 Y85.089 E1.15085
G1 X104.509 Y85.199 E1.15734
G1 X104.839 Y85.329 E1.16361
G1 X106.889 Y86.169 E1.20279
G1 X107.739 Y86.589 E1.21955
G1 X108.259 Y86.919 E1.23045
G1 X108.519 Y87.109 E1.23614
G1 X110.269 Y88.459 E1.27522
G1 X110.819 Y88.929 E1.28802
G1 X111.319 Y89.459 E1.30090
G1 X113.109 Y91.789 E1.35286
G1 X113.489 Y92.409 E1.36572
G1 X113.799 Y93.069 E1.37862
G1 X114.649 Y95.109 E1.41770
G1 X114.899 Y95.799 E1.43068
G1 X114.999 Y96.159 E1.43728
G1 X115.129 Y96.889 E1.45040
G1 X115.419 Y99.089 E1.48964
G1 X115.479 Y99.819 E1.50259
G1 X115.459 Y100.549 E1.51550
G1 X115.129 Y103.109 E1.56115
G1 X114.999 Y103.829 E1.57409
G1 X114.789 Y104.529 E1.58701
G1 X114.659 Y104.869 E1.59345
G1 X113.659 Y107.259 E1.63926
G1 X113.299 Y107.909 E1.65240
G1 X112.879 Y108.519 E1.66550
G1 X111.529 Y110.269 E1.70458
G1 X111.119 Y110.753 E1.71580
G1 X111.069 Y110.809 E1.71713
G1 X110.699 Y110.469 F7800.000
G1 X110.219 Y110.929 F900.000 E1.72889
G1 X108.209 Y112.489 E1.77388
G1 X107.649 Y112.879 E1.78595
G1 X107.349 Y113.049 E1.79205
G1 X106.729 Y113.339 E1.80415
G1 X104.359 Y114.319 E1.84950
G1 X103.709 Y114.509 E1.86148
G1 X103.039 Y114.629 E1.87351
G1 X100.849 Y114.919 E1.91258
G1 X100.169 Y114.979 E1.92465
G1 X99.489 Y114.959 E1.93668
G1 X96.609 Y114.579 E1.98805
G1 X95.949 Y114.419 E2.00006
G1 X95.299 Y114.189 E2.01226
G1 X93.259 Y113.339 E2.05134
G1 X92.649 Y113.049 E2.06328
G1 X92.359 Y112.879 E2.06923
G1 X91.799 Y112.499 E2.08119
G1 X90.039 Y111.149 E2.12042
G1 X89.529 Y110.709 E2.13233
G1 X89.289 Y110.469 E2.13833
G1 X88.849 Y109.959 E2.15024
G1 X87.499 Y108.209 E2.18933
G1 X87.109 Y107.639 E2.20154
G1 X86.929 Y107.329 E2.20788
G1 X86.639 Y106.699 E2.22015
G1 X85.679 Y104.339 E2.26520
G1 X85.569 Y104.019 E2.27118
G1 X85.489 Y103.699 E2.27702
G1 X85.369 Y103.039 E2.28888
G1 X85.079 Y100.849 E2.32795
G1 X85.019 Y100.169 E2.34002
G1 X85.039 Y99.489 E2.35205
G1 X85.419 Y96.619 E2.40324
G1 X85.579 Y95.959 E2.41525
G1 X85.799 Y95.329 E2.42705
G1 X86.779 Y92.969 E2.47224
G1 X87.099 Y92.369 E2.48427
G1 X87.489 Y91.799 E2.49648
G1 X88.839 Y90.039 E2.53571
G1 X89.279 Y89.529 E2.54762
G1 X89.529 Y89.279 E2.55387
G1 X90.039 Y88.839 E2.56578
G1 X91.799 Y87.489 E2.60501
G1 X92.369 Y87.099 E2.61722
G1 X92.669 Y86.929 E2.62332
G1 X93.289 Y86.639 E2.63542
G1 X95.639 Y85.679 E2.68031
G1 X96.289 Y85.489 E2.69229
G1 X96.949 Y85.369 E2.70415
G1 X99.149 Y85.079 E2.74339
G1 X99.829 Y85.019 E2.75546
G1 X100.509 Y85.039 E2.76749
G1 X103.369 Y85.419 E2.81851
G1 X104.019 Y85.569 E2.83031
G1 X104.649 Y85.799 E2.84217
G1 X107.019 Y86.779 E2.88752
G1 X107.329 Y86.929 E2.89361
G1 X107.639 Y87.109 E2.89995
G1 X108.209 Y87.499 E2.91217
G1 X109.959 Y88.849 E2.95125
G1 X110.469 Y89.289 E2.96316
G1 X110.939 Y89.779 E2.97517
G1 X112.499 Y91.799 E3.02030
G1 X112.699 Y92.079 E3.02639
G1 X113.049 Y92.649 E3.03822
G1 X113.339 Y93.259 E3.05016
G1 X114.189 Y95.299 E3.08924
G1 X114.419 Y95.949 E3.10143
G1 X114.509 Y96.279 E3.10748
G1 X114.629 Y96.949 E3.11952
G1 X114.919 Y99.149 E3.15876
G1 X114.979 Y99.829 E3.17083
G1 X114.959 Y100.509 E3.18286
G1 X114.629 Y103.039 E3.22798
G1 X114.509 Y103.709 E3.24002
G1 X114.319 Y104.359 E3.25199
G1 X113.339 Y106.729 E3.29735
G1 X113.049 Y107.349 E3.30945
G1 X112.879 Y107.649 E3.31555
G1 X112.489 Y108.209 E3.32762
G1 X111.139 Y109.959 E3.36670
G1 X110.750 Y110.414 E3.37729
G1 X110.699 Y110.469 E3.37861
G1 X102.499 Y102.499 F7800.000
G1 X101.767 Y103.061 F300.000 E3.39493
G1 X100.915 Y103.414 E3.41125
G1 X100.000 Y103.535 E3.42757
G1 X99.085 Y103.414 E3.44388
G1 X98.233 Y103.061 E3.46020
G1 X97.501 Y102.499 E3.47652
G1 X96.939 Y101.767 E3.49283
G1 X96.586 Y100.915 E3.50915
G1 X96.465 Y100.000 E3.52547
G1 X96.586 Y99.085 E3.54179
G1 X96.939 Y98.233 E3.55810
G1 X97.501 Y97.501 E3.57442
G1 X98.233 Y96.939 E3.59074
G1 X99.085 Y96.586 E3.60705
G1 X100.000 Y96.465 E3.62337
G1 X100.915 Y96.586 E3.63969
G1 X101.767 Y96.939 E3.65601
G1 X102.499 Y97.501 E3.67232
G1 X103.061 Y98.233 E3.68864
G1 X103.414 Y99.085 E3.70496
G1 X103.535 Y100.000 E3.72127
G1 X103.414 Y100.915 E3.73759
G1 X103.061 Y101.767 E3.75391
G1 X102.545 Y102.440 E3.76890
G1 X102.499 Y102.499 E3.77023
G1 X102.143 Y102.143 F7800.000
G1 X101.515 Y102.624 F300.000 E3.78421
G1 X100.784 Y102.927 E3.79820
G1 X100.000 Y103.030 E3.81219
G1 X99.216 Y102.927 E3.82618
G1 X98.485 Y102.624 E3.84017
G1 X97.857 Y102.143 E3.85416
G1 X97.376 Y101.515 E3.86815
G1 X97.073 Y100.784 E3.88214
G1 X96.970 Y100.000 E3.89613
G1 X97.073 Y99.216 E3.91012
G1 X97.376 Y98.485 E3.92411
G1 X97.857 Y97.857 E3.93809
G1 X98.485 Y97.376 E3.95208
G1 X99.216 Y97.073 E3.96607
G1 X100.000 Y96.970 E3.98006
G1 X100.784 Y97.073 E3.99405
G1 X101.515 Y97.376 E4.00804
G1 X102.143 Y97.857 E4.02203
G1 X102.624 Y98.485 E4.03602
G1 X102.927 Y99.216 E4.05001
G1 X103.030 Y100.000 E4.06400
G1 X102.927 Y100.784 E4.07799
G1 X102.624 Y101.515 E4.09197
G1 X102.188 Y102.083 E4.10464
G1 X102.143 Y102.143 E4.10596
G1 X102.251 Y102.631 F7800.000
G1 X105.639 Y105.639
G1 X103.987 Y106.906 F900.000 E4.14278
G1 X102.064 Y107.703 E4.17959
G1 X100.000 Y107.975 E4.21641
G1 X97.936 Y107.703 E4.25322
G1 X96.013 Y106.906 E4.29004
G1 X94.361 Y105.639 E4.32685
G1 X93.094 Y103.987 E4.36367
G1 X92.297 Y102.064 E4.40048
G1 X92.025 Y100.000 E4.43730
G1 X92.297 Y97.936 E4.47411
G1 X93.094 Y96.013 E4.51093
G1 X94.361 Y94.361 E4.54774
G1 X96.013 Y93.094 E4.58456
G1 X97.936 Y92.297 E4.62137
G1 X100.000 Y92.025 E4.65819
G1 X102.064 Y92.297 E4.69500
G1 X103.987 Y93.094 E4.73182
G1 X105.639 Y94.361 E4.76863
G1 X106.906 Y96.013 E4.80545
G1 X107.703 Y97.936 E4.84226
G1 X107.975 Y100.000 E4.87908
G1 X107.703 Y102.064 E4.91589
G1 X106.906 Y103.987 E4.95271
G1 X105.685 Y105.580 E4.98820
G1 X105.639 Y105.639 E4.98952
G1 X105.996 Y105.996 F7800.000
G1 X104.240 Y107.343 F900.000 E5.02866
G1 X102.195 Y108.190 E5.06781
G1 X100.000 Y108.479 E5.10695
G1 X97.805 Y108.190 E5.14609
G1 X95.760 Y107.343 E5.18524
G1 X94.004 Y105.996 E5.22438
G1 X92.657 Y104.240 E5.26352
G1 X91.810 Y102.195 E5.30267
G1 X91.521 Y100.000 E5.34181
G1 X91.810 Y97.805 E5.38095
G1 X92.657 Y95.760 E5.42009
G1 X94.004 Y94.004 E5.45924
G1 X95.760 Y92.657 E5.49838
G1 X97.805 Y91.810 E5.53752
G1 X100.000 Y91.521 E5.57667
G1 X102.195 Y91.810 E5.61581
G1 X104.240 Y92.657 E5.65495
G1 X105.996 Y94.004 E5.69410
G1 X107.343 Y95.760 E5.73324
G1 X108.190 Y97.805 E5.77238
G1 X108.479 Y100.000 E5.81153
G1 X108.190 Y102.195 E5.85067
G1 X107.343 Y104.240 E5.88981
G1 X106.041 Y105.936 E5.92763
G1 X105.996 Y105.996 E5.92895
G1 X105.519 Y105.845 F7800.000
G1 X106.596 Y103.864
G1 X100.910 Y103.864 F1500.000 E6.03256
G1 X101.988 Y103.349 E6.05434
G1 X106.855 Y103.349 E6.14301
G1 X107.068 Y102.834 E6.15317
G1 X102.648 Y102.834 E6.23372
G1 X103.043 Y102.318 E6.24555
G1 X107.282 Y102.318 E6.32278
G1 X107.458 Y101.803 E6.33271
G1 X103.362 Y101.803 E6.40734
G1 X103.576 Y101.288 E6.41750
G1 X107.526 Y101.288 E6.48949
G1 X107.594 Y100.773 E6.49895
G1 X103.712 Y100.773 E6.56969
G1 X103.780 Y100.258 E6.57915
G1 X107.662 Y100.258 E6.64989
G1 X107.662 Y99.742 E6.65928
G1 X103.780 Y99.742 E6.73001
G1 X103.712 Y99.227 E6.73948
G1 X107.594 Y99.227 E6.81021
G1 X107.526 Y98.712 E6.81968
G1 X103.576 Y98.712 E6.89166
G1 X103.362 Y98.197 E6.90182
G1 X107.458 Y98.197 E6.97646
G1 X107.282 Y97.682 E6.98638
G1 X103.043 Y97.682 E7.06361
G1 X102.648 Y97.166 E7.07544
G1 X107.068 Y97.166 E7.15599
G1 X106.855 Y96.651 E7.16615
G1 X101.988 Y96.651 E7.25482
G1 X100.910 Y96.136 E7.27660
G1 X106.596 Y96.136 E7.38021
G1 X106.201 Y95.621 E7.39204
G1 X93.799 Y95.621 E7.61801
G1 X93.404 Y96.136 E7.62984
G1 X99.090 Y96.136 E7.73345
G1 X98.012 Y96.651 E7.75523
G1 X93.145 Y96.651 E7.84390
G1 X92.932 Y97.166 E7.85406
G1 X97.352 Y97.166 E7.93461
G1 X96.957 Y97.682 E7.94644
G1 X92.718 Y97.682 E8.02367
G1 X92.542 Y98.197 E8.03360
G1 X96.638 Y98.197 E8.10823
G1 X96.424 Y98.712 E8.11839
G1 X92.474 Y98.712 E8.19037
G1 X92.406 Y99.227 E8.19984
G1 X96.288 Y99.227 E8.27057
G1 X96.220 Y99.742 E8.28004
G1 X92.338 Y99.742 E8.35077
G1 X92.338 Y100.258 E8.36016
G1 X96.220 Y100.258 E8.43089
G1 X96.288 Y100.773 E8.44036
G1 X92.406 Y100.773 E8.51109
G1 X92.474 Y101.288 E8.52056
G1 X96.424 Y101.288 E8.59254
G1 X96.638 Y101.803 E8.60270
G1 X92.542 Y101.803 E8.67734
G1 X92.718 Y102.318 E8.68726
G1 X96.957 Y102.318 E8.76449
G1 X97.352 Y102.834 E8.77632
G1 X92.932 Y102.834 E8.85687
G1 X93.145 Y103.349 E8.86703
G1 X98.012 Y103.349 E8.95571
G1 X99.090 Y103.864 E8.97748
G1 X93.404 Y103.864 E9.08109
G1 X93.799 Y104.379 E9.09292
G1 X106.201 Y104.379 E9.31889
G1 X105.805 Y104.894 E9.33073
G1 X94.195 Y104.894 E9.54229
G1 X94.658 Y105.410 E9.55492
G1 X105.342 Y105.410 E9.74959
G1 X104.670 Y105.925 E9.76501
G1 X95.330 Y105.925 E9.93522
G1 X96.001 Y106.440 E9.95064
G1 X103.999 Y106.440 E10.09637
G1 X102.788 Y106.955 E10.12035
G1 X97.212 Y106.955 E10.22195
G1 X99.774 Y107.470 E10.26958
G1 X100.226 Y107.470 E10.27780
G1 X105.805 Y95.106 F7800.000
G1 X94.195 Y95.106 F1500.000 E10.48937
G1 X94.658 Y94.590 E10.50200
G1 X105.342 Y94.590 E10.69667
G1 X104.670 Y94.075 E10.71209
G1 X95.330 Y94.075 E10.88229
G1 X96.001 Y93.560 E10.89772
G1 X103.999 Y93.560 E11.04345
G1 X102.788 Y93.045 E11.06743
G1 X97.212 Y93.045 E11.16903
G1 X99.774 Y92.529 E11.21665
G1 X100.226 Y92.529 E11.22488
M106 S255
G1 Z0.500 F7800.000
G1 X100.000 Y96.818
G1 X100.823 Y96.927 F600.000 E11.24681
G1 X101.591 Y97.245 E11.26874
G1 X102.250 Y97.750 E11.29066
G1 X102.755 Y98.409 E11.31258
G1 X103.073 Y99.177 E11.33451
G1 X103.182 Y100.000 E11.35643
G1 X103.073 Y100.823 E11.37835
G1 X102.755 Y101.591 E11.40028
G1 X102.250 Y102.250 E11.42220
G1 X101.591 Y102.755 E11.44412
G1 X100.823 Y103.073 E11.46605
G1 X100.000 Y103.182 E11.48797
G1 X99.177 Y103.073 E11.50990
G1 X98.409 Y102.755 E11.53182
G1 X97.750 Y102.250 E11.55375
G1 X97.245 Y101.591 E11.57567
G1 X96.927 Y100.823 E11.59759
G1 X96.818 Y100.000 E11.61952
G1 X96.927 Y99.177 E11.64144
G1 X97.245 Y98.409 E11.66337
G1 X97.750 Y97.750 E11.68529
G1 X98.409 Y97.245 E11.70721
G1 X99.177 Y96.927 E11.72914
G1 X99.889 Y96.833 E11.74810
G1 X100.000 Y96.818 E11.75106
G1 X100.401 Y96.189 F7800.000
G1 X100.000 Y91.672
G1 X102.155 Y91.956 F981.501 E11.80845
G1 X104.164 Y92.788 E11.86583
G1 X105.889 Y94.111 E11.92322
G1 X107.212 Y95.836 E11.98060
G1 X108.044 Y97.845 E12.03799
G1 X108.328 Y100.000 E12.09538
G1 X108.044 Y102.155 E12.15276
G1 X107.212 Y104.164 E12.21015
G1 X105.889 Y105.889 E12.26754
G1 X104.164 Y107.212 E12.32492
G1 X102.155 Y108.044 E12.38231
G1 X100.000 Y108.328 E12.43969
G1 X97.845 Y108.044 E12.49708
G1 X95.836 Y107.212 E12.55447
G1 X94.111 Y105.889 E12.61185
G1 X92.788 Y104.164 E12.66924
G1 X91.956 Y102.155 E12.72663
G1 X91.672 Y100.000 E12.78401
G1 X91.956 Y97.845 E12.84140
G1 X92.788 Y95.836 E12.89878
G1 X94.111 Y94.111 E12.95617
G1 X95.836 Y92.788 E13.01356
G1 X97.845 Y91.956 E13.07094
G1 X99.889 Y91.687 E13.12537
G1 X100.000 Y91.672 E13.12833
G1 X103.787 Y99.287 F7800.000
G1 X103.787 Y93.104 F1635.835 E13.29398
G1 X103.030 Y92.790 E13.31595
G1 X103.030 Y97.877 E13.45224
G1 X102.272 Y97.163 E13.48013
G1 X102.272 Y92.476 E13.60569
G1 X101.515 Y92.288 E13.62660
G1 X101.515 Y96.741 E13.74590
G1 X100.757 Y96.501 E13.76719
G1 X100.757 Y92.189 E13.88273
G1 X100.000 Y92.089 E13.90320
G1 X100.000 Y96.402 E14.01874
G1 X99.242 Y96.501 E14.03921
G1 X99.242 Y92.189 E14.15475
G1 X98.485 Y92.288 E14.17522
G1 X98.485 Y96.741 E14.29452
G1 X97.727 Y97.163 E14.31775
G1 X97.727 Y92.476 E14.44331
G1 X96.970 Y92.790 E14.46528
G1 X96.970 Y97.877 E14.60157
G1 X96.212 Y99.287 E14.64444
G1 X96.212 Y93.104 E14.81010
G1 X95.455 Y93.685 E14.83568
G1 X95.455 Y106.315 E15.17405
G1 X94.697 Y105.734 E15.19963
G1 X94.697 Y94.266 E15.50685
G1 X93.940 Y95.225 E15.53957
G1 X93.940 Y104.775 E15.79545
G1 X93.182 Y103.502 E15.83514
G1 X93.182 Y96.498 E16.02280
G1 X92.425 Y99.663 E16.11001
G1 X92.425 Y100.337 E16.12804
G1 X96.212 Y100.713 F7800.000
G1 X96.212 Y106.896 F1635.835 E16.29369
G1 X96.970 Y107.210 E16.31566
G1 X96.970 Y102.123 E16.45195
G1 X97.727 Y102.837 E16.47984
G1 X97.727 Y107.524 E16.60541
G1 X98.485 Y107.712 E16.62631
G1 X98.485 Y103.259 E16.74562
G1 X99.242 Y103.499 E16.76691
G1 X99.242 Y107.811 E16.88245
G1 X100.000 Y107.911 E16.90292
G1 X100.000 Y103.598 E17.01845
G1 X100.757 Y103.499 E17.03892
G1 X100.757 Y107.811 E17.15446
G1 X101.515 Y107.712 E17.17493
G1 X101.515 Y103.259 E17.29423
G1 X102.272 Y102.837 E17.31746
G1 X102.272 Y107.524 E17.44302
G1 X103.030 Y107.210 E17.46498
G1 X103.030 Y102.123 E17.60127
G1 X103.787 Y100.713 F7800.000
G1 X103.787 Y106.896 F1635.835 E17.76692
G1 X104.545 Y106.315 E17.79251
G1 X104.545 Y93.685 E18.13087
G1 X105.302 Y94.266 E18.15645
G1 X105.302 Y105.734 E18.46367
G1 X106.060 Y104.775 E18.49640
G1 X106.060 Y95.225 E18.75228
G1 X106.817 Y96.498 E18.79196
G1 X106.817 Y103.502 E18.97963
G1 X107.575 Y100.337 E19.06683
G1 X107.575 Y99.663 E19.08487
G1 Z0.750 F7800.000
G1 X103.182 Y100.000
G1 X103.073 Y100.823 F600.000 E19.10680
G1 X102.755 Y101.591 E19.12872
G1 X102.250 Y102.250 E19.15064
G1 X101.591 Y102.755 E19.17257
G1 X100.823 Y103.073 E19.19449
G1 X100.000 Y103.182 E19.21642
G1 X99.177 Y103.073 E19.23834
G1 X98.409 Y102.755 E19.26026
G1 X97.813 Y102.298 E19.28011
