; generated by Slic3r 0.9.8 on 2013-06-11 at 12:56:14

; layer_height = .25
; perimeters = 1
; top_solid_layers = 4
; bottom_solid_layers = 4
; fill_density = .9
; perimeter_speed = 30
; infill_speed = 40
; travel_speed = 130
; scale = 1
; nozzle_diameter = 0.5
; filament_diameter = 3
; extrusion_multiplier = 1
; perimeters extrusion width = 0.80mm
; infill extrusion width = 0.80mm
; first layer extrusion width = 0.50mm

M107
M104 S220 ; set temperature
G28 ; home all axes
M109 S220 ; wait for temperature to be reached
G90 ; use absolute coordinates
G21 ; set units to millimeters
G92 E0
M82 ; use absolute distances for extrusion
G1 Z0.250 F7800.000
G1 X131.985 Y120.117
G1 X71.145 Y120.117 F900.000 E1.07589
G1 X70.595 Y120.097 E1.08562
G1 X69.775 Y119.987 E1.10025
G1 X69.245 Y119.857 E1.10990
G1 X68.725 Y119.687 E1.11958
G1 X67.965 Y119.357 E1.13423
G1 X67.485 Y119.087 E1.14397
G1 X66.815 Y118.617 E1.15844
G1 X66.595 Y118.437 E1.16347
G1 X66.195 Y118.067 E1.17310
G1 X65.645 Y117.447 E1.18776
G1 X65.175 Y116.777 E1.20223
G1 X64.905 Y116.297 E1.21197
G1 X64.675 Y115.797 E1.22170
G1 X64.405 Y115.017 E1.23630
G1 X64.275 Y114.487 E1.24595
G1 X64.165 Y113.667 E1.26058
G1 X64.145 Y113.117 E1.27031
G1 X64.145 Y76.427 E1.91913
G1 X64.165 Y75.877 E1.92887
G1 X64.275 Y75.057 E1.94350
G1 X64.405 Y74.527 E1.95315
G1 X64.575 Y74.007 E1.96282
G1 X64.785 Y73.497 E1.97258
G1 X65.035 Y73.007 E1.98230
G1 X65.325 Y72.537 E1.99207
G1 X65.825 Y71.877 E2.00671
G1 X66.195 Y71.477 E2.01635
G1 X66.595 Y71.107 E2.02598
G1 X67.255 Y70.607 E2.04063
G1 X67.725 Y70.317 E2.05039
G1 X68.215 Y70.067 E2.06012
G1 X68.725 Y69.857 E2.06987
G1 X69.245 Y69.687 E2.07955
G1 X69.775 Y69.557 E2.08920
G1 X70.595 Y69.447 E2.10383
G1 X71.145 Y69.427 E2.11356
G1 X131.985 Y69.427 E3.18945
G1 X132.535 Y69.447 E3.19918
G1 X133.355 Y69.557 E3.21381
G1 X133.885 Y69.687 E3.22346
G1 X134.405 Y69.857 E3.23314
G1 X135.165 Y70.187 E3.24779
G1 X135.645 Y70.457 E3.25753
G1 X136.315 Y70.927 E3.27200
G1 X136.535 Y71.107 E3.27703
G1 X136.935 Y71.477 E3.28666
G1 X137.485 Y72.097 E3.30132
G1 X137.955 Y72.767 E3.31579
G1 X138.225 Y73.247 E3.32553
G1 X138.455 Y73.747 E3.33526
G1 X138.725 Y74.527 E3.34986
G1 X138.855 Y75.057 E3.35951
G1 X138.965 Y75.877 E3.37414
G1 X138.985 Y76.427 E3.38387
G1 X138.985 Y113.117 E4.03269
G1 X138.965 Y113.667 E4.04243
G1 X138.855 Y114.487 E4.05706
G1 X138.725 Y115.017 E4.06671
G1 X138.455 Y115.797 E4.08130
G1 X138.225 Y116.297 E4.09104
G1 X137.955 Y116.777 E4.10078
G1 X137.485 Y117.447 E4.11525
G1 X137.125 Y117.867 E4.12503
G1 X136.735 Y118.257 E4.13478
G1 X136.315 Y118.617 E4.14457
G1 X135.645 Y119.087 E4.15904
G1 X135.165 Y119.357 E4.16878
G1 X134.665 Y119.587 E4.17851
G1 X133.885 Y119.857 E4.19311
G1 X133.355 Y119.987 E4.20276
G1 X132.535 Y120.097 E4.21739
G1 X132.060 Y120.114 E4.22579
G1 X131.985 Y120.117 E4.22712
G1 X131.985 Y119.617 F7800.000
G1 X71.145 Y119.617 F900.000 E5.30301
G1 X70.625 Y119.597 E5.31221
G1 X70.105 Y119.537 E5.32147
G1 X69.585 Y119.427 E5.33087
G1 X69.085 Y119.287 E5.34005
G1 X68.845 Y119.197 E5.34458
G1 X68.355 Y118.987 E5.35401
G1 X67.895 Y118.747 E5.36318
G1 X67.245 Y118.317 E5.37697
G1 X66.835 Y117.987 E5.38627
G1 X66.275 Y117.427 E5.40028
G1 X65.945 Y117.017 E5.40959
G1 X65.795 Y116.807 E5.41415
G1 X65.385 Y116.137 E5.42804
G1 X65.165 Y115.667 E5.43722
G1 X64.975 Y115.177 E5.44651
G1 X64.775 Y114.417 E5.46041
G1 X64.725 Y114.157 E5.46509
G1 X64.665 Y113.637 E5.47435
G1 X64.645 Y113.117 E5.48355
G1 X64.645 Y76.427 E6.13237
G1 X64.665 Y75.907 E6.14157
G1 X64.725 Y75.387 E6.15083
G1 X64.835 Y74.867 E6.16023
G1 X64.975 Y74.367 E6.16941
G1 X65.165 Y73.877 E6.17870
G1 X65.385 Y73.407 E6.18788
G1 X65.795 Y72.737 E6.20177
G1 X66.275 Y72.117 E6.21564
G1 X66.455 Y71.927 E6.22027
G1 X66.835 Y71.557 E6.22964
G1 X67.245 Y71.227 E6.23895
G1 X67.895 Y70.797 E6.25273
G1 X68.355 Y70.557 E6.26191
G1 X69.085 Y70.257 E6.27587
G1 X69.585 Y70.117 E6.28505
G1 X70.105 Y70.007 E6.29445
G1 X70.625 Y69.947 E6.30370
G1 X71.145 Y69.927 E6.31291
G1 X131.985 Y69.927 E7.38879
G1 X132.505 Y69.947 E7.39800
G1 X133.025 Y70.007 E7.40725
G1 X133.545 Y70.117 E7.41665
G1 X134.045 Y70.257 E7.42583
G1 X134.285 Y70.347 E7.43037
G1 X134.775 Y70.557 E7.43979
G1 X135.235 Y70.797 E7.44897
G1 X135.885 Y71.227 E7.46275
G1 X136.295 Y71.557 E7.47206
G1 X136.855 Y72.117 E7.48606
G1 X137.185 Y72.527 E7.49537
G1 X137.335 Y72.737 E7.49993
G1 X137.745 Y73.407 E7.51382
G1 X137.965 Y73.877 E7.52300
G1 X138.155 Y74.367 E7.53230
G1 X138.355 Y75.127 E7.54619
G1 X138.405 Y75.387 E7.55087
G1 X138.465 Y75.907 E7.56013
G1 X138.485 Y76.427 E7.56933
G1 X138.485 Y113.117 E8.21816
G1 X138.465 Y113.637 E8.22736
G1 X138.405 Y114.157 E8.23661
G1 X138.355 Y114.417 E8.24130
G1 X138.155 Y115.177 E8.25519
G1 X137.965 Y115.667 E8.26449
G1 X137.745 Y116.137 E8.27366
G1 X137.615 Y116.367 E8.27834
G1 X137.185 Y117.017 E8.29212
G1 X136.855 Y117.427 E8.30143
G1 X136.295 Y117.987 E8.31543
G1 X135.885 Y118.317 E8.32474
G1 X135.235 Y118.747 E8.33852
G1 X134.775 Y118.987 E8.34770
G1 X134.285 Y119.197 E8.35712
G1 X134.045 Y119.287 E8.36166
G1 X133.545 Y119.427 E8.37084
G1 X133.025 Y119.537 E8.38024
G1 X132.505 Y119.597 E8.38949
G1 X132.060 Y119.614 E8.39737
G1 X131.985 Y119.617 E8.39870
G1 X105.972 Y99.231 F7800.000
G1 X97.168 Y99.231 F900.000 E8.55439
G1 X92.767 Y91.607 E8.71006
G1 X97.168 Y83.983 E8.86573
G1 X105.972 Y83.983 E9.02142
G1 X110.373 Y91.607 E9.17709
G1 X106.010 Y99.166 E9.33144
G1 X105.972 Y99.231 E9.33276
G1 X105.683 Y98.731 F7800.000
G1 X97.457 Y98.731 F900.000 E9.47824
G1 X93.344 Y91.607 E9.62371
G1 X97.457 Y84.483 E9.76917
G1 X105.683 Y84.483 E9.91465
G1 X109.796 Y91.607 E10.06011
G1 X105.721 Y98.666 E10.20425
G1 X105.683 Y98.731 E10.20557
G1 X105.597 Y99.223 F7800.000
G1 X123.567 Y110.951
G1 X130.925 Y110.951 F900.000 E10.33569
G1 X130.925 Y109.487 E10.36157
G1 X130.925 Y78.613 E10.90755
G1 X123.567 Y78.613 E11.03766
G1 X123.567 Y76.937 E11.06730
G1 X131.493 Y76.937 E11.20746
G1 X131.493 Y112.625 E11.83856
G1 X123.567 Y112.625 E11.97872
G1 X123.567 Y111.026 E12.00700
G1 X123.567 Y110.951 E12.00833
G1 X79.575 Y110.951 F7800.000
G1 X79.575 Y112.625 F900.000 E12.03793
G1 X71.647 Y112.625 E12.17813
G1 X71.647 Y76.937 E12.80923
G1 X79.575 Y76.937 E12.94943
G1 X79.575 Y78.613 E12.97907
G1 X72.215 Y78.613 E13.10921
G1 X72.215 Y110.951 E13.68107
G1 X79.500 Y110.951 E13.80989
G1 X79.575 Y110.951 E13.81122
G1 X79.575 Y108.625 F7800.000
G1 X74.279 Y108.625 F900.000 E13.90486
G1 X74.279 Y81.304 E14.38800
G1 X81.075 Y81.318 E14.50817
G1 X81.075 Y78.141 E14.56436
G1 X122.067 Y78.141 E15.28926
G1 X122.067 Y81.317 E15.34542
G1 X128.861 Y81.305 E15.46556
G1 X128.861 Y108.625 E15.94869
G1 X123.567 Y108.625 E16.04230
G1 X123.567 Y105.451 E16.09843
G1 X79.575 Y105.451 E16.87638
G1 X79.575 Y108.550 E16.93118
G1 X79.575 Y108.625 E16.93251
G1 X80.075 Y109.125 F7800.000
G1 X73.779 Y109.125 F900.000 E17.04384
G1 X73.779 Y80.803 E17.54468
G1 X80.575 Y80.817 E17.66485
G1 X80.575 Y79.113 E17.69499
G1 X72.715 Y79.113 E17.83397
G1 X72.715 Y110.451 E18.38815
G1 X80.075 Y110.451 E18.51830
G1 X80.075 Y113.125 E18.56558
G1 X71.147 Y113.125 E18.72346
G1 X71.147 Y76.437 E19.37225
G1 X80.075 Y76.437 E19.53013
G1 X80.075 Y77.641 E19.55142
G1 X123.067 Y77.641 E20.31169
G1 X123.067 Y76.437 E20.33298
G1 X131.993 Y76.437 E20.49083
G1 X131.993 Y113.125 E21.13961
G1 X123.067 Y113.125 E21.29746
G1 X123.067 Y110.451 E21.34475
G1 X130.425 Y110.451 E21.47486
G1 X130.425 Y79.113 E22.02903
G1 X122.567 Y79.113 E22.16799
G1 X122.567 Y80.817 E22.19812
G1 X129.361 Y80.804 E22.31825
G1 X129.361 Y109.125 E22.81909
G1 X123.067 Y109.125 E22.93038
G1 X123.067 Y105.951 E22.98651
G1 X80.075 Y105.951 E23.74678
G1 X80.075 Y109.050 E23.80158
G1 X80.075 Y109.125 E23.80290
G1 X79.642 Y108.875 F7800.000
G1 X131.218 Y111.451
G1 X123.842 Y111.451 F1500.000 E23.97874
G1 X123.842 Y112.125 E23.99481
G1 X131.218 Y112.125 E24.17065
G1 X128.586 Y108.125 F7800.000
G1 X123.842 Y108.125 F1500.000 E24.25594
G1 X123.842 Y107.617 E24.26508
G1 X128.586 Y107.617 E24.35036
G1 X128.586 Y107.108 E24.35950
G1 X123.842 Y107.108 E24.44479
G1 X123.842 Y106.600 E24.45393
G1 X128.586 Y106.600 E24.53922
G1 X128.586 Y106.092 E24.54836
G1 X123.842 Y106.092 E24.63365
G1 X123.842 Y105.583 E24.64278
G1 X128.586 Y105.583 E24.72807
G1 X128.586 Y105.075 E24.73721
G1 X123.842 Y105.075 E24.82250
G1 X128.586 Y104.567 F7800.000
G1 X74.554 Y104.567 F1500.000 E25.79393
G1 X74.554 Y104.058 E25.80307
G1 X128.586 Y104.058 E26.77450
G1 X128.586 Y103.550 E26.78364
G1 X74.554 Y103.550 E27.75507
G1 X74.554 Y103.042 E27.76421
G1 X128.586 Y103.042 E28.73564
G1 X128.586 Y102.533 E28.74478
G1 X74.554 Y102.533 E29.71621
G1 X74.554 Y102.025 E29.72534
G1 X128.586 Y102.025 E30.69677
G1 X128.586 Y101.516 E30.70592
G1 X74.554 Y101.516 E31.67734
G1 X74.554 Y101.008 E31.68648
G1 X128.586 Y101.008 E32.65791
G1 X128.586 Y100.500 E32.66705
G1 X74.554 Y100.500 E33.63848
G1 X74.554 Y99.991 E33.64762
G1 X128.586 Y99.991 E34.61905
G1 X128.586 Y99.483 E34.62819
G1 X106.179 Y99.483 E35.03105
G1 X106.472 Y98.975 E35.04160
G1 X128.586 Y98.975 E35.43918
G1 X128.586 Y98.466 E35.44832
G1 X106.766 Y98.466 E35.84062
G1 X107.059 Y97.958 E35.85117
G1 X128.586 Y97.958 E36.23820
G1 X128.586 Y97.450 E36.24734
G1 X107.352 Y97.450 E36.62909
G1 X107.646 Y96.941 E36.63965
G1 X128.586 Y96.941 E37.01612
G1 X128.586 Y96.433 E37.02526
G1 X107.939 Y96.433 E37.39646
G1 X108.233 Y95.925 E37.40702
G1 X128.586 Y95.925 E37.77294
G1 X128.586 Y95.416 E37.78208
G1 X108.526 Y95.416 E38.14273
G1 X108.820 Y94.908 E38.15328
G1 X128.586 Y94.908 E38.50866
G1 X128.586 Y94.400 E38.51779
G1 X109.113 Y94.400 E38.86789
G1 X109.407 Y93.891 E38.87844
G1 X128.586 Y93.891 E39.22326
G1 X128.586 Y93.383 E39.23241
G1 X109.700 Y93.383 E39.57195
G1 X109.993 Y92.875 E39.58250
G1 X128.586 Y92.875 E39.91677
G1 X128.586 Y92.366 E39.92591
G1 X110.287 Y92.366 E40.25491
G1 X110.580 Y91.858 E40.26546
G1 X128.586 Y91.858 E40.58918
G1 X128.586 Y91.350 E40.59832
G1 X110.577 Y91.350 E40.92210
G1 X110.283 Y90.841 E40.93265
G1 X128.586 Y90.841 E41.26171
G1 X128.586 Y90.333 E41.27086
G1 X109.990 Y90.333 E41.60519
G1 X109.696 Y89.825 E41.61574
G1 X128.586 Y89.825 E41.95535
G1 X128.586 Y89.316 E41.96450
G1 X109.403 Y89.316 E42.30938
G1 X109.109 Y88.808 E42.31994
G1 X128.586 Y88.808 E42.67010
G1 X128.586 Y88.300 E42.67924
G1 X108.816 Y88.300 E43.03468
G1 X108.523 Y87.791 E43.04523
G1 X128.586 Y87.791 E43.40595
G1 X128.586 Y87.283 E43.41509
G1 X108.229 Y87.283 E43.78108
G1 X107.936 Y86.774 E43.79163
G1 X128.586 Y86.774 E44.16290
G1 X128.586 Y86.266 E44.17204
G1 X107.642 Y86.266 E44.54858
G1 X107.349 Y85.758 E44.55913
G1 X128.586 Y85.758 E44.94095
G1 X128.586 Y85.249 E44.95009
G1 X107.055 Y85.249 E45.33719
G1 X106.762 Y84.741 E45.34774
G1 X128.586 Y84.741 E45.74011
G1 X128.586 Y84.233 E45.74925
G1 X106.468 Y84.233 E46.14690
G1 X106.175 Y83.724 E46.15745
G1 X128.586 Y83.724 E46.56037
G1 X128.586 Y83.216 E46.56951
G1 X74.554 Y83.216 E47.54094
G1 X74.554 Y83.724 E47.55008
G1 X96.965 Y83.724 E47.95300
G1 X96.672 Y84.233 E47.96356
G1 X74.554 Y84.233 E48.36120
G1 X74.554 Y84.741 E48.37034
G1 X96.378 Y84.741 E48.76271
G1 X96.085 Y85.249 E48.77327
G1 X74.554 Y85.249 E49.16036
G1 X74.554 Y85.758 E49.16950
G1 X95.791 Y85.758 E49.55132
G1 X95.498 Y86.266 E49.56187
G1 X74.554 Y86.266 E49.93841
G1 X74.554 Y86.774 E49.94755
G1 X95.204 Y86.774 E50.31882
G1 X94.911 Y87.283 E50.32937
G1 X74.554 Y87.283 E50.69536
G1 X74.554 Y87.791 E50.70450
G1 X94.617 Y87.791 E51.06522
G1 X94.324 Y88.300 E51.07577
G1 X74.554 Y88.300 E51.43121
G1 X74.554 Y88.808 E51.44035
G1 X94.031 Y88.808 E51.79051
G1 X93.737 Y89.316 E51.80107
G1 X74.554 Y89.316 E52.14595
G1 X74.554 Y89.825 E52.15509
G1 X93.444 Y89.825 E52.49471
G1 X93.150 Y90.333 E52.50526
G1 X74.554 Y90.333 E52.83959
G1 X74.554 Y90.841 E52.84873
G1 X92.857 Y90.841 E53.17780
G1 X92.563 Y91.350 E53.18835
G1 X74.554 Y91.350 E53.51213
G1 X74.554 Y91.858 E53.52127
G1 X92.560 Y91.858 E53.84499
G1 X92.853 Y92.366 E53.85554
G1 X74.554 Y92.366 E54.18454
G1 X74.554 Y92.875 E54.19368
G1 X93.147 Y92.875 E54.52795
G1 X93.440 Y93.383 E54.53850
G1 X74.554 Y93.383 E54.87804
G1 X74.554 Y93.891 E54.88718
G1 X93.733 Y93.891 E55.23201
G1 X94.027 Y94.400 E55.24256
G1 X74.554 Y94.400 E55.59265
G1 X74.554 Y94.908 E55.60179
G1 X94.320 Y94.908 E55.95717
G1 X94.614 Y95.416 E55.96772
G1 X74.554 Y95.416 E56.32837
G1 X74.554 Y95.925 E56.33751
G1 X94.907 Y95.925 E56.70343
G1 X95.201 Y96.433 E56.71398
G1 X74.554 Y96.433 E57.08518
G1 X74.554 Y96.941 E57.09432
G1 X95.494 Y96.941 E57.47080
G1 X95.788 Y97.450 E57.48135
G1 X74.554 Y97.450 E57.86310
G1 X74.554 Y97.958 E57.87224
G1 X96.081 Y97.958 E58.25927
G1 X96.374 Y98.466 E58.26982
G1 X74.554 Y98.466 E58.66213
G1 X74.554 Y98.975 E58.67126
G1 X96.668 Y98.975 E59.06884
G1 X96.961 Y99.483 E59.07940
G1 X74.554 Y99.483 E59.48225
G1 X74.554 Y105.075 F7800.000
G1 X79.300 Y105.075 F1500.000 E59.56758
G1 X79.300 Y105.583 E59.57672
G1 X74.554 Y105.583 E59.66204
G1 X74.554 Y106.092 E59.67118
G1 X79.300 Y106.092 E59.75650
G1 X79.300 Y106.600 E59.76564
G1 X74.554 Y106.600 E59.85097
G1 X74.554 Y107.108 E59.86011
G1 X79.300 Y107.108 E59.94543
G1 X79.300 Y107.617 E59.95457
G1 X74.554 Y107.617 E60.03989
G1 X74.554 Y108.125 E60.04903
G1 X79.300 Y108.125 E60.13436
G1 X74.554 Y82.708 F7800.000
G1 X128.586 Y82.708 F1500.000 E61.10579
G1 X128.586 Y82.199 E61.11493
G1 X74.554 Y82.199 E62.08636
G1 X81.350 Y81.691 F7800.000
G1 X121.792 Y81.691 F1500.000 E62.81347
G1 X121.792 Y81.183 E62.82261
G1 X81.350 Y81.183 E63.54972
G1 X81.350 Y80.674 E63.55886
G1 X121.792 Y80.674 E64.28597
G1 X121.792 Y80.166 E64.29511
G1 X81.350 Y80.166 E65.02223
G1 X81.350 Y79.658 E65.03136
G1 X121.792 Y79.658 E65.75848
G1 X121.792 Y79.149 E65.76762
G1 X81.350 Y79.149 E66.49473
G1 X81.350 Y78.641 E66.50387
G1 X121.792 Y78.641 E67.23098
G1 X123.255 Y78.488 F7800.000
G1 X122.379 Y78.488 F600.000 E67.25257
G1 X131.218 Y78.113 F7800.000
G1 X123.842 Y78.113 F1500.000 E67.42893
G1 X123.842 Y77.437 E67.44510
G1 X131.218 Y77.437 E67.62146
G1 X80.763 Y78.488 F7800.000
G1 X79.887 Y78.488 F600.000 E67.64305
G1 X79.300 Y78.113 F7800.000
G1 X71.922 Y78.113 F1500.000 E67.81946
G1 X71.922 Y77.437 E67.83563
G1 X79.300 Y77.437 E68.01204
G1 X79.300 Y111.451 F7800.000
G1 X71.922 Y111.451 F1500.000 E68.18792
G1 X71.922 Y112.125 E68.20399
G1 X79.300 Y112.125 E68.37988
G1 Z0.500 F7800.000
G1 X96.939 Y99.627
G1 X92.309 Y91.607 F1800.000 E68.62433
G1 X96.939 Y83.587 E68.86878
G1 X106.201 Y83.587 E69.11326
G1 X110.831 Y91.607 E69.35771
G1 X106.201 Y99.627 E69.60216
G1 X97.051 Y99.627 E69.84369
G1 X96.939 Y99.627 E69.84664
G1 X97.370 Y98.881 F7800.000
G1 X93.171 Y91.607 F1800.000 E70.06835
G1 X97.370 Y84.333 E70.29005
G1 X105.770 Y84.333 E70.51178
G1 X109.969 Y91.607 E70.73349
G1 X105.770 Y98.881 E70.95519
G1 X97.482 Y98.881 E71.17396
G1 X97.370 Y98.881 E71.17692
G1 X96.669 Y99.136 F7800.000
G1 X123.963 Y111.347
G1 X131.097 Y111.347 F600.000 E71.36522
G1 X131.097 Y112.229 E71.38848
G1 X123.963 Y112.229 E71.57678
G1 X123.963 Y111.459 E71.59709
G1 X123.963 Y111.347 E71.60004
G1 X79.179 Y111.347 F7800.000
G1 X79.179 Y112.229 F600.000 E71.62330
G1 X72.043 Y112.229 E71.81165
G1 X72.043 Y111.347 E71.83492
G1 X79.067 Y111.347 E72.02031
G1 X79.179 Y111.347 E72.02326
G1 X79.179 Y108.229 F7800.000
G1 X74.641 Y108.229 F1800.000 E72.14305
G1 X74.641 Y81.701 E72.84330
G1 X81.471 Y81.715 E73.02361
G1 X81.471 Y78.537 E73.10749
G1 X121.671 Y78.537 E74.16862
G1 X121.671 Y81.713 E74.25244
G1 X128.499 Y81.702 E74.43269
G1 X128.499 Y108.229 E75.13292
G1 X123.963 Y108.229 E75.25265
