; generated by Slic3r 0.9.8 on 2013-07-02 at 12:50:59

; layer_height = .25
; perimeters = 1
; top_solid_layers = 4
; bottom_solid_layers = 4
; fill_density = .9
; perimeter_speed = 30
; infill_speed = 40
; travel_speed = 130
; scale = 1
; nozzle_diameter = 0.5
; filament_diameter = 3
; extrusion_multiplier = 1
; perimeters extrusion width = 0.80mm
; infill extrusion width = 0.80mm
; first layer extrusion width = 0.50mm

M107
M104 S220 ; set temperature
G28 ; home all axes
M109 S220 ; wait for temperature to be reached
G90 ; use absolute coordinates
G21 ; set units to millimeters
G92 E0
M82 ; use absolute distances for extrusion
G1 Z0.250 F7800.000
G1 X113.452 Y110.011
G1 X113.032 Y110.381 F900.000 E0.00990
G1 X112.342 Y110.881 E0.02497
G1 X103.242 Y116.131 E0.21075
G1 X102.472 Y116.481 E0.22571
G1 X101.662 Y116.731 E0.24070
G1 X100.832 Y116.881 E0.25561
G1 X100.552 Y116.911 E0.26059
G1 X99.992 Y116.931 E0.27050
G1 X99.432 Y116.911 E0.28041
G1 X99.152 Y116.881 E0.28539
G1 X98.322 Y116.731 E0.30031
G1 X97.512 Y116.481 E0.31530
G1 X96.742 Y116.131 E0.33026
G1 X87.882 Y111.021 E0.51113
G1 X87.642 Y110.881 E0.51604
G1 X87.182 Y110.561 E0.52595
G1 X86.532 Y110.011 E0.54101
G1 X85.962 Y109.391 E0.55590
G1 X85.782 Y109.171 E0.56093
G1 X85.462 Y108.701 E0.57098
G1 X85.182 Y108.211 E0.58096
G1 X84.832 Y107.441 E0.59592
G1 X84.582 Y106.641 E0.61074
G1 X84.432 Y105.801 E0.62583
G1 X84.402 Y105.521 E0.63081
G1 X84.382 Y104.961 E0.64072
G1 X84.382 Y95.021 E0.81650
G1 X84.402 Y94.461 E0.82641
G1 X84.472 Y93.901 E0.83639
G1 X84.582 Y93.341 E0.84648
G1 X84.742 Y92.801 E0.85644
G1 X84.942 Y92.281 E0.86629
G1 X85.182 Y91.771 E0.87626
G1 X85.462 Y91.281 E0.88624
G1 X85.782 Y90.811 E0.89629
G1 X86.142 Y90.381 E0.90621
G1 X86.532 Y89.971 E0.91622
G1 X86.952 Y89.601 E0.92611
G1 X87.642 Y89.101 E0.94118
G1 X96.742 Y83.851 E1.12697
G1 X97.512 Y83.501 E1.14192
G1 X98.322 Y83.251 E1.15692
G1 X99.152 Y83.101 E1.17183
G1 X99.432 Y83.071 E1.17681
G1 X99.992 Y83.051 E1.18672
G1 X100.552 Y83.071 E1.19663
G1 X100.832 Y83.101 E1.20161
G1 X101.662 Y83.251 E1.21652
G1 X102.472 Y83.501 E1.23151
G1 X103.242 Y83.851 E1.24647
G1 X112.102 Y88.961 E1.42734
G1 X112.342 Y89.101 E1.43226
G1 X112.802 Y89.421 E1.44217
G1 X113.452 Y89.971 E1.45722
G1 X114.022 Y90.591 E1.47212
G1 X114.202 Y90.811 E1.47714
G1 X114.522 Y91.281 E1.48720
G1 X114.802 Y91.771 E1.49718
G1 X115.152 Y92.541 E1.51214
G1 X115.402 Y93.341 E1.52696
G1 X115.552 Y94.181 E1.54205
G1 X115.582 Y94.461 E1.54703
G1 X115.602 Y95.021 E1.55694
G1 X115.602 Y104.961 E1.73271
G1 X115.582 Y105.521 E1.74262
G1 X115.552 Y105.801 E1.74760
G1 X115.402 Y106.641 E1.76269
G1 X115.242 Y107.181 E1.77265
G1 X115.042 Y107.701 E1.78250
G1 X114.802 Y108.211 E1.79247
G1 X114.522 Y108.701 E1.80245
G1 X114.202 Y109.171 E1.81251
G1 X113.842 Y109.601 E1.82242
G1 X113.505 Y109.958 E1.83110
G1 X113.452 Y110.011 E1.83243
G1 X113.152 Y109.601 F7800.000
G1 X112.532 Y110.141 F900.000 E1.84697
G1 X111.852 Y110.591 E1.86139
G1 X103.002 Y115.691 E2.04202
G1 X102.262 Y116.021 E2.05635
G1 X101.472 Y116.261 E2.07095
G1 X100.942 Y116.361 E2.08049
G1 X100.402 Y116.421 E2.09009
G1 X100.132 Y116.431 E2.09487
G1 X99.582 Y116.421 E2.10460
G1 X99.042 Y116.361 E2.11421
G1 X98.512 Y116.261 E2.12375
G1 X97.722 Y116.021 E2.13835
G1 X97.222 Y115.811 E2.14794
G1 X96.742 Y115.561 E2.15751
G1 X88.132 Y110.591 E2.33331
G1 X87.672 Y110.301 E2.34293
G1 X87.032 Y109.791 E2.35740
G1 X86.642 Y109.411 E2.36703
G1 X86.122 Y108.781 E2.38147
G1 X85.682 Y108.091 E2.39594
G1 X85.442 Y107.601 E2.40559
G1 X85.242 Y107.101 E2.41512
G1 X85.082 Y106.581 E2.42474
G1 X84.972 Y106.041 E2.43448
G1 X84.902 Y105.501 E2.44411
G1 X84.882 Y104.961 E2.45367
G1 X84.882 Y95.021 E2.62945
G1 X84.902 Y94.481 E2.63900
G1 X84.932 Y94.211 E2.64381
G1 X85.082 Y93.401 E2.65837
G1 X85.242 Y92.881 E2.66799
G1 X85.442 Y92.381 E2.67752
G1 X85.682 Y91.891 E2.68717
G1 X85.972 Y91.421 E2.69693
G1 X86.292 Y90.981 E2.70655
G1 X86.642 Y90.571 E2.71609
G1 X87.032 Y90.191 E2.72572
G1 X87.452 Y89.841 E2.73538
G1 X88.132 Y89.391 E2.74980
G1 X96.982 Y84.291 E2.93043
G1 X97.722 Y83.961 E2.94476
G1 X98.512 Y83.721 E2.95936
G1 X99.042 Y83.621 E2.96890
G1 X99.582 Y83.561 E2.97851
G1 X99.852 Y83.551 E2.98329
G1 X100.402 Y83.561 E2.99301
G1 X100.942 Y83.621 E3.00262
G1 X101.472 Y83.721 E3.01216
G1 X102.262 Y83.961 E3.02676
G1 X102.762 Y84.171 E3.03635
G1 X103.242 Y84.421 E3.04592
G1 X111.852 Y89.391 E3.22172
G1 X112.312 Y89.681 E3.23134
G1 X112.952 Y90.191 E3.24581
G1 X113.342 Y90.571 E3.25544
G1 X113.862 Y91.201 E3.26989
G1 X114.302 Y91.891 E3.28436
G1 X114.542 Y92.381 E3.29401
G1 X114.742 Y92.881 E3.30353
G1 X114.902 Y93.401 E3.31315
G1 X115.012 Y93.941 E3.32290
G1 X115.082 Y94.481 E3.33253
G1 X115.102 Y95.021 E3.34208
G1 X115.102 Y104.961 E3.51786
G1 X115.082 Y105.501 E3.52742
G1 X115.052 Y105.771 E3.53222
G1 X114.902 Y106.581 E3.54679
G1 X114.742 Y107.101 E3.55641
G1 X114.422 Y107.851 E3.57083
G1 X114.162 Y108.331 E3.58048
G1 X113.862 Y108.781 E3.59005
G1 X113.522 Y109.211 E3.59974
G1 X113.205 Y109.548 E3.60792
G1 X113.152 Y109.601 E3.60925
G1 X107.124 Y104.113 F7800.000
G1 X100.000 Y108.226 F900.000 E3.75472
G1 X92.876 Y104.113 E3.90019
G1 X92.876 Y95.887 E4.04566
G1 X100.000 Y91.774 E4.19113
G1 X107.124 Y95.887 E4.33660
G1 X107.124 Y104.038 E4.48074
G1 X107.124 Y104.113 E4.48207
G1 X107.295 Y104.583 F7800.000
G1 X108.608 Y104.970
G1 X100.000 Y109.940 F900.000 E4.65785
G1 X91.392 Y104.970 E4.83363
G1 X91.392 Y95.030 E5.00941
G1 X100.000 Y90.060 E5.18519
G1 X108.608 Y95.030 E5.36098
G1 X108.608 Y104.895 E5.53543
G1 X108.608 Y104.970 E5.53676
G1 X100.314 Y109.218 F7800.000
G1 X99.686 Y109.218 F600.000 E5.55248
G1 X99.554 Y108.509 E5.57058
G1 X98.458 Y108.509 E5.59806
G1 X98.326 Y107.800 E5.61615
G1 X97.230 Y107.800 E5.64363
G1 X97.098 Y107.091 E5.66172
G1 X96.002 Y107.091 E5.68921
G1 X95.869 Y106.382 E5.70730
G1 X94.774 Y106.382 E5.73479
G1 X94.641 Y105.673 E5.75288
G1 X93.545 Y105.673 E5.78036
G1 X93.413 Y104.964 E5.79845
G1 X92.317 Y104.964 E5.82594
G1 X92.564 Y104.255 E5.84477
G1 X91.703 Y104.255 E5.86637
G1 X91.703 Y103.546 E5.88415
G1 X92.564 Y103.546 E5.90575
G1 X92.564 Y102.836 E5.92353
G1 X91.703 Y102.836 E5.94513
G1 X91.703 Y102.127 E5.96292
G1 X92.564 Y102.127 E5.98451
G1 X92.564 Y101.418 E6.00230
G1 X91.703 Y101.418 E6.02389
G1 X91.703 Y100.709 E6.04168
G1 X92.564 Y100.709 E6.06327
G1 X92.564 Y100.000 E6.08106
G1 X91.703 Y100.000 E6.10265
G1 X91.703 Y99.291 E6.12044
G1 X92.564 Y99.291 E6.14204
G1 X92.564 Y98.582 E6.15982
G1 X91.703 Y98.582 E6.18142
G1 X91.703 Y97.873 E6.19920
G1 X92.564 Y97.873 E6.22080
G1 X92.564 Y97.163 E6.23858
G1 X91.703 Y97.163 E6.26018
G1 X91.703 Y96.454 E6.27796
G1 X92.564 Y96.454 E6.29956
G1 X92.564 Y95.745 E6.31734
G1 X91.703 Y95.745 E6.33894
G1 X92.317 Y95.036 E6.36246
G1 X93.413 Y95.036 E6.38995
G1 X93.545 Y94.327 E6.40804
G1 X94.641 Y94.327 E6.43552
G1 X94.774 Y93.618 E6.45361
G1 X95.869 Y93.618 E6.48110
G1 X96.002 Y92.909 E6.49919
G1 X97.098 Y92.909 E6.52668
G1 X97.230 Y92.200 E6.54477
G1 X98.326 Y92.200 E6.57225
G1 X98.458 Y91.491 E6.59034
G1 X99.554 Y91.491 E6.61783
G1 X99.686 Y90.781 E6.63592
G1 X100.314 Y90.781 E6.65165
G1 X100.446 Y91.491 E6.66974
G1 X101.542 Y91.491 E6.69722
G1 X101.674 Y92.200 E6.71531
G1 X102.770 Y92.200 E6.74279
G1 X102.902 Y92.909 E6.76089
G1 X103.998 Y92.909 E6.78837
G1 X104.131 Y93.618 E6.80647
G1 X105.226 Y93.618 E6.83395
G1 X105.359 Y94.327 E6.85204
G1 X106.455 Y94.327 E6.87952
G1 X106.587 Y95.036 E6.89762
G1 X107.683 Y95.036 E6.92510
G1 X107.436 Y95.745 E6.94393
G1 X108.297 Y95.745 E6.96553
G1 X108.297 Y96.454 E6.98332
G1 X107.436 Y96.454 E7.00492
G1 X107.436 Y97.163 E7.02270
G1 X108.297 Y97.163 E7.04430
G1 X108.297 Y97.873 E7.06208
G1 X107.436 Y97.873 E7.08368
G1 X107.436 Y98.582 E7.10147
G1 X108.297 Y98.582 E7.12307
G1 X108.297 Y99.291 E7.14085
G1 X107.436 Y99.291 E7.16245
G1 X107.436 Y100.000 E7.18023
G1 X108.297 Y100.000 E7.20183
G1 X108.297 Y100.709 E7.21962
G1 X107.436 Y100.709 E7.24122
G1 X107.436 Y101.418 E7.25900
G1 X108.297 Y101.418 E7.28060
G1 X108.297 Y102.127 E7.29838
G1 X107.436 Y102.127 E7.31998
G1 X107.436 Y102.836 E7.33777
G1 X108.297 Y102.836 E7.35937
G1 X108.297 Y103.546 E7.37715
G1 X107.436 Y103.546 E7.39875
G1 X107.436 Y104.255 E7.41654
G1 X108.297 Y104.255 E7.43814
G1 X107.683 Y104.964 E7.46166
G1 X106.587 Y104.964 E7.48914
G1 X106.455 Y105.673 E7.50724
G1 X105.359 Y105.673 E7.53472
G1 X105.226 Y106.382 E7.55281
G1 X104.131 Y106.382 E7.58029
G1 X103.998 Y107.091 E7.59839
G1 X102.902 Y107.091 E7.62587
G1 X102.770 Y107.800 E7.64396
G1 X101.674 Y107.800 E7.67145
G1 X101.542 Y108.509 E7.68954
G1 X100.446 Y108.509 E7.71702
M106 S255
G1 Z0.500 F7800.000
G1 X100.000 Y108.399
G1 X92.726 Y104.200 F934.522 E7.93874
G1 X92.726 Y95.800 E8.16045
G1 X100.000 Y91.601 E8.38217
G1 X107.274 Y95.800 E8.60389
G1 X107.274 Y104.200 E8.82560
G1 X100.097 Y108.343 E9.04436
G1 X100.000 Y108.399 E9.04732
G1 X99.520 Y108.971 F7800.000
G1 X100.000 Y109.767
G1 X91.542 Y104.883 F934.522 E9.30513
G1 X91.542 Y95.117 E9.56295
G1 X100.000 Y90.233 E9.82077
G1 X108.458 Y95.117 E10.07858
G1 X108.458 Y104.883 E10.33640
G1 X100.097 Y109.711 E10.59126
G1 X100.000 Y109.767 E10.59421
G1 X107.885 Y95.258 F7800.000
G1 X107.885 Y104.742 F623.015 E10.73720
G1 X107.459 Y104.565 E10.74416
G1 X107.459 Y104.988 E10.75054
G1 X107.033 Y104.811 E10.75750
G1 X107.033 Y105.234 E10.76388
G1 X106.607 Y105.057 E10.77084
G1 X106.607 Y105.481 E10.77722
G1 X106.180 Y105.303 E10.78418
G1 X106.180 Y105.727 E10.79057
G1 X105.754 Y105.549 E10.79753
G1 X105.754 Y105.973 E10.80391
G1 X105.328 Y105.795 E10.81087
G1 X105.328 Y106.219 E10.81725
G1 X104.902 Y106.041 E10.82421
G1 X104.902 Y106.465 E10.83060
G1 X104.475 Y106.288 E10.83756
G1 X104.475 Y106.711 E10.84394
G1 X104.049 Y106.534 E10.85090
G1 X104.049 Y106.957 E10.85728
G1 X103.623 Y106.780 E10.86424
G1 X103.623 Y107.203 E10.87062
G1 X103.197 Y107.026 E10.87758
G1 X103.197 Y107.449 E10.88397
G1 X102.771 Y107.272 E10.89093
G1 X102.771 Y107.695 E10.89731
G1 X102.344 Y107.518 E10.90427
G1 X102.344 Y107.941 E10.91065
G1 X101.918 Y107.764 E10.91761
G1 X101.918 Y108.188 E10.92400
G1 X101.492 Y108.010 E10.93096
G1 X101.492 Y108.434 E10.93734
G1 X101.066 Y108.256 E10.94430
G1 X101.066 Y108.680 E10.95068
G1 X100.639 Y108.502 E10.95764
G1 X100.639 Y108.926 E10.96403
G1 X100.213 Y108.748 E10.97098
G1 X100.213 Y109.172 E10.97737
G1 X99.787 Y109.172 E10.98379
G1 X99.787 Y108.748 E10.99018
G1 X99.361 Y108.926 E10.99714
G1 X99.361 Y108.502 E11.00352
G1 X98.934 Y108.680 E11.01048
G1 X98.934 Y108.256 E11.01686
G1 X98.508 Y108.434 E11.02382
G1 X98.508 Y108.010 E11.03020
G1 X98.082 Y108.188 E11.03716
G1 X98.082 Y107.764 E11.04355
G1 X97.656 Y107.941 E11.05051
G1 X97.656 Y107.518 E11.05689
G1 X97.230 Y107.695 E11.06385
G1 X97.230 Y107.272 E11.07023
G1 X96.803 Y107.449 E11.07719
G1 X96.803 Y107.026 E11.08358
G1 X96.377 Y107.203 E11.09054
G1 X96.377 Y106.780 E11.09692
G1 X95.951 Y106.957 E11.10388
G1 X95.951 Y106.534 E11.11026
G1 X95.525 Y106.711 E11.11722
G1 X95.525 Y106.288 E11.12360
G1 X95.098 Y106.465 E11.13056
G1 X95.098 Y106.041 E11.13695
G1 X94.672 Y106.219 E11.14391
G1 X94.672 Y105.795 E11.15029
G1 X94.246 Y105.973 E11.15725
G1 X94.246 Y105.549 E11.16363
G1 X93.820 Y105.727 E11.17059
G1 X93.820 Y105.303 E11.17698
G1 X93.393 Y105.481 E11.18394
G1 X93.393 Y105.057 E11.19032
G1 X92.967 Y105.234 E11.19728
G1 X92.967 Y104.811 E11.20366
G1 X92.541 Y104.988 E11.21062
G1 X92.541 Y104.565 E11.21701
G1 X92.115 Y104.742 E11.22396
G1 X92.115 Y95.258 E11.36695
G1 X92.541 Y95.435 E11.37390
G1 X92.541 Y95.012 E11.38029
G1 X92.967 Y95.189 E11.38725
G1 X92.967 Y94.765 E11.39363
G1 X93.393 Y94.943 E11.40059
G1 X93.393 Y94.519 E11.40698
G1 X93.820 Y94.697 E11.41394
G1 X93.820 Y94.273 E11.42032
G1 X94.246 Y94.451 E11.42728
G1 X94.246 Y94.027 E11.43366
G1 X94.672 Y94.205 E11.44062
G1 X94.672 Y93.781 E11.44700
G1 X95.098 Y93.959 E11.45396
G1 X95.098 Y93.535 E11.46035
G1 X95.525 Y93.712 E11.46731
G1 X95.525 Y93.289 E11.47369
G1 X95.951 Y93.466 E11.48065
G1 X95.951 Y93.043 E11.48704
G1 X96.377 Y93.220 E11.49399
G1 X96.377 Y92.797 E11.50038
G1 X96.803 Y92.974 E11.50734
G1 X96.803 Y92.551 E11.51372
G1 X97.230 Y92.728 E11.52068
G1 X97.230 Y92.305 E11.52706
G1 X97.656 Y92.482 E11.53402
G1 X97.656 Y92.059 E11.54040
G1 X98.082 Y92.236 E11.54736
G1 X98.082 Y91.812 E11.55375
G1 X98.508 Y91.990 E11.56071
G1 X98.508 Y91.566 E11.56709
G1 X98.934 Y91.744 E11.57405
G1 X98.934 Y91.320 E11.58044
G1 X99.361 Y91.498 E11.58739
G1 X99.361 Y91.074 E11.59378
G1 X99.787 Y91.252 E11.60074
G1 X99.787 Y90.828 E11.60712
G1 X100.213 Y90.828 E11.61354
G1 X100.213 Y91.252 E11.61993
G1 X100.639 Y91.074 E11.62689
G1 X100.639 Y91.498 E11.63327
G1 X101.066 Y91.320 E11.64023
G1 X101.066 Y91.744 E11.64661
G1 X101.492 Y91.566 E11.65357
G1 X101.492 Y91.990 E11.65996
G1 X101.918 Y91.812 E11.66692
G1 X101.918 Y92.236 E11.67330
G1 X102.344 Y92.059 E11.68026
G1 X102.344 Y92.482 E11.68664
G1 X102.771 Y92.305 E11.69360
G1 X102.771 Y92.728 E11.69999
G1 X103.197 Y92.551 E11.70694
G1 X103.197 Y92.974 E11.71333
G1 X103.623 Y92.797 E11.72029
G1 X103.623 Y93.220 E11.72667
G1 X104.049 Y93.043 E11.73363
G1 X104.049 Y93.466 E11.74001
G1 X104.475 Y93.289 E11.74697
G1 X104.475 Y93.712 E11.75336
G1 X104.902 Y93.535 E11.76032
G1 X104.902 Y93.959 E11.76670
G1 X105.328 Y93.781 E11.77366
G1 X105.328 Y94.205 E11.78004
G1 X105.754 Y94.027 E11.78700
G1 X105.754 Y94.451 E11.79339
G1 X106.180 Y94.273 E11.80035
G1 X106.180 Y94.697 E11.80673
G1 X106.607 Y94.519 E11.81369
G1 X106.607 Y94.943 E11.82007
G1 X107.033 Y94.765 E11.82703
G1 X107.033 Y95.189 E11.83341
G1 X107.459 Y95.012 E11.84037
G1 X107.459 Y95.435 E11.84676
G1 Z0.750 F7800.000
G1 X107.274 Y95.800
G1 X107.274 Y104.200 F896.022 E12.06847
G1 X100.000 Y108.399 E12.29019
G1 X99.554 Y108.142 E12.30379
G1 X92.726 Y104.200 E12.51191
G1 X92.726 Y95.800 E12.73362
G1 X100.000 Y91.601 E12.95534
G1 X107.177 Y95.744 E13.17410
G1 X107.274 Y95.800 E13.17705
G1 X108.009 Y95.930 F7800.000
G1 X108.458 Y95.117
G1 X108.458 Y104.883 F896.022 E13.43487
G1 X100.000 Y109.767 E13.69269
G1 X91.542 Y104.883 E13.95050
G1 X91.542 Y95.117 E14.20832
G1 X100.000 Y90.233 E14.46614
G1 X108.361 Y95.061 E14.72100
G1 X108.458 Y95.117 E14.72395
G1 X100.190 Y109.105 F7800.000
G1 X99.810 Y109.105 F600.000 E14.72964
G1 X99.532 Y108.682 E14.73722
G1 X99.077 Y108.682 E14.74405
G1 X98.799 Y108.258 E14.75164
G1 X98.343 Y108.258 E14.75846
G1 X98.065 Y107.835 E14.76605
G1 X97.610 Y107.835 E14.77287
G1 X97.332 Y107.411 E14.78046
G1 X96.876 Y107.411 E14.78728
G1 X96.598 Y106.988 E14.79487
G1 X96.143 Y106.988 E14.80170
G1 X95.865 Y106.564 E14.80928
G1 X95.409 Y106.564 E14.81611
G1 X95.131 Y106.141 E14.82370
G1 X94.676 Y106.141 E14.83052
G1 X94.398 Y105.717 E14.83811
G1 X93.942 Y105.717 E14.84493
G1 X93.664 Y105.294 E14.85252
G1 X93.209 Y105.294 E14.85935
G1 X92.931 Y104.870 E14.86693
G1 X92.475 Y104.870 E14.87376
G1 X92.343 Y104.447 E14.88040
G1 X91.925 Y104.447 E14.88666
G1 X91.925 Y104.023 E14.89300
G1 X92.343 Y104.023 E14.89925
G1 X92.343 Y103.600 E14.90560
G1 X91.925 Y103.600 E14.91185
G1 X91.925 Y103.176 E14.91819
G1 X92.343 Y103.176 E14.92445
G1 X92.343 Y102.753 E14.93079
G1 X91.925 Y102.753 E14.93705
G1 X91.925 Y102.329 E14.94339
G1 X92.343 Y102.329 E14.94964
G1 X92.343 Y101.906 E14.95599
G1 X91.925 Y101.906 E14.96224
G1 X91.925 Y101.482 E14.96858
G1 X92.343 Y101.482 E14.97484
G1 X92.343 Y101.059 E14.98118
G1 X91.925 Y101.059 E14.98743
G1 X91.925 Y100.635 E14.99378
G1 X92.343 Y100.635 E15.00003
G1 X92.343 Y100.212 E15.00637
G1 X91.925 Y100.212 E15.01263
