; generated by Slic3r 0.9.8 on 2013-07-02 at 13:32:40

; layer_height = .25
; perimeters = 1
; top_solid_layers = 4
; bottom_solid_layers = 4
; fill_density = .9
; perimeter_speed = 30
; infill_speed = 40
; travel_speed = 130
; scale = 1
; nozzle_diameter = 0.5
; filament_diameter = 3
; extrusion_multiplier = 1
; perimeters extrusion width = 0.80mm
; infill extrusion width = 0.80mm
; first layer extrusion width = 0.50mm

M107
M104 S220 ; set temperature
G28 ; home all axes
M109 S220 ; wait for temperature to be reached
G90 ; use absolute coordinates
G21 ; set units to millimeters
G92 E0
M82 ; use absolute distances for extrusion
G1 Z0.250 F7800.000
G1 X113.721 Y121.279
G1 X113.541 Y121.599 F900.000 E0.00649
G1 X113.121 Y122.209 E0.01959
G1 X112.021 Y123.639 E0.05149
G1 X111.551 Y124.189 E0.06429
G1 X111.291 Y124.449 E0.07079
G1 X110.741 Y124.919 E0.08358
G1 X109.311 Y126.019 E0.11549
G1 X108.701 Y126.439 E0.12858
G1 X108.051 Y126.789 E0.14164
G1 X107.711 Y126.939 E0.14821
G1 X106.041 Y127.629 E0.18016
G1 X105.711 Y127.759 E0.18644
G1 X105.361 Y127.869 E0.19292
G1 X104.661 Y128.039 E0.20566
G1 X104.301 Y128.099 E0.21212
G1 X102.511 Y128.339 E0.24405
G1 X101.891 Y128.389 E0.25505
G1 X101.271 Y128.389 E0.26602
G1 X100.651 Y128.339 E0.27702
G1 X98.861 Y128.099 E0.30895
G1 X97.881 Y127.889 E0.32668
G1 X89.311 Y125.449 E0.48425
G1 X88.791 Y125.259 E0.49404
G1 X88.291 Y125.029 E0.50377
G1 X87.811 Y124.759 E0.51351
G1 X87.361 Y124.459 E0.52308
G1 X86.931 Y124.119 E0.53277
G1 X86.521 Y123.739 E0.54266
G1 X86.151 Y123.339 E0.55229
G1 X85.811 Y122.909 E0.56199
G1 X85.371 Y122.219 E0.57646
G1 X85.241 Y121.969 E0.58144
G1 X85.011 Y121.479 E0.59101
G1 X84.821 Y120.959 E0.60080
G1 X84.611 Y120.159 E0.61543
G1 X84.501 Y119.349 E0.62989
G1 X84.481 Y118.799 E0.63962
G1 X84.481 Y81.199 E1.30453
G1 X84.501 Y80.649 E1.31427
G1 X84.531 Y80.379 E1.31907
G1 X84.611 Y79.839 E1.32872
G1 X84.671 Y79.569 E1.33361
G1 X84.911 Y78.779 E1.34821
G1 X85.241 Y78.029 E1.36270
G1 X85.511 Y77.549 E1.37244
G1 X85.811 Y77.089 E1.38216
G1 X86.151 Y76.659 E1.39185
G1 X86.721 Y76.069 E1.40636
G1 X87.351 Y75.549 E1.42080
G1 X87.811 Y75.239 E1.43061
G1 X88.291 Y74.969 E1.44035
G1 X88.781 Y74.739 E1.44992
G1 X89.561 Y74.469 E1.46452
G1 X97.871 Y72.099 E1.61733
G1 X98.901 Y71.889 E1.63592
G1 X101.041 Y71.619 E1.67406
G1 X101.761 Y71.599 E1.68680
G1 X102.471 Y71.659 E1.69940
G1 X104.631 Y71.939 E1.73792
G1 X105.351 Y72.109 E1.75100
G1 X106.041 Y72.359 E1.76398
G1 X107.711 Y73.049 E1.79593
G1 X108.381 Y73.369 E1.80906
G1 X108.701 Y73.549 E1.81556
G1 X109.311 Y73.969 E1.82865
G1 X110.741 Y75.069 E1.86056
G1 X111.301 Y75.549 E1.87360
G1 X111.801 Y76.079 E1.88648
G1 X113.351 Y78.109 E1.93165
G1 X113.731 Y78.729 E1.94451
G1 X113.891 Y79.049 E1.95084
G1 X114.731 Y81.059 E1.98936
G1 X114.861 Y81.389 E1.99563
G1 X114.971 Y81.739 E2.00212
G1 X115.141 Y82.439 E2.01486
G1 X115.201 Y82.799 E2.02131
G1 X115.441 Y84.589 E2.05325
G1 X115.501 Y85.519 E2.06973
G1 X115.501 Y114.479 E2.58186
G1 X115.441 Y115.409 E2.59834
G1 X115.201 Y117.199 E2.63027
G1 X115.141 Y117.559 E2.63673
G1 X114.971 Y118.259 E2.64947
G1 X114.861 Y118.609 E2.65595
G1 X114.731 Y118.939 E2.66223
G1 X114.041 Y120.609 E2.69418
G1 X113.756 Y121.212 E2.70598
G1 X113.721 Y121.279 E2.70731
G1 X113.281 Y121.039 F7800.000
G1 X113.111 Y121.339 F900.000 E2.71341
G1 X112.721 Y121.899 E2.72548
G1 X111.621 Y123.329 E2.75738
G1 X111.181 Y123.849 E2.76943
G1 X110.951 Y124.079 E2.77518
G1 X110.431 Y124.519 E2.78722
G1 X109.001 Y125.619 E2.81913
G1 X108.441 Y126.009 E2.83120
G1 X107.841 Y126.339 E2.84331
G1 X107.521 Y126.479 E2.84948
G1 X105.851 Y127.169 E2.88144
G1 X105.221 Y127.389 E2.89324
G1 X104.571 Y127.549 E2.90507
G1 X104.231 Y127.599 E2.91115
G1 X102.441 Y127.839 E2.94309
G1 X101.751 Y127.899 E2.95534
G1 X101.061 Y127.879 E2.96754
G1 X100.721 Y127.839 E2.97360
G1 X98.931 Y127.599 E3.00553
G1 X98.011 Y127.409 E3.02215
G1 X89.701 Y125.049 E3.17491
G1 X89.191 Y124.879 E3.18442
G1 X88.691 Y124.669 E3.19401
G1 X88.211 Y124.419 E3.20358
G1 X87.751 Y124.129 E3.21320
G1 X87.321 Y123.799 E3.22278
G1 X86.921 Y123.429 E3.23242
G1 X86.551 Y123.039 E3.24192
G1 X86.211 Y122.609 E3.25162
G1 X85.911 Y122.159 E3.26118
G1 X85.651 Y121.679 E3.27083
G1 X85.431 Y121.189 E3.28033
G1 X85.181 Y120.409 E3.29482
G1 X85.031 Y119.609 E3.30921
G1 X85.001 Y119.339 E3.31401
G1 X84.981 Y118.799 E3.32357
G1 X84.981 Y81.199 E3.98848
G1 X85.001 Y80.659 E3.99804
G1 X85.031 Y80.389 E4.00284
G1 X85.181 Y79.589 E4.01724
G1 X85.431 Y78.819 E4.03155
G1 X85.651 Y78.319 E4.04121
G1 X85.911 Y77.849 E4.05071
G1 X86.211 Y77.389 E4.06042
G1 X86.551 Y76.969 E4.06998
G1 X87.111 Y76.389 E4.08424
G1 X87.531 Y76.039 E4.09391
G1 X87.971 Y75.729 E4.10342
G1 X88.441 Y75.449 E4.11310
G1 X89.181 Y75.119 E4.12743
G1 X89.701 Y74.949 E4.13710
G1 X98.011 Y72.579 E4.28991
G1 X98.961 Y72.379 E4.30708
G1 X100.751 Y72.149 E4.33900
G1 X101.411 Y72.099 E4.35070
G1 X101.751 Y72.099 E4.35671
G1 X102.411 Y72.149 E4.36842
G1 X104.201 Y72.379 E4.40033
G1 X105.211 Y72.589 E4.41858
G1 X105.851 Y72.819 E4.43060
G1 X107.521 Y73.509 E4.46256
G1 X107.841 Y73.649 E4.46873
G1 X108.441 Y73.979 E4.48084
G1 X109.001 Y74.369 E4.49291
G1 X110.701 Y75.679 E4.53086
G1 X111.191 Y76.149 E4.54287
G1 X111.641 Y76.669 E4.55503
G1 X112.741 Y78.109 E4.58707
G1 X113.121 Y78.669 E4.59904
G1 X113.291 Y78.969 E4.60514
G1 X113.581 Y79.579 E4.61708
G1 X114.271 Y81.249 E4.64904
G1 X114.491 Y81.879 E4.66084
G1 X114.651 Y82.529 E4.67268
G1 X114.701 Y82.869 E4.67875
G1 X114.941 Y84.659 E4.71069
G1 X115.001 Y85.519 E4.72594
G1 X115.001 Y114.479 E5.23806
G1 X114.941 Y115.339 E5.25331
G1 X114.701 Y117.129 E5.28524
G1 X114.581 Y117.789 E5.29711
G1 X114.391 Y118.439 E5.30908
G1 X114.271 Y118.749 E5.31496
G1 X113.581 Y120.419 E5.34691
G1 X113.317 Y120.972 E5.35777
G1 X113.281 Y121.039 E5.35909
G1 X107.143 Y117.688 F7800.000
G1 X106.123 Y119.016 F900.000 E5.38871
G1 X104.795 Y120.036 E5.41832
G1 X103.248 Y120.676 E5.44793
G1 X101.588 Y120.895 E5.47755
G1 X99.927 Y120.676 E5.50716
G1 X98.380 Y120.036 E5.53677
G1 X97.052 Y119.016 E5.56638
G1 X96.032 Y117.688 E5.59600
G1 X95.391 Y116.141 E5.62561
G1 X95.231 Y114.920 E5.64738
G1 X93.666 Y115.023 E5.67510
G1 X93.666 Y118.300 E5.73306
G1 X91.991 Y118.300 E5.76268
G1 X91.991 Y81.700 E6.40991
G1 X93.666 Y81.700 E6.43953
G1 X93.666 Y84.977 E6.49749
G1 X95.231 Y85.080 E6.52521
G1 X95.391 Y83.859 E6.54698
G1 X96.032 Y82.312 E6.57660
G1 X97.052 Y80.984 E6.60621
G1 X98.380 Y79.964 E6.63582
G1 X99.927 Y79.324 E6.66543
G1 X101.587 Y79.105 E6.69505
G1 X103.248 Y79.324 E6.72466
G1 X104.795 Y79.964 E6.75427
G1 X106.123 Y80.984 E6.78388
G1 X107.143 Y82.312 E6.81350
G1 X107.784 Y83.859 E6.84311
G1 X108.002 Y85.520 E6.87272
G1 X107.784 Y87.180 E6.90234
G1 X107.143 Y88.727 E6.93195
G1 X106.123 Y90.056 E6.96156
G1 X104.795 Y91.075 E6.99117
G1 X103.985 Y91.410 E7.00667
G1 X103.985 Y97.662 E7.11724
G1 X102.312 Y97.662 E7.14682
G1 X102.335 Y90.146 E7.27973
G1 X102.810 Y90.084 E7.28820
G1 X103.950 Y89.612 E7.31001
G1 X104.929 Y88.861 E7.33183
G1 X105.680 Y87.882 E7.35364
G1 X106.152 Y86.743 E7.37546
G1 X106.313 Y85.520 E7.39727
G1 X106.152 Y84.297 E7.41908
G1 X105.680 Y83.157 E7.44090
G1 X104.929 Y82.178 E7.46271
G1 X103.950 Y81.428 E7.48452
G1 X102.810 Y80.955 E7.50634
G1 X101.588 Y80.794 E7.52815
G1 X100.365 Y80.955 E7.54996
G1 X99.225 Y81.428 E7.57178
G1 X98.246 Y82.178 E7.59359
G1 X97.495 Y83.157 E7.61540
G1 X97.023 Y84.297 E7.63722
G1 X96.869 Y85.470 E7.65814
G1 X96.841 Y101.588 E7.94318
G1 X96.869 Y114.530 E8.17204
G1 X97.023 Y115.703 E8.19297
G1 X97.495 Y116.843 E8.21478
G1 X98.246 Y117.822 E8.23659
G1 X99.225 Y118.572 E8.25841
G1 X100.365 Y119.045 E8.28022
G1 X101.588 Y119.206 E8.30204
G1 X102.810 Y119.045 E8.32385
G1 X103.950 Y118.572 E8.34566
G1 X104.929 Y117.822 E8.36748
G1 X105.680 Y116.843 E8.38929
G1 X106.152 Y115.703 E8.41110
G1 X106.313 Y114.480 E8.43292
G1 X106.152 Y113.257 E8.45473
G1 X105.680 Y112.118 E8.47654
G1 X104.929 Y111.139 E8.49836
G1 X103.950 Y110.388 E8.52017
G1 X102.810 Y109.916 E8.54198
G1 X102.335 Y109.854 E8.55046
G1 X102.312 Y102.337 E8.68337
G1 X103.985 Y102.337 E8.71295
G1 X103.985 Y108.590 E8.82351
G1 X104.795 Y108.925 E8.83901
G1 X106.123 Y109.944 E8.86862
G1 X107.143 Y111.273 E8.89824
G1 X107.784 Y112.820 E8.92785
G1 X108.002 Y114.480 E8.95746
G1 X107.784 Y116.141 E8.98708
G1 X107.171 Y117.618 E9.01536
G1 X107.143 Y117.688 E9.01669
G1 X107.580 Y117.940 F7800.000
G1 X106.480 Y119.373 F900.000 E9.04863
G1 X105.047 Y120.472 E9.08057
G1 X103.378 Y121.164 E9.11251
G1 X101.588 Y121.399 E9.14445
G1 X99.797 Y121.164 E9.17639
G1 X98.128 Y120.472 E9.20833
G1 X96.695 Y119.373 E9.24027
G1 X95.595 Y117.940 E9.27222
G1 X94.904 Y116.271 E9.30416
G1 X94.796 Y115.450 E9.31881
G1 X94.166 Y115.491 E9.32997
G1 X94.166 Y118.800 E9.38849
G1 X91.491 Y118.800 E9.43579
G1 X91.491 Y81.200 E10.10071
G1 X94.166 Y81.200 E10.14801
G1 X94.166 Y84.509 E10.20653
G1 X94.796 Y84.550 E10.21769
G1 X94.904 Y83.729 E10.23234
G1 X95.595 Y82.060 E10.26428
G1 X96.695 Y80.627 E10.29622
G1 X98.128 Y79.528 E10.32816
G1 X99.797 Y78.836 E10.36011
G1 X101.587 Y78.601 E10.39205
G1 X103.378 Y78.836 E10.42399
G1 X105.047 Y79.528 E10.45593
G1 X106.480 Y80.627 E10.48787
G1 X107.580 Y82.060 E10.51981
G1 X108.271 Y83.729 E10.55175
G1 X108.506 Y85.520 E10.58369
G1 X108.271 Y87.310 E10.61563
G1 X107.580 Y88.979 E10.64757
G1 X106.480 Y90.412 E10.67951
G1 X105.047 Y91.512 E10.71146
G1 X104.485 Y91.744 E10.72221
G1 X104.485 Y98.162 E10.83571
G1 X101.811 Y98.162 E10.88300
G1 X101.837 Y89.708 E11.03251
G1 X102.680 Y89.597 E11.04755
G1 X103.698 Y89.175 E11.06703
G1 X104.572 Y88.504 E11.08652
G1 X105.243 Y87.630 E11.10601
G1 X105.665 Y86.612 E11.12549
G1 X105.808 Y85.520 E11.14498
G1 X105.665 Y84.427 E11.16446
G1 X105.243 Y83.409 E11.18395
G1 X104.572 Y82.535 E11.20343
G1 X103.698 Y81.864 E11.22292
G1 X102.680 Y81.443 E11.24240
G1 X101.588 Y81.299 E11.26189
G1 X100.495 Y81.443 E11.28137
G1 X99.477 Y81.864 E11.30086
G1 X98.603 Y82.535 E11.32035
G1 X97.932 Y83.409 E11.33983
G1 X97.510 Y84.427 E11.35932
G1 X97.369 Y85.503 E11.37850
G1 X97.341 Y101.588 E11.66295
G1 X97.369 Y114.497 E11.89123
G1 X97.510 Y115.573 E11.91042
G1 X97.932 Y116.591 E11.92990
G1 X98.603 Y117.465 E11.94939
G1 X99.477 Y118.136 E11.96887
G1 X100.495 Y118.557 E11.98836
G1 X101.588 Y118.701 E12.00785
G1 X102.680 Y118.557 E12.02733
G1 X103.698 Y118.136 E12.04682
G1 X104.572 Y117.465 E12.06630
G1 X105.243 Y116.591 E12.08579
G1 X105.665 Y115.573 E12.10527
G1 X105.808 Y114.480 E12.12476
G1 X105.665 Y113.388 E12.14424
G1 X105.243 Y112.370 E12.16373
G1 X104.572 Y111.496 E12.18322
G1 X103.698 Y110.825 E12.20270
G1 X102.680 Y110.403 E12.22219
G1 X101.837 Y110.292 E12.23722
G1 X101.811 Y101.837 E12.38674
G1 X104.485 Y101.837 E12.43403
G1 X104.485 Y108.256 E12.54752
G1 X105.047 Y108.488 E12.55828
G1 X106.480 Y109.588 E12.59022
G1 X107.580 Y111.021 E12.62216
G1 X108.271 Y112.690 E12.65410
G1 X108.506 Y114.480 E12.68604
G1 X108.271 Y116.271 E12.71798
G1 X107.608 Y117.871 E12.74860
G1 X107.580 Y117.940 E12.74992
G1 X107.080 Y117.918 F7800.000
G1 X105.048 Y119.384
G1 X103.073 Y119.384 F1500.000 E12.78510
G1 X104.072 Y119.887 F7800.000
G1 X99.103 Y119.887 F1500.000 E12.87357
G1 X100.102 Y119.384 F7800.000
G1 X98.127 Y119.384 F1500.000 E12.90874
G1 X97.471 Y118.880 E12.92347
G1 X99.030 Y118.880 E12.95124
G1 X98.374 Y118.377 E12.96596
G1 X96.966 Y118.377 E12.99103
G1 X96.580 Y117.873 E13.00233
G1 X97.881 Y117.873 E13.02550
G1 X97.495 Y117.370 E13.03680
G1 X96.217 Y117.370 E13.05955
G1 X96.008 Y116.866 E13.06926
G1 X97.189 Y116.866 E13.09028
G1 X96.980 Y116.363 E13.09999
G1 X95.800 Y116.363 E13.12101
G1 X95.634 Y115.859 E13.13045
G1 X96.772 Y115.859 E13.15072
G1 X96.698 Y115.356 E13.15978
G1 X95.567 Y115.356 E13.17992
G1 X95.501 Y114.852 E13.18896
G1 X96.632 Y114.852 E13.20910
G1 X96.594 Y114.349 E13.21809
G1 X92.266 Y114.349 E13.29515
G1 X92.266 Y114.852 E13.30411
G1 X93.391 Y114.852 E13.32415
G1 X93.391 Y115.356 E13.33311
G1 X92.266 Y115.356 E13.35315
G1 X92.266 Y115.859 E13.36211
G1 X93.391 Y115.859 E13.38215
G1 X93.391 Y116.363 E13.39111
G1 X92.266 Y116.363 E13.41115
G1 X92.266 Y116.866 E13.42011
G1 X93.391 Y116.866 E13.44015
G1 X93.391 Y117.370 E13.44911
G1 X92.266 Y117.370 E13.46915
G1 X92.266 Y113.846 F7800.000
G1 X96.593 Y113.846 F1500.000 E13.54619
G1 X96.592 Y113.342 E13.55515
G1 X92.266 Y113.342 E13.63218
G1 X92.266 Y112.839 E13.64114
G1 X96.591 Y112.839 E13.71815
G1 X96.590 Y112.335 E13.72712
G1 X92.266 Y112.335 E13.80411
G1 X92.266 Y111.832 E13.81308
G1 X96.589 Y111.832 E13.89005
G1 X96.589 Y111.328 E13.89902
G1 X92.266 Y111.328 E13.97598
G1 X92.266 Y110.825 E13.98495
G1 X96.588 Y110.825 E14.06190
G1 X96.587 Y110.321 E14.07086
G1 X92.266 Y110.321 E14.14780
G1 X92.266 Y109.818 E14.15676
G1 X96.586 Y109.818 E14.23368
G1 X96.585 Y109.314 E14.24264
G1 X92.266 Y109.314 E14.31955
G1 X92.266 Y108.811 E14.32851
G1 X96.584 Y108.811 E14.40540
G1 X96.583 Y108.307 E14.41436
G1 X92.266 Y108.307 E14.49124
G1 X92.266 Y107.804 E14.50020
G1 X96.583 Y107.804 E14.57706
G1 X96.582 Y107.300 E14.58602
G1 X92.266 Y107.300 E14.66286
G1 X92.266 Y106.797 E14.67183
G1 X96.581 Y106.797 E14.74866
G1 X96.580 Y106.293 E14.75762
G1 X92.266 Y106.293 E14.83443
G1 X92.266 Y105.790 E14.84340
G1 X96.579 Y105.790 E14.92019
G1 X96.578 Y105.286 E14.92916
G1 X92.266 Y105.286 E15.00594
G1 X92.266 Y104.783 E15.01490
G1 X96.577 Y104.783 E15.09167
G1 X96.576 Y104.279 E15.10063
G1 X92.266 Y104.279 E15.17738
G1 X92.266 Y103.776 E15.18635
G1 X96.576 Y103.776 E15.26308
G1 X96.575 Y103.273 E15.27205
G1 X92.266 Y103.273 E15.34876
G1 X92.266 Y102.769 E15.35773
G1 X96.574 Y102.769 E15.43443
G1 X96.573 Y102.266 E15.44340
G1 X92.266 Y102.266 E15.52009
G1 X92.266 Y101.762 E15.52905
G1 X96.572 Y101.762 E15.60572
G1 X96.571 Y101.259 E15.61469
G1 X92.266 Y101.259 E15.69135
G1 X92.266 Y100.755 E15.70031
G1 X96.570 Y100.755 E15.77696
G1 X96.570 Y100.252 E15.78592
G1 X92.266 Y100.252 E15.86255
G1 X92.266 Y99.748 E15.87151
G1 X96.569 Y99.748 E15.94812
G1 X96.568 Y99.245 E15.95709
G1 X92.266 Y99.245 E16.03369
G1 X92.266 Y98.741 E16.04265
G1 X96.567 Y98.741 E16.11923
G1 X96.567 Y98.238 E16.12820
G1 X92.266 Y98.238 E16.20478
G1 X92.266 Y97.734 E16.21374
G1 X96.568 Y97.734 E16.29034
G1 X96.569 Y97.231 E16.29930
G1 X92.266 Y97.231 E16.37592
G1 X92.266 Y96.727 E16.38488
G1 X96.570 Y96.727 E16.46152
G1 X96.571 Y96.224 E16.47048
G1 X92.266 Y96.224 E16.54714
G1 X92.266 Y95.720 E16.55610
G1 X96.572 Y95.720 E16.63278
G1 X96.573 Y95.217 E16.64174
G1 X92.266 Y95.217 E16.71843
G1 X92.266 Y94.713 E16.72740
G1 X96.574 Y94.713 E16.80411
G1 X96.575 Y94.210 E16.81307
G1 X92.266 Y94.210 E16.88980
G1 X92.266 Y93.707 E16.89877
G1 X96.576 Y93.707 E16.97552
G1 X96.578 Y93.203 E16.98448
G1 X92.266 Y93.203 E17.06125
G1 X92.266 Y92.700 E17.07022
G1 X96.579 Y92.700 E17.14701
G1 X96.580 Y92.196 E17.15597
G1 X92.266 Y92.196 E17.23278
G1 X92.266 Y91.693 E17.24174
G1 X96.581 Y91.693 E17.31857
G1 X96.582 Y91.189 E17.32753
G1 X92.266 Y91.189 E17.40438
G1 X92.266 Y90.686 E17.41334
G1 X96.583 Y90.686 E17.49021
G1 X96.584 Y90.182 E17.49917
G1 X92.266 Y90.182 E17.57605
G1 X92.266 Y89.679 E17.58502
G1 X96.585 Y89.679 E17.66192
G1 X96.586 Y89.175 E17.67089
G1 X92.266 Y89.175 E17.74781
G1 X92.266 Y88.672 E17.75677
G1 X96.587 Y88.672 E17.83371
G1 X96.588 Y88.168 E17.84267
G1 X92.266 Y88.168 E17.91963
G1 X92.266 Y87.665 E17.92860
G1 X96.589 Y87.665 E18.00558
G1 X96.590 Y87.161 E18.01454
G1 X92.266 Y87.161 E18.09154
G1 X92.266 Y86.658 E18.10050
G1 X96.591 Y86.658 E18.17752
G1 X96.593 Y86.154 E18.18648
