; generated by Slic3r 0.9.8 on 2013-06-03 at 20:24:23

; layer_height = .25
; perimeters = 1
; top_solid_layers = 4
; bottom_solid_layers = 4
; fill_density = .9
; perimeter_speed = 30
; infill_speed = 40
; travel_speed = 130
; scale = 1
; nozzle_diameter = 0.5
; filament_diameter = 3
; extrusion_multiplier = 1
; perimeters extrusion width = 0.80mm
; infill extrusion width = 0.80mm
; first layer extrusion width = 0.50mm

M107
M104 S220 ; set temperature
G28 ; home all axes
M109 S220 ; wait for temperature to be reached
G90 ; use absolute coordinates
G21 ; set units to millimeters
G92 E0
M82 ; use absolute distances for extrusion
G1 Z0.250 F7800.000
G1 X82.933 Y127.351
G1 X82.343 Y127.331 F900.000 E0.01044
G1 X81.763 Y127.251 E0.02079
G1 X81.193 Y127.131 E0.03109
G1 X80.363 Y126.861 E0.04653
G1 X80.093 Y126.751 E0.05168
G1 X79.563 Y126.491 E0.06212
G1 X70.933 Y121.271 E0.24048
G1 X70.653 Y121.091 E0.24637
G1 X70.123 Y120.701 E0.25800
G1 X69.633 Y120.261 E0.26965
G1 X69.183 Y119.771 E0.28142
G1 X41.293 Y86.441 E1.04995
G1 X40.963 Y86.011 E1.05954
G1 X40.663 Y85.561 E1.06910
G1 X40.283 Y84.841 E1.08350
G1 X40.083 Y84.331 E1.09318
G1 X39.913 Y83.811 E1.10286
G1 X39.743 Y83.021 E1.11715
G1 X39.683 Y82.481 E1.12676
G1 X39.663 Y82.201 E1.13172
G1 X39.683 Y81.391 E1.14605
G1 X39.753 Y80.851 E1.15568
G1 X39.853 Y80.321 E1.16522
G1 X40.003 Y79.791 E1.17496
G1 X40.193 Y79.281 E1.18458
G1 X40.413 Y78.791 E1.19408
G1 X40.543 Y78.551 E1.19891
G1 X40.823 Y78.081 E1.20858
G1 X41.143 Y77.641 E1.21820
G1 X41.493 Y77.231 E1.22773
G1 X41.883 Y76.841 E1.23749
G1 X42.293 Y76.481 E1.24714
G1 X42.723 Y76.161 E1.25662
G1 X43.193 Y75.871 E1.26638
G1 X47.493 Y73.421 E1.35390
G1 X48.043 Y73.161 E1.36466
G1 X48.903 Y72.871 E1.38071
G1 X49.493 Y72.741 E1.39139
G1 X49.793 Y72.701 E1.39674
G1 X50.703 Y72.641 E1.41287
G1 X149.583 Y72.651 E3.16145
G1 X150.193 Y72.701 E3.17228
G1 X150.783 Y72.801 E3.18286
G1 X151.083 Y72.871 E3.18831
G1 X151.943 Y73.161 E3.20436
G1 X152.753 Y73.561 E3.22033
G1 X156.793 Y75.871 E3.30263
G1 X157.033 Y76.011 E3.30754
G1 X157.483 Y76.321 E3.31720
G1 X158.103 Y76.841 E3.33151
G1 X158.483 Y77.221 E3.34102
G1 X158.663 Y77.431 E3.34591
G1 X159.003 Y77.851 E3.35546
G1 X159.303 Y78.301 E3.36503
G1 X159.563 Y78.781 E3.37468
G1 X159.793 Y79.271 E3.38425
G1 X159.893 Y79.521 E3.38902
G1 X160.123 Y80.301 E3.40340
G1 X160.233 Y80.831 E3.41297
G1 X160.303 Y81.371 E3.42260
G1 X160.323 Y82.181 E3.43693
G1 X160.283 Y82.721 E3.44650
G1 X160.203 Y83.261 E3.45615
G1 X160.083 Y83.791 E3.46576
G1 X160.003 Y84.051 E3.47057
G1 X159.823 Y84.561 E3.48014
G1 X159.603 Y85.051 E3.48964
G1 X159.343 Y85.531 E3.49929
G1 X159.043 Y85.981 E3.50885
G1 X158.713 Y86.411 E3.51844
G1 X131.133 Y119.741 E4.28347
G1 X130.913 Y120.001 E4.28949
G1 X130.443 Y120.471 E4.30125
G1 X130.183 Y120.691 E4.30727
G1 X129.653 Y121.091 E4.31901
G1 X120.733 Y126.491 E4.50340
G1 X120.203 Y126.751 E4.51384
G1 X119.383 Y127.051 E4.52928
G1 X118.813 Y127.201 E4.53971
G1 X117.953 Y127.331 E4.55509
G1 X117.363 Y127.351 E4.56553
G1 X83.008 Y127.351 E5.17306
G1 X82.933 Y127.351 E5.17438
G1 X82.933 Y126.851 F7800.000
G1 X82.053 Y126.791 F900.000 E5.18998
G1 X81.183 Y126.611 E5.20569
G1 X80.623 Y126.431 E5.21609
G1 X80.353 Y126.321 E5.22125
G1 X79.823 Y126.061 E5.23169
G1 X70.933 Y120.681 E5.41545
G1 X70.443 Y120.311 E5.42630
G1 X69.983 Y119.901 E5.43720
G1 X69.573 Y119.451 E5.44797
G1 X41.513 Y85.921 E6.22114
G1 X41.203 Y85.481 E6.23066
G1 X40.943 Y85.031 E6.23985
G1 X40.703 Y84.551 E6.24934
G1 X40.513 Y84.061 E6.25864
G1 X40.363 Y83.561 E6.26787
G1 X40.253 Y83.041 E6.27727
G1 X40.183 Y82.511 E6.28672
G1 X40.163 Y81.721 E6.30069
G1 X40.203 Y81.201 E6.30992
G1 X40.243 Y80.931 E6.31474
G1 X40.343 Y80.421 E6.32393
G1 X40.493 Y79.911 E6.33334
G1 X40.783 Y79.171 E6.34739
G1 X40.903 Y78.941 E6.35198
G1 X41.033 Y78.701 E6.35681
G1 X41.473 Y78.041 E6.37083
G1 X41.803 Y77.631 E6.38014
G1 X42.363 Y77.071 E6.39414
G1 X42.773 Y76.741 E6.40345
G1 X43.213 Y76.441 E6.41287
G1 X47.723 Y73.861 E6.50475
G1 X48.493 Y73.531 E6.51957
G1 X49.303 Y73.291 E6.53451
G1 X49.863 Y73.191 E6.54456
G1 X50.143 Y73.161 E6.54954
G1 X50.703 Y73.141 E6.55945
G1 X149.283 Y73.141 E8.30273
G1 X149.843 Y73.161 E8.31264
G1 X150.123 Y73.191 E8.31762
G1 X150.683 Y73.291 E8.32768
G1 X150.953 Y73.361 E8.33261
G1 X151.493 Y73.531 E8.34262
G1 X152.013 Y73.741 E8.35254
G1 X152.513 Y74.001 E8.36251
G1 X156.773 Y76.441 E8.44932
G1 X157.213 Y76.741 E8.45874
G1 X157.623 Y77.071 E8.46805
G1 X158.003 Y77.441 E8.47743
G1 X158.183 Y77.631 E8.48205
G1 X158.513 Y78.041 E8.49136
G1 X158.953 Y78.691 E8.50524
G1 X159.193 Y79.161 E8.51457
G1 X159.403 Y79.651 E8.52400
G1 X159.493 Y79.891 E8.52853
G1 X159.693 Y80.661 E8.54260
G1 X159.743 Y80.921 E8.54728
G1 X159.823 Y81.701 E8.56115
G1 X159.803 Y82.491 E8.57513
G1 X159.733 Y83.011 E8.58440
G1 X159.633 Y83.531 E8.59377
G1 X159.393 Y84.281 E8.60769
G1 X159.293 Y84.531 E8.61245
G1 X159.063 Y85.001 E8.62171
G1 X158.653 Y85.671 E8.63560
G1 X158.333 Y86.091 E8.64494
G1 X130.753 Y119.421 E9.40996
G1 X130.333 Y119.881 E9.42098
G1 X130.103 Y120.101 E9.42661
G1 X129.873 Y120.301 E9.43200
G1 X129.373 Y120.671 E9.44300
G1 X120.473 Y126.061 E9.62700
G1 X119.943 Y126.321 E9.63744
G1 X119.393 Y126.531 E9.64785
G1 X118.823 Y126.681 E9.65827
G1 X118.243 Y126.791 E9.66871
G1 X117.363 Y126.851 E9.68431
G1 X83.008 Y126.851 E10.29184
G1 X82.933 Y126.851 E10.29316
G1 X59.407 Y85.846 F7800.000
G1 X58.717 Y86.124 F300.000 E10.30632
G1 X58.037 Y86.214 E10.31845
G1 X57.327 Y86.120 E10.33111
G1 X56.651 Y85.840 E10.34406
G1 X56.100 Y85.410 E10.35641
G1 X55.664 Y84.844 E10.36905
G1 X55.390 Y84.179 E10.38176
G1 X55.311 Y83.584 E10.39237
G1 X55.297 Y83.472 E10.39436
G1 X55.390 Y82.764 E10.40699
G1 X55.665 Y82.102 E10.41967
G1 X56.101 Y81.533 E10.43235
G1 X56.669 Y81.096 E10.44502
G1 X57.327 Y80.824 E10.45761
G1 X58.037 Y80.731 E10.47028
G1 X58.747 Y80.824 E10.48294
G1 X59.408 Y81.099 E10.49560
G1 X59.975 Y81.533 E10.50823
G1 X60.414 Y82.105 E10.52098
G1 X60.686 Y82.764 E10.53359
G1 X60.777 Y83.474 E10.54624
G1 X60.682 Y84.210 E10.55938
G1 X60.412 Y84.844 E10.57155
G1 X59.975 Y85.410 E10.58420
G1 X59.467 Y85.801 E10.59554
G1 X59.407 Y85.846 E10.59687
G1 X59.155 Y85.409 F7800.000
G1 X58.604 Y85.634 F300.000 E10.60739
G1 X58.037 Y85.709 E10.61750
G1 X57.458 Y85.633 E10.62784
G1 X56.912 Y85.407 E10.63828
G1 X56.457 Y85.053 E10.64847
G1 X56.101 Y84.591 E10.65879
G1 X55.877 Y84.050 E10.66915
G1 X55.807 Y83.519 E10.67862
G1 X55.877 Y82.894 E10.68973
G1 X56.101 Y82.354 E10.70006
G1 X56.457 Y81.890 E10.71041
G1 X56.920 Y81.534 E10.72074
G1 X57.458 Y81.311 E10.73103
G1 X58.037 Y81.235 E10.74137
G1 X58.616 Y81.312 E10.75170
G1 X59.155 Y81.535 E10.76202
G1 X59.619 Y81.890 E10.77235
G1 X59.976 Y82.356 E10.78272
G1 X60.199 Y82.894 E10.79302
G1 X60.273 Y83.473 E10.80335
G1 X60.197 Y84.063 E10.81386
G1 X59.975 Y84.591 E10.82399
G1 X59.619 Y85.053 E10.83432
G1 X59.215 Y85.364 E10.84333
G1 X59.155 Y85.409 E10.84466
G1 X59.131 Y85.909 F7800.000
G1 X139.220 Y83.473
G1 X139.314 Y82.763 F300.000 E10.85733
G1 X139.588 Y82.103 E10.86997
G1 X140.016 Y81.542 E10.88244
G1 X140.590 Y81.101 E10.89524
G1 X140.693 Y81.058 E10.89722
G1 X141.251 Y80.826 E10.90791
G1 X141.961 Y80.732 E10.92057
G1 X142.671 Y80.826 E10.93323
G1 X143.331 Y81.100 E10.94586
G1 X143.902 Y81.537 E10.95858
G1 X144.333 Y82.102 E10.97116
G1 X144.608 Y82.763 E10.98382
G1 X144.701 Y83.472 E10.99645
G1 X144.687 Y83.583 E10.99844
G1 X144.608 Y84.183 E11.00914
G1 X144.334 Y84.844 E11.02179
G1 X143.901 Y85.411 E11.03441
G1 X143.321 Y85.852 E11.04729
G1 X142.670 Y86.122 E11.05976
G1 X141.961 Y86.213 E11.07240
G1 X141.252 Y86.122 E11.08503
G1 X140.595 Y85.850 E11.09761
G1 X140.021 Y85.411 E11.11038
G1 X139.588 Y84.843 E11.12302
G1 X139.315 Y84.184 E11.13564
G1 X139.230 Y83.548 E11.14699
G1 X139.220 Y83.473 E11.14832
G1 X139.725 Y83.473 F7800.000
G1 X139.801 Y82.894 F300.000 E11.15865
G1 X140.025 Y82.355 E11.16897
G1 X140.376 Y81.895 E11.17920
G1 X140.885 Y81.519 E11.19039
G1 X141.382 Y81.313 E11.19990
G1 X141.961 Y81.237 E11.21023
G1 X142.540 Y81.313 E11.22056
G1 X143.079 Y81.537 E11.23087
G1 X143.544 Y81.893 E11.24123
G1 X143.897 Y82.355 E11.25151
G1 X144.121 Y82.894 E11.26183
G1 X144.191 Y83.519 E11.27295
G1 X144.121 Y84.052 E11.28247
G1 X143.897 Y84.591 E11.29279
G1 X143.544 Y85.055 E11.30310
G1 X143.075 Y85.413 E11.31353
G1 X142.540 Y85.635 E11.32377
G1 X141.961 Y85.709 E11.33410
G1 X141.382 Y85.635 E11.34441
G1 X140.845 Y85.412 E11.35470
G1 X140.378 Y85.055 E11.36509
G1 X140.025 Y84.591 E11.37540
G1 X139.802 Y84.053 E11.38571
G1 X139.735 Y83.547 E11.39472
G1 X139.725 Y83.473 E11.39605
G1 X139.303 Y83.204 F7800.000
G1 X116.689 Y113.197
G1 X117.126 Y113.767 F300.000 E11.40875
G1 X117.400 Y114.428 E11.42141
G1 X117.491 Y115.137 E11.43405
G1 X117.400 Y115.846 E11.44668
G1 X117.126 Y116.507 E11.45934
G1 X116.689 Y117.077 E11.47204
G1 X116.120 Y117.511 E11.48469
G1 X115.461 Y117.784 E11.49731
G1 X114.751 Y117.878 E11.50997
G1 X114.041 Y117.784 E11.52264
G1 X113.381 Y117.510 E11.53526
G1 X112.814 Y117.076 E11.54789
G1 X112.378 Y116.507 E11.56058
G1 X112.104 Y115.847 E11.57321
G1 X112.010 Y115.137 E11.58588
G1 X112.104 Y114.427 E11.59854
G1 X112.378 Y113.767 E11.61118
G1 X112.814 Y113.198 E11.62386
G1 X113.381 Y112.764 E11.63648
G1 X114.041 Y112.490 E11.64911
G1 X114.751 Y112.397 E11.66178
G1 X115.461 Y112.490 E11.67445
G1 X116.120 Y112.763 E11.68706
G1 X116.629 Y113.152 E11.69838
G1 X116.689 Y113.197 E11.69971
G1 X116.333 Y113.554 F7800.000
G1 X116.689 Y114.019 F300.000 E11.71007
G1 X116.913 Y114.558 E11.72039
G1 X116.987 Y115.137 E11.73071
G1 X116.913 Y115.716 E11.74103
G1 X116.689 Y116.255 E11.75135
G1 X116.333 Y116.720 E11.76170
G1 X115.869 Y117.074 E11.77203
G1 X115.330 Y117.297 E11.78233
G1 X114.751 Y117.373 E11.79266
G1 X114.172 Y117.297 E11.80300
G1 X113.633 Y117.073 E11.81331
G1 X113.171 Y116.719 E11.82361
G1 X112.815 Y116.255 E11.83395
G1 X112.591 Y115.716 E11.84426
G1 X112.515 Y115.137 E11.85460
G1 X112.591 Y114.558 E11.86493
G1 X112.815 Y114.019 E11.87524
G1 X113.171 Y113.555 E11.88560
G1 X113.633 Y113.201 E11.89589
G1 X114.171 Y112.978 E11.90620
G1 X114.751 Y112.901 E11.91653
G1 X115.331 Y112.978 E11.92687
G1 X115.869 Y113.200 E11.93717
G1 X116.273 Y113.509 E11.94617
G1 X116.333 Y113.554 E11.94749
G1 X116.821 Y113.446 F7800.000
G1 X101.526 Y92.374
G1 X100.844 Y92.650 F300.000 E11.96051
G1 X100.155 Y92.742 E11.97280
G1 X99.450 Y92.648 E11.98537
G1 X98.784 Y92.374 E11.99812
G1 X98.216 Y91.938 E12.01078
G1 X97.782 Y91.370 E12.02341
G1 X97.506 Y90.709 E12.03609
G1 X97.415 Y90.001 E12.04870
G1 X97.506 Y89.291 E12.06136
G1 X97.782 Y88.631 E12.07401
G1 X98.215 Y88.063 E12.08665
G1 X98.785 Y87.626 E12.09934
G1 X99.446 Y87.352 E12.11201
G1 X100.155 Y87.261 E12.12464
G1 X100.864 Y87.352 E12.13727
G1 X101.526 Y87.626 E12.14996
G1 X102.091 Y88.062 E12.16257
G1 X102.530 Y88.634 E12.17532
G1 X102.802 Y89.291 E12.18790
G1 X102.896 Y90.001 E12.20057
G1 X102.801 Y90.710 E12.21321
G1 X102.528 Y91.372 E12.22587
G1 X102.092 Y91.938 E12.23851
G1 X101.585 Y92.328 E12.24982
G1 X101.526 Y92.374 E12.25114
G1 X101.273 Y91.937 F7800.000
G1 X100.726 Y92.162 F300.000 E12.26161
G1 X100.155 Y92.237 E12.27179
G1 X99.578 Y92.161 E12.28208
G1 X99.036 Y91.937 E12.29244
G1 X98.573 Y91.581 E12.30278
G1 X98.219 Y91.119 E12.31308
G1 X97.993 Y90.578 E12.32344
G1 X97.919 Y90.001 E12.33373
G1 X97.993 Y89.422 E12.34406
G1 X98.219 Y88.883 E12.35438
G1 X98.572 Y88.419 E12.36470
G1 X99.037 Y88.063 E12.37506
G1 X99.576 Y87.839 E12.38538
G1 X100.155 Y87.765 E12.39570
G1 X100.734 Y87.839 E12.40601
G1 X101.273 Y88.063 E12.41634
G1 X101.735 Y88.419 E12.42665
G1 X102.092 Y88.884 E12.43703
G1 X102.315 Y89.422 E12.44732
G1 X102.391 Y90.001 E12.45765
G1 X102.314 Y90.579 E12.46795
G1 X102.091 Y91.119 E12.47830
G1 X101.735 Y91.581 E12.48861
G1 X101.333 Y91.891 E12.49760
G1 X101.273 Y91.937 E12.49892
G1 X101.251 Y92.437 F7800.000
G1 X86.926 Y112.763
G1 X87.495 Y113.197 F300.000 E12.51158
G1 X87.932 Y113.767 E12.52428
G1 X88.206 Y114.427 E12.53691
G1 X88.300 Y115.137 E12.54958
G1 X88.206 Y115.847 E12.56224
G1 X87.932 Y116.507 E12.57488
G1 X87.495 Y117.077 E12.58757
G1 X86.926 Y117.511 E12.60023
G1 X86.267 Y117.784 E12.61284
G1 X85.557 Y117.878 E12.62551
G1 X84.849 Y117.784 E12.63813
G1 X84.188 Y117.511 E12.65079
G1 X83.620 Y117.076 E12.66343
G1 X83.184 Y116.507 E12.67611
G1 X82.910 Y115.847 E12.68874
G1 X82.816 Y115.137 E12.70141
G1 X82.910 Y114.427 E12.71407
G1 X83.184 Y113.767 E12.72671
G1 X83.620 Y113.198 E12.73939
G1 X84.188 Y112.763 E12.75203
G1 X84.849 Y112.490 E12.76468
G1 X85.557 Y112.397 E12.77731
G1 X86.267 Y112.490 E12.78998
G1 X86.857 Y112.735 E12.80126
G1 X86.926 Y112.763 E12.80259
G1 X86.675 Y113.200 F7800.000
G1 X87.139 Y113.554 F300.000 E12.81291
G1 X87.495 Y114.019 E12.82327
G1 X87.719 Y114.558 E12.83358
G1 X87.795 Y115.137 E12.84391
G1 X87.719 Y115.716 E12.85425
G1 X87.495 Y116.255 E12.86456
G1 X87.139 Y116.720 E12.87491
G1 X86.675 Y117.074 E12.88524
G1 X86.136 Y117.297 E12.89554
G1 X85.557 Y117.373 E12.90588
G1 X84.980 Y117.297 E12.91617
G1 X84.439 Y117.074 E12.92651
G1 X83.977 Y116.719 E12.93681
G1 X83.621 Y116.255 E12.94716
G1 X83.397 Y115.716 E12.95747
G1 X83.321 Y115.137 E12.96781
G1 X83.397 Y114.558 E12.97814
G1 X83.621 Y114.019 E12.98845
G1 X83.977 Y113.555 E12.99880
G1 X84.439 Y113.200 E13.00910
G1 X84.980 Y112.978 E13.01944
G1 X85.557 Y112.901 E13.02974
G1 X86.137 Y112.978 E13.04008
G1 X86.605 Y113.172 E13.04905
G1 X86.675 Y113.200 E13.05038
G1 X87.118 Y112.969 F7800.000
G1 X83.171 Y119.631
G1 X74.884 Y114.896 F900.000 E13.21917
G1 X47.434 Y82.091 E13.97559
G1 X50.842 Y80.143 E14.04502
G1 X149.156 Y80.143 E15.78359
G1 X152.569 Y82.094 E15.85311
G1 X125.424 Y114.897 E16.60606
G1 X117.140 Y119.631 E16.77478
G1 X117.040 Y119.859 E16.77919
G1 X83.270 Y119.859 E17.37636
G1 X83.201 Y119.700 E17.37942
G1 X83.171 Y119.631 E17.38075
G1 X82.779 Y119.983 F7800.000
G1 X74.558 Y115.286 F900.000 E17.54819
G1 X46.667 Y81.954 E18.31677
G1 X50.709 Y79.643 E18.39912
G1 X149.289 Y79.643 E20.14238
G1 X153.333 Y81.955 E20.22476
G1 X125.751 Y115.286 E20.98983
G1 X117.531 Y119.983 E21.15724
G1 X117.366 Y120.359 E21.16451
G1 X82.943 Y120.359 E21.77325
G1 X82.809 Y120.052 E21.77917
G1 X82.779 Y119.983 E21.78049
G1 X82.883 Y119.494 F7800.000
G1 X85.546 Y118.353
G1 X114.762 Y118.353 F1500.000 E22.30004
G1 X114.740 Y118.353 F7800.000
G1 X118.593 Y118.353 F1500.000 E22.36855
G1 X117.713 Y118.856 E22.38657
G1 X82.597 Y118.856 E23.01104
G1 X83.373 Y119.359 E23.02748
G1 X116.939 Y119.359 E23.62438
G1 X119.473 Y117.851 F7800.000
G1 X116.274 Y117.851 F1500.000 E23.68128
G1 X116.886 Y117.348 E23.69538
G1 X120.353 Y117.348 E23.75703
G1 X121.233 Y116.845 E23.77505
G1 X117.272 Y116.845 E23.84549
G1 X117.511 Y116.342 E23.85539
G1 X122.113 Y116.342 E23.93723
G1 X122.993 Y115.839 E23.95526
G1 X117.680 Y115.839 E24.04974
G1 X117.745 Y115.337 E24.05875
G1 X123.873 Y115.337 E24.16774
G1 X124.753 Y114.834 E24.18576
G1 X117.731 Y114.834 E24.31063
G1 X117.667 Y114.331 E24.31965
G1 X125.469 Y114.331 E24.45840
G1 X125.885 Y113.828 E24.47001
G1 X117.468 Y113.828 E24.61970
G1 X117.193 Y113.325 E24.62989
G1 X126.301 Y113.325 E24.79187
G1 X126.717 Y112.823 E24.80348
G1 X116.797 Y112.823 E24.97989
G1 X116.130 Y112.320 E24.99474
G1 X127.134 Y112.320 E25.19042
G1 X127.550 Y111.817 E25.20202
G1 X72.734 Y111.817 E26.17681
G1 X73.155 Y112.320 E26.18847
G1 X84.177 Y112.320 E26.38449
G1 X83.513 Y112.823 E26.39930
G1 X73.575 Y112.823 E26.57603
G1 X73.996 Y113.325 E26.58769
G1 X83.118 Y113.325 E26.74989
G1 X82.842 Y113.828 E26.76009
