; generated by Slic3r 0.9.8 on 2013-06-04 at 15:57:47

; layer_height = .25
; perimeters = 1
; top_solid_layers = 4
; bottom_solid_layers = 4
; fill_density = .9
; perimeter_speed = 30
; infill_speed = 40
; travel_speed = 130
; scale = 1
; nozzle_diameter = 0.5
; filament_diameter = 3
; extrusion_multiplier = 1
; perimeters extrusion width = 0.80mm
; infill extrusion width = 0.80mm
; first layer extrusion width = 0.50mm

M107
M104 S220 ; set temperature
G28 ; home all axes
M109 S220 ; wait for temperature to be reached
G90 ; use absolute coordinates
G21 ; set units to millimeters
G92 E0
M82 ; use absolute distances for extrusion
G1 Z0.250 F7800.000
G1 X119.624 Y138.359
G1 X119.604 Y138.909 F900.000 E0.00973
G1 X119.494 Y139.729 E0.02436
G1 X119.364 Y140.259 E0.03401
G1 X119.094 Y141.039 E0.04861
G1 X118.864 Y141.539 E0.05834
G1 X118.594 Y142.019 E0.06808
G1 X118.124 Y142.689 E0.08255
G1 X117.764 Y143.109 E0.09234
G1 X117.374 Y143.499 E0.10209
G1 X116.954 Y143.859 E0.11187
G1 X116.284 Y144.329 E0.12634
G1 X115.804 Y144.599 E0.13608
G1 X115.304 Y144.829 E0.14582
G1 X114.524 Y145.099 E0.16041
G1 X113.994 Y145.229 E0.17006
G1 X113.174 Y145.339 E0.18469
G1 X112.624 Y145.359 E0.19443
G1 X90.544 Y145.359 E0.58489
G1 X90.004 Y145.339 E0.59444
G1 X89.454 Y145.279 E0.60423
G1 X88.664 Y145.099 E0.61855
G1 X87.884 Y144.839 E0.63309
G1 X87.394 Y144.609 E0.64267
G1 X86.914 Y144.349 E0.65232
G1 X86.684 Y144.199 E0.65718
G1 X86.464 Y144.049 E0.66188
G1 X86.034 Y143.709 E0.67158
G1 X85.434 Y143.149 E0.68609
G1 X84.914 Y142.519 E0.70054
G1 X84.604 Y142.069 E0.71020
G1 X84.464 Y141.839 E0.71496
G1 X84.214 Y141.349 E0.72469
G1 X84.004 Y140.849 E0.73428
G1 X83.824 Y140.329 E0.74401
G1 X83.644 Y139.539 E0.75834
G1 X83.554 Y138.729 E0.77275
G1 X80.374 Y77.949 E1.84905
G1 X80.374 Y61.639 E2.13747
G1 X80.394 Y61.089 E2.14720
G1 X80.504 Y60.269 E2.16184
G1 X80.714 Y59.479 E2.17629
G1 X81.014 Y58.709 E2.19090
G1 X81.404 Y57.979 E2.20554
G1 X81.874 Y57.309 E2.22001
G1 X82.424 Y56.689 E2.23467
G1 X82.824 Y56.319 E2.24431
G1 X83.484 Y55.819 E2.25895
G1 X84.194 Y55.399 E2.27354
G1 X84.954 Y55.069 E2.28819
G1 X85.744 Y54.829 E2.30279
G1 X86.004 Y54.769 E2.30751
G1 X86.554 Y54.689 E2.31734
G1 X86.824 Y54.659 E2.32214
G1 X87.374 Y54.639 E2.33187
G1 X112.624 Y54.639 E2.77839
G1 X113.174 Y54.659 E2.78812
G1 X113.994 Y54.769 E2.80275
G1 X114.784 Y54.979 E2.81721
G1 X115.554 Y55.279 E2.83182
G1 X116.284 Y55.669 E2.84646
G1 X116.954 Y56.139 E2.86093
G1 X117.574 Y56.689 E2.87559
G1 X118.124 Y57.309 E2.89024
G1 X118.594 Y57.979 E2.90472
G1 X118.864 Y58.459 E2.91446
G1 X119.094 Y58.959 E2.92419
G1 X119.364 Y59.739 E2.93878
G1 X119.494 Y60.269 E2.94843
G1 X119.574 Y60.819 E2.95826
G1 X119.604 Y61.089 E2.96307
G1 X119.624 Y61.639 E2.97280
G1 X119.624 Y138.284 E4.32818
G1 X119.624 Y138.359 E4.32951
G1 X119.124 Y138.359 F7800.000
G1 X119.104 Y138.879 F900.000 E4.33871
G1 X119.044 Y139.399 E4.34797
G1 X118.934 Y139.919 E4.35737
G1 X118.794 Y140.419 E4.36655
G1 X118.704 Y140.659 E4.37108
G1 X118.494 Y141.149 E4.38051
G1 X118.254 Y141.609 E4.38968
G1 X117.824 Y142.259 E4.40346
G1 X117.494 Y142.669 E4.41277
G1 X116.934 Y143.229 E4.42678
G1 X116.524 Y143.559 E4.43608
G1 X116.314 Y143.709 E4.44065
G1 X115.644 Y144.119 E4.45454
G1 X115.174 Y144.339 E4.46372
G1 X114.684 Y144.529 E4.47301
G1 X113.924 Y144.729 E4.48691
G1 X113.664 Y144.779 E4.49159
G1 X113.144 Y144.839 E4.50084
G1 X112.624 Y144.859 E4.51005
G1 X90.544 Y144.859 E4.90051
G1 X90.014 Y144.839 E4.90989
G1 X89.224 Y144.719 E4.92402
G1 X88.444 Y144.509 E4.93830
G1 X87.704 Y144.209 E4.95242
G1 X87.234 Y143.959 E4.96184
G1 X86.574 Y143.509 E4.97596
G1 X86.164 Y143.169 E4.98538
G1 X85.784 Y142.789 E4.99488
G1 X85.444 Y142.389 E5.00417
G1 X84.984 Y141.729 E5.01839
G1 X84.724 Y141.259 E5.02789
G1 X84.614 Y141.019 E5.03256
G1 X84.414 Y140.529 E5.04192
G1 X84.254 Y140.019 E5.05137
G1 X84.144 Y139.499 E5.06077
G1 X84.054 Y138.699 E5.07501
G1 X80.874 Y77.949 E6.15078
G1 X80.874 Y61.639 E6.43920
G1 X80.894 Y61.119 E6.44840
G1 X80.954 Y60.599 E6.45766
G1 X81.064 Y60.079 E6.46706
G1 X81.204 Y59.579 E6.47624
G1 X81.394 Y59.089 E6.48553
G1 X81.614 Y58.619 E6.49471
G1 X81.744 Y58.389 E6.49938
G1 X82.174 Y57.739 E6.51316
G1 X82.504 Y57.329 E6.52247
G1 X83.064 Y56.769 E6.53648
G1 X83.684 Y56.289 E6.55034
G1 X84.354 Y55.879 E6.56423
G1 X85.074 Y55.559 E6.57817
G1 X85.314 Y55.469 E6.58270
G1 X85.814 Y55.329 E6.59188
G1 X86.334 Y55.219 E6.60128
G1 X86.854 Y55.159 E6.61054
G1 X87.374 Y55.139 E6.61974
G1 X112.624 Y55.139 E7.06626
G1 X113.144 Y55.159 E7.07546
G1 X113.664 Y55.219 E7.08472
G1 X113.924 Y55.269 E7.08940
G1 X114.684 Y55.469 E7.10330
G1 X115.174 Y55.659 E7.11259
G1 X115.644 Y55.879 E7.12177
G1 X115.874 Y56.009 E7.12644
G1 X116.524 Y56.439 E7.14022
G1 X116.934 Y56.769 E7.14953
G1 X117.124 Y56.949 E7.15416
G1 X117.494 Y57.329 E7.16353
G1 X117.824 Y57.739 E7.17284
G1 X118.254 Y58.389 E7.18662
G1 X118.384 Y58.619 E7.19130
G1 X118.604 Y59.089 E7.20047
G1 X118.794 Y59.579 E7.20977
G1 X118.934 Y60.079 E7.21895
G1 X119.044 Y60.599 E7.22835
G1 X119.104 Y61.119 E7.23760
G1 X119.124 Y61.639 E7.24681
G1 X119.124 Y138.284 E8.60219
G1 X119.124 Y138.359 E8.60351
G1 X93.877 Y72.371 F7800.000
G1 X93.168 Y72.465 F300.000 E8.61617
G1 X92.458 Y72.371 E8.62882
G1 X91.797 Y72.097 E8.64147
G1 X91.230 Y71.662 E8.65413
G1 X90.794 Y71.094 E8.66678
G1 X90.520 Y70.433 E8.67943
G1 X90.427 Y69.724 E8.69208
G1 X90.520 Y69.014 E8.70474
G1 X90.794 Y68.353 E8.71739
G1 X91.230 Y67.786 E8.73004
G1 X91.797 Y67.350 E8.74270
G1 X92.458 Y67.076 E8.75535
G1 X93.168 Y66.983 E8.76800
G1 X93.877 Y67.076 E8.78065
G1 X94.538 Y67.350 E8.79331
G1 X95.106 Y67.786 E8.80596
G1 X95.541 Y68.353 E8.81861
G1 X95.815 Y69.014 E8.83127
G1 X95.908 Y69.724 E8.84392
G1 X95.815 Y70.433 E8.85657
G1 X95.541 Y71.094 E8.86923
G1 X95.106 Y71.662 E8.88188
G1 X94.538 Y72.097 E8.89453
G1 X93.946 Y72.342 E8.90586
G1 X93.877 Y72.371 E8.90718
G1 X93.746 Y71.884 F7800.000
G1 X93.168 Y71.960 F300.000 E8.91751
G1 X92.589 Y71.884 E8.92783
G1 X92.049 Y71.661 E8.93816
G1 X91.586 Y71.305 E8.94848
G1 X91.231 Y70.842 E8.95881
G1 X91.007 Y70.303 E8.96913
G1 X90.931 Y69.724 E8.97946
G1 X91.007 Y69.145 E8.98978
G1 X91.231 Y68.605 E9.00011
G1 X91.586 Y68.142 E9.01043
G1 X92.049 Y67.787 E9.02076
G1 X92.589 Y67.563 E9.03108
G1 X93.168 Y67.487 E9.04141
G1 X93.746 Y67.563 E9.05173
G1 X94.286 Y67.787 E9.06206
G1 X94.749 Y68.142 E9.07238
G1 X95.104 Y68.605 E9.08270
G1 X95.328 Y69.145 E9.09303
G1 X95.404 Y69.724 E9.10335
G1 X95.328 Y70.303 E9.11368
G1 X95.104 Y70.842 E9.12400
G1 X94.749 Y71.305 E9.13433
G1 X94.286 Y71.661 E9.14465
G1 X93.816 Y71.855 E9.15365
G1 X93.746 Y71.884 E9.15498
G1 X93.596 Y72.361 F7800.000
G1 X100.365 Y121.346
G1 X101.588 Y121.185 F300.000 E9.17679
G1 X102.811 Y121.346 E9.19861
G1 X103.950 Y121.818 E9.22042
G1 X104.929 Y122.569 E9.24223
G1 X105.680 Y123.547 E9.26405
G1 X106.152 Y124.687 E9.28586
G1 X106.313 Y125.910 E9.30767
G1 X106.152 Y127.133 E9.32949
G1 X105.680 Y128.272 E9.35130
G1 X104.929 Y129.251 E9.37311
G1 X103.950 Y130.002 E9.39493
G1 X102.811 Y130.474 E9.41674
G1 X101.588 Y130.635 E9.43856
G1 X100.365 Y130.474 E9.46037
G1 X99.225 Y130.002 E9.48218
G1 X98.246 Y129.251 E9.50400
G1 X97.495 Y128.272 E9.52581
G1 X97.023 Y127.133 E9.54762
G1 X96.862 Y125.910 E9.56944
G1 X97.023 Y124.687 E9.59125
G1 X97.495 Y123.547 E9.61306
G1 X98.246 Y122.569 E9.63488
G1 X99.225 Y121.818 E9.65669
G1 X100.295 Y121.374 E9.67718
G1 X100.365 Y121.346 E9.67850
G1 X100.495 Y121.833 F7800.000
G1 X101.588 Y121.689 F300.000 E9.69799
G1 X102.680 Y121.833 E9.71748
G1 X103.698 Y122.254 E9.73696
G1 X104.572 Y122.925 E9.75645
G1 X105.243 Y123.799 E9.77593
G1 X105.665 Y124.817 E9.79542
G1 X105.809 Y125.910 E9.81490
G1 X105.665 Y127.002 E9.83439
G1 X105.243 Y128.020 E9.85387
G1 X104.572 Y128.894 E9.87336
G1 X103.698 Y129.565 E9.89285
G1 X102.680 Y129.987 E9.91233
G1 X101.588 Y130.131 E9.93182
G1 X100.495 Y129.987 E9.95130
G1 X99.477 Y129.565 E9.97079
G1 X98.603 Y128.894 E9.99027
G1 X97.932 Y128.020 E10.00976
G1 X97.511 Y127.002 E10.02924
G1 X97.367 Y125.910 E10.04873
G1 X97.511 Y124.817 E10.06821
G1 X97.932 Y123.799 E10.08770
G1 X98.603 Y122.925 E10.10719
G1 X99.477 Y122.254 E10.12667
G1 X100.426 Y121.861 E10.14483
G1 X100.495 Y121.833 E10.14616
G1 X100.646 Y121.356 F7800.000
G1 X91.049 Y137.860
G1 X91.049 Y80.922 F900.000 E11.15303
G1 X87.874 Y77.747 E11.23243
G1 X87.874 Y62.139 E11.50845
G1 X112.126 Y62.139 E11.93730
G1 X112.126 Y137.860 E13.27634
G1 X91.124 Y137.860 E13.64772
G1 X91.049 Y137.860 E13.64905
G1 X90.549 Y137.857 F7800.000
G1 X90.549 Y81.130 F900.000 E14.65221
G1 X87.374 Y77.955 E14.73161
G1 X87.374 Y61.639 E15.02013
G1 X112.626 Y61.639 E15.46667
G1 X112.626 Y138.360 E16.82338
G1 X90.549 Y138.360 E17.21378
G1 X90.549 Y137.932 E17.22135
G1 X90.549 Y137.857 E17.22267
G1 X90.982 Y137.607 F7800.000
G1 X100.821 Y120.811
G1 X91.324 Y120.811 F1500.000 E17.39110
G1 X91.324 Y121.313 E17.40000
G1 X99.363 Y121.313 E17.54258
G1 X98.634 Y121.814 E17.55828
G1 X91.324 Y121.814 E17.68792
G1 X91.324 Y122.315 E17.69682
G1 X98.036 Y122.315 E17.81585
G1 X97.651 Y122.817 E17.82706
G1 X91.324 Y122.817 E17.93927
G1 X91.324 Y123.318 E17.94816
G1 X97.274 Y123.318 E18.05369
G1 X97.066 Y123.820 E18.06332
G1 X91.324 Y123.820 E18.16517
G1 X91.324 Y124.321 E18.17406
G1 X96.859 Y124.321 E18.27222
G1 X96.726 Y124.823 E18.28142
G1 X91.324 Y124.823 E18.37723
G1 X91.324 Y125.324 E18.38613
G1 X96.660 Y125.324 E18.48077
G1 X96.594 Y125.826 E18.48974
G1 X91.324 Y125.826 E18.58321
G1 X91.324 Y126.327 E18.59210
G1 X96.638 Y126.327 E18.68635
G1 X96.704 Y126.829 E18.69532
G1 X91.324 Y126.829 E18.79074
G1 X91.324 Y127.330 E18.79964
G1 X96.789 Y127.330 E18.89656
G1 X96.997 Y127.832 E18.90619
G1 X91.324 Y127.832 E19.00680
G1 X91.324 Y128.333 E19.01569
G1 X97.205 Y128.333 E19.11999
G1 X97.522 Y128.835 E19.13051
G1 X91.324 Y128.835 E19.24044
G1 X91.324 Y129.336 E19.24933
G1 X97.907 Y129.336 E19.36608
G1 X98.415 Y129.838 E19.37874
G1 X91.324 Y129.838 E19.50450
G1 X91.324 Y130.339 E19.51339
G1 X99.068 Y130.339 E19.65074
G1 X100.168 Y130.841 E19.67218
G1 X91.324 Y130.841 E19.82904
G1 X91.324 Y131.342 E19.83794
G1 X111.851 Y131.342 E20.20200
G1 X111.851 Y131.844 E20.21089
G1 X91.324 Y131.844 E20.57495
G1 X91.324 Y132.345 E20.58385
G1 X111.851 Y132.345 E20.94791
G1 X111.851 Y132.847 E20.95680
G1 X91.324 Y132.847 E21.32087
G1 X91.324 Y133.348 E21.32976
G1 X111.851 Y133.348 E21.69382
G1 X111.851 Y133.850 E21.70272
G1 X91.324 Y133.850 E22.06678
G1 X91.324 Y134.351 E22.07567
G1 X111.851 Y134.351 E22.43973
G1 X111.851 Y134.852 E22.44863
G1 X91.324 Y134.852 E22.81269
G1 X91.324 Y135.354 E22.82158
G1 X111.851 Y135.354 E23.18564
G1 X111.851 Y135.855 E23.19454
G1 X91.324 Y135.855 E23.55860
G1 X91.324 Y136.357 E23.56749
G1 X111.851 Y136.357 E23.93155
G1 X111.851 Y136.858 E23.94045
G1 X91.324 Y136.858 E24.30451
G1 X91.324 Y137.360 E24.31341
G1 X111.851 Y137.360 E24.67747
G1 X111.851 Y130.841 F7800.000
G1 X103.007 Y130.841 F1500.000 E24.83432
G1 X104.107 Y130.339 E24.85577
G1 X111.851 Y130.339 E24.99311
G1 X111.851 Y129.838 E25.00200
G1 X104.761 Y129.838 E25.12776
G1 X105.269 Y129.336 E25.14042
G1 X111.851 Y129.336 E25.25716
G1 X111.851 Y128.835 E25.26605
G1 X105.653 Y128.835 E25.37597
G1 X105.971 Y128.333 E25.38649
G1 X111.851 Y128.333 E25.49078
G1 X111.851 Y127.832 E25.49967
G1 X106.178 Y127.832 E25.60028
G1 X106.386 Y127.330 E25.60990
G1 X111.851 Y127.330 E25.70682
G1 X111.851 Y126.829 E25.71572
G1 X106.471 Y126.829 E25.81113
G1 X106.537 Y126.327 E25.82010
G1 X111.851 Y126.327 E25.91435
G1 X111.851 Y125.826 E25.92324
G1 X106.581 Y125.826 E26.01671
G1 X106.515 Y125.324 E26.02568
G1 X111.851 Y125.324 E26.12031
G1 X111.851 Y124.823 E26.12921
G1 X106.449 Y124.823 E26.22501
G1 X106.317 Y124.321 E26.23421
G1 X111.851 Y124.321 E26.33237
G1 X111.851 Y123.820 E26.34126
G1 X106.109 Y123.820 E26.44310
G1 X105.901 Y123.318 E26.45273
G1 X111.851 Y123.318 E26.55825
G1 X111.851 Y122.817 E26.56714
G1 X105.525 Y122.817 E26.67935
G1 X105.140 Y122.315 E26.69056
G1 X111.851 Y122.315 E26.80958
G1 X111.851 Y121.814 E26.81848
G1 X104.542 Y121.814 E26.94811
G1 X103.812 Y121.313 E26.96382
G1 X111.851 Y121.313 E27.10639
G1 X111.851 Y120.811 E27.11529
G1 X102.355 Y120.811 E27.28371
G1 X111.851 Y120.310 F7800.000
G1 X91.324 Y120.310 F1500.000 E27.64777
G1 X91.324 Y119.808 E27.65666
G1 X111.851 Y119.808 E28.02072
G1 X111.851 Y119.307 E28.02962
G1 X91.324 Y119.307 E28.39368
G1 X91.324 Y118.805 E28.40257
G1 X111.851 Y118.805 E28.76664
G1 X111.851 Y118.304 E28.77553
G1 X91.324 Y118.304 E29.13959
G1 X91.324 Y117.802 E29.14848
G1 X111.851 Y117.802 E29.51255
G1 X111.851 Y117.301 E29.52144
G1 X91.324 Y117.301 E29.88550
G1 X91.324 Y116.799 E29.89440
G1 X111.851 Y116.799 E30.25846
G1 X111.851 Y116.298 E30.26735
G1 X91.324 Y116.298 E30.63141
G1 X91.324 Y115.796 E30.64031
G1 X111.851 Y115.796 E31.00437
G1 X111.851 Y115.295 E31.01326
G1 X91.324 Y115.295 E31.37732
G1 X91.324 Y114.793 E31.38622
G1 X111.851 Y114.793 E31.75028
G1 X111.851 Y114.292 E31.75917
G1 X91.324 Y114.292 E32.12323
G1 X91.324 Y113.790 E32.13213
G1 X111.851 Y113.790 E32.49619
G1 X111.851 Y113.289 E32.50508
G1 X91.324 Y113.289 E32.86915
G1 X91.324 Y112.787 E32.87804
G1 X111.851 Y112.787 E33.24210
G1 X111.851 Y112.286 E33.25100
G1 X91.324 Y112.286 E33.61506
G1 X91.324 Y111.784 E33.62395
G1 X111.851 Y111.784 E33.98801
G1 X111.851 Y111.283 E33.99691
G1 X91.324 Y111.283 E34.36097
G1 X91.324 Y110.781 E34.36986
G1 X111.851 Y110.781 E34.73392
G1 X111.851 Y110.280 E34.74282
G1 X91.324 Y110.280 E35.10688
G1 X91.324 Y109.778 E35.11577
G1 X111.851 Y109.778 E35.47983
G1 X111.851 Y109.277 E35.48873
G1 X91.324 Y109.277 E35.85279
G1 X91.324 Y108.776 E35.86168
G1 X111.851 Y108.776 E36.22574
G1 X111.851 Y108.274 E36.23464
G1 X91.324 Y108.274 E36.59870
G1 X91.324 Y107.773 E36.60760
G1 X111.851 Y107.773 E36.97166
G1 X111.851 Y107.271 E36.98055
G1 X91.324 Y107.271 E37.34461
G1 X91.324 Y106.770 E37.35351
G1 X111.851 Y106.770 E37.71757
G1 X111.851 Y106.268 E37.72646
G1 X91.324 Y106.268 E38.09052
G1 X91.324 Y105.767 E38.09942
G1 X111.851 Y105.767 E38.46348
G1 X111.851 Y105.265 E38.47237
G1 X91.324 Y105.265 E38.83643
G1 X91.324 Y104.764 E38.84533
G1 X111.851 Y104.764 E39.20939
G1 X111.851 Y104.262 E39.21828
G1 X91.324 Y104.262 E39.58234
G1 X91.324 Y103.761 E39.59124
G1 X111.851 Y103.761 E39.95530
G1 X111.851 Y103.259 E39.96419
G1 X91.324 Y103.259 E40.32826
G1 X91.324 Y102.758 E40.33715
G1 X111.851 Y102.758 E40.70121
G1 X111.851 Y102.256 E40.71011
G1 X91.324 Y102.256 E41.07417
G1 X91.324 Y101.755 E41.08306
G1 X111.851 Y101.755 E41.44712
G1 X111.851 Y101.253 E41.45602
G1 X91.324 Y101.253 E41.82008
G1 X91.324 Y100.752 E41.82897
G1 X111.851 Y100.752 E42.19303
G1 X111.851 Y100.250 E42.20193
G1 X91.324 Y100.250 E42.56599
G1 X91.324 Y99.749 E42.57488
G1 X111.851 Y99.749 E42.93895
G1 X111.851 Y99.247 E42.94784
G1 X91.324 Y99.247 E43.31190
G1 X91.324 Y98.746 E43.32079
G1 X111.851 Y98.746 E43.68485
G1 X111.851 Y98.244 E43.69375
G1 X91.324 Y98.244 E44.05781
G1 X91.324 Y97.743 E44.06671
G1 X111.851 Y97.743 E44.43077
G1 X111.851 Y97.241 E44.43966
G1 X91.324 Y97.241 E44.80372
G1 X91.324 Y96.740 E44.81262
G1 X111.851 Y96.740 E45.17668
G1 X111.851 Y96.239 E45.18557
G1 X91.324 Y96.239 E45.54963
G1 X91.324 Y95.737 E45.55853
G1 X111.851 Y95.737 E45.92259
G1 X111.851 Y95.236 E45.93148
G1 X91.324 Y95.236 E46.29554
G1 X91.324 Y94.734 E46.30444
G1 X111.851 Y94.734 E46.66850
G1 X111.851 Y94.233 E46.67739
G1 X91.324 Y94.233 E47.04146
G1 X91.324 Y93.731 E47.05035
G1 X111.851 Y93.731 E47.41441
G1 X111.851 Y93.230 E47.42330
