; generated by Slic3r 0.9.8 on 2013-07-06 at 17:27:57

; layer_height = .25
; perimeters = 1
; top_solid_layers = 4
; bottom_solid_layers = 4
; fill_density = .9
; perimeter_speed = 30
; infill_speed = 40
; travel_speed = 130
; scale = 1
; nozzle_diameter = 0.5
; filament_diameter = 3
; extrusion_multiplier = 1
; perimeters extrusion width = 0.80mm
; infill extrusion width = 0.80mm
; first layer extrusion width = 0.50mm

M107
M104 S220 ; set temperature
G28 ; home all axes
M109 S220 ; wait for temperature to be reached
G90 ; use absolute coordinates
G21 ; set units to millimeters
G92 E0
M82 ; use absolute distances for extrusion
G1 Z0.250 F7800.000
G1 X116.434 Y138.729
G1 X116.344 Y139.539 F900.000 E0.01441
G1 X116.234 Y140.069 E0.02398
G1 X116.164 Y140.339 E0.02892
G1 X115.884 Y141.099 E0.04324
G1 X115.654 Y141.599 E0.05297
G1 X115.384 Y142.069 E0.06256
G1 X115.074 Y142.519 E0.07222
G1 X114.554 Y143.149 E0.08667
G1 X114.164 Y143.529 E0.09630
G1 X113.524 Y144.049 E0.11088
G1 X113.074 Y144.349 E0.12044
G1 X112.354 Y144.729 E0.13484
G1 X112.104 Y144.839 E0.13967
G1 X111.584 Y145.019 E0.14940
G1 X111.064 Y145.169 E0.15897
G1 X110.534 Y145.279 E0.16854
G1 X109.984 Y145.339 E0.17833
G1 X109.444 Y145.359 E0.18788
G1 X87.374 Y145.359 E0.57817
G1 X86.824 Y145.339 E0.58790
G1 X86.554 Y145.309 E0.59270
G1 X86.004 Y145.229 E0.60253
G1 X85.744 Y145.169 E0.60725
G1 X84.954 Y144.929 E0.62185
G1 X84.194 Y144.599 E0.63650
G1 X83.484 Y144.179 E0.65109
G1 X82.824 Y143.679 E0.66573
G1 X82.424 Y143.309 E0.67537
G1 X82.054 Y142.909 E0.68500
G1 X81.874 Y142.689 E0.69003
G1 X81.404 Y142.019 E0.70450
G1 X81.014 Y141.289 E0.71914
G1 X80.714 Y140.519 E0.73375
G1 X80.504 Y139.729 E0.74821
G1 X80.394 Y138.909 E0.76284
G1 X80.374 Y138.359 E0.77257
G1 X80.374 Y61.639 E2.12928
G1 X80.394 Y61.089 E2.13901
G1 X80.504 Y60.269 E2.15364
G1 X80.634 Y59.739 E2.16329
G1 X80.804 Y59.219 E2.17297
G1 X81.014 Y58.709 E2.18272
G1 X81.264 Y58.219 E2.19245
G1 X81.554 Y57.749 E2.20221
G1 X82.054 Y57.089 E2.21686
G1 X82.424 Y56.689 E2.22649
G1 X82.824 Y56.319 E2.23613
G1 X83.484 Y55.819 E2.25077
G1 X83.954 Y55.529 E2.26054
G1 X84.444 Y55.279 E2.27026
G1 X84.954 Y55.069 E2.28002
G1 X85.474 Y54.899 E2.28969
G1 X86.004 Y54.769 E2.29934
G1 X86.824 Y54.659 E2.31397
G1 X87.374 Y54.639 E2.32371
G1 X112.624 Y54.639 E2.77022
G1 X113.174 Y54.659 E2.77996
G1 X113.444 Y54.689 E2.78476
G1 X113.994 Y54.769 E2.79459
G1 X114.254 Y54.829 E2.79931
G1 X115.044 Y55.069 E2.81391
G1 X115.804 Y55.399 E2.82856
G1 X116.514 Y55.819 E2.84315
G1 X117.174 Y56.319 E2.85779
G1 X117.574 Y56.689 E2.86743
G1 X117.944 Y57.089 E2.87706
G1 X118.124 Y57.309 E2.88209
G1 X118.594 Y57.979 E2.89656
G1 X118.984 Y58.709 E2.91120
G1 X119.284 Y59.479 E2.92581
G1 X119.494 Y60.269 E2.94027
G1 X119.604 Y61.089 E2.95490
G1 X119.624 Y61.639 E2.96463
G1 X119.614 Y78.319 E3.25960
G1 X116.438 Y138.654 E4.32803
G1 X116.434 Y138.729 E4.32936
G1 X115.934 Y138.699 F7800.000
G1 X115.844 Y139.499 F900.000 E4.34360
G1 X115.734 Y140.019 E4.35300
G1 X115.574 Y140.529 E4.36245
G1 X115.374 Y141.019 E4.37181
G1 X115.134 Y141.499 E4.38130
G1 X114.864 Y141.949 E4.39058
G1 X114.544 Y142.389 E4.40020
G1 X114.204 Y142.789 E4.40948
G1 X113.824 Y143.169 E4.41898
G1 X113.414 Y143.509 E4.42840
G1 X112.754 Y143.959 E4.44253
G1 X112.284 Y144.209 E4.45194
G1 X111.794 Y144.419 E4.46137
G1 X111.284 Y144.589 E4.47088
G1 X110.504 Y144.769 E4.48503
G1 X109.974 Y144.839 E4.49449
G1 X109.444 Y144.859 E4.50387
G1 X87.374 Y144.859 E4.89415
G1 X86.854 Y144.839 E4.90335
G1 X86.334 Y144.779 E4.91261
G1 X85.814 Y144.669 E4.92201
G1 X85.314 Y144.529 E4.93119
G1 X84.824 Y144.339 E4.94048
G1 X84.354 Y144.119 E4.94966
G1 X84.124 Y143.989 E4.95433
G1 X83.474 Y143.559 E4.96812
G1 X83.064 Y143.229 E4.97742
G1 X82.874 Y143.049 E4.98205
G1 X82.504 Y142.669 E4.99143
G1 X82.174 Y142.259 E5.00074
G1 X81.744 Y141.609 E5.01452
G1 X81.614 Y141.379 E5.01919
G1 X81.394 Y140.909 E5.02837
G1 X81.204 Y140.419 E5.03766
G1 X81.004 Y139.659 E5.05156
G1 X80.954 Y139.399 E5.05624
G1 X80.894 Y138.879 E5.06550
G1 X80.874 Y138.359 E5.07470
G1 X80.874 Y61.639 E6.43141
G1 X80.894 Y61.119 E6.44061
G1 X80.954 Y60.599 E6.44987
G1 X81.064 Y60.079 E6.45927
G1 X81.204 Y59.579 E6.46845
G1 X81.394 Y59.089 E6.47774
G1 X81.614 Y58.619 E6.48692
G1 X82.024 Y57.949 E6.50081
G1 X82.504 Y57.329 E6.51467
G1 X82.684 Y57.139 E6.51930
G1 X83.064 Y56.769 E6.52868
G1 X83.474 Y56.439 E6.53799
G1 X84.124 Y56.009 E6.55177
G1 X84.584 Y55.769 E6.56095
G1 X85.314 Y55.469 E6.57490
G1 X85.814 Y55.329 E6.58409
G1 X86.334 Y55.219 E6.59348
G1 X86.854 Y55.159 E6.60274
G1 X87.374 Y55.139 E6.61194
G1 X112.624 Y55.139 E7.05846
G1 X113.144 Y55.159 E7.06766
G1 X113.664 Y55.219 E7.07692
G1 X114.184 Y55.329 E7.08632
G1 X114.684 Y55.469 E7.09550
G1 X115.174 Y55.659 E7.10480
G1 X115.644 Y55.879 E7.11397
G1 X115.874 Y56.009 E7.11864
G1 X116.524 Y56.439 E7.13243
G1 X116.934 Y56.769 E7.14173
G1 X117.124 Y56.949 E7.14636
G1 X117.494 Y57.329 E7.15574
G1 X117.824 Y57.739 E7.16505
G1 X118.254 Y58.389 E7.17883
G1 X118.384 Y58.619 E7.18350
G1 X118.604 Y59.089 E7.19268
G1 X118.794 Y59.579 E7.20197
G1 X118.994 Y60.339 E7.21587
G1 X119.044 Y60.599 E7.22055
G1 X119.104 Y61.119 E7.22981
G1 X119.124 Y61.639 E7.23901
G1 X119.114 Y78.289 E7.53345
G1 X115.938 Y138.624 E8.60188
G1 X115.934 Y138.699 E8.60321
G1 X107.430 Y72.386 F7800.000
G1 X106.833 Y72.465 F300.000 E8.61387
G1 X106.123 Y72.371 E8.62652
G1 X105.462 Y72.097 E8.63917
G1 X104.895 Y71.662 E8.65183
G1 X104.458 Y71.093 E8.66450
G1 X104.185 Y70.434 E8.67712
G1 X104.092 Y69.724 E8.68979
G1 X104.185 Y69.014 E8.70245
G1 X104.459 Y68.354 E8.71509
G1 X104.894 Y67.786 E8.72775
G1 X105.462 Y67.350 E8.74040
G1 X106.123 Y67.076 E8.75306
G1 X106.721 Y66.997 E8.76372
G1 X106.833 Y66.983 E8.76571
G1 X107.542 Y67.076 E8.77836
G1 X108.203 Y67.350 E8.79102
G1 X108.770 Y67.786 E8.80366
G1 X109.206 Y68.353 E8.81631
G1 X109.480 Y69.015 E8.82898
G1 X109.573 Y69.724 E8.84163
G1 X109.480 Y70.434 E8.85429
G1 X109.206 Y71.094 E8.86693
G1 X108.770 Y71.662 E8.87959
G1 X108.203 Y72.097 E8.89224
G1 X107.505 Y72.376 E8.90553
G1 X107.430 Y72.386 E8.90686
G1 X107.365 Y71.890 F7800.000
G1 X106.832 Y71.960 F300.000 E8.91636
G1 X106.254 Y71.884 E8.92668
G1 X105.714 Y71.661 E8.93700
G1 X105.223 Y71.268 E8.94813
G1 X104.895 Y70.842 E8.95764
G1 X104.672 Y70.303 E8.96795
G1 X104.602 Y69.678 E8.97908
G1 X104.672 Y69.145 E8.98858
G1 X104.895 Y68.606 E8.99890
G1 X105.251 Y68.142 E9.00923
G1 X105.714 Y67.787 E9.01955
G1 X106.254 Y67.563 E9.02988
G1 X106.832 Y67.487 E9.04020
G1 X107.411 Y67.563 E9.05053
G1 X107.951 Y67.787 E9.06086
G1 X108.414 Y68.142 E9.07118
G1 X108.769 Y68.605 E9.08150
G1 X108.993 Y69.145 E9.09183
G1 X109.069 Y69.724 E9.10215
G1 X108.993 Y70.303 E9.11248
G1 X108.769 Y70.842 E9.12280
G1 X108.414 Y71.305 E9.13313
G1 X107.951 Y71.661 E9.14345
G1 X107.437 Y71.873 E9.15327
G1 X107.365 Y71.890 E9.15459
G1 X107.212 Y72.366 F7800.000
G1 X100.671 Y117.479
G1 X102.777 Y118.351 F900.000 E9.19488
G1 X104.584 Y119.738 E9.23518
G1 X105.971 Y121.546 E9.27547
G1 X106.843 Y123.651 E9.31576
G1 X107.141 Y125.910 E9.35605
G1 X106.843 Y128.169 E9.39635
G1 X105.971 Y130.274 E9.43664
G1 X104.669 Y131.971 E9.47446
G1 X104.584 Y132.082 E9.47693
G1 X102.777 Y133.469 E9.51723
G1 X100.672 Y134.341 E9.55752
G1 X98.412 Y134.638 E9.59781
G1 X98.274 Y134.620 E9.60028
G1 X96.153 Y134.341 E9.63811
G1 X94.048 Y133.469 E9.67840
G1 X92.241 Y132.082 E9.71869
G1 X90.854 Y130.274 E9.75899
G1 X89.982 Y128.169 E9.79928
G1 X89.684 Y125.910 E9.83957
G1 X89.982 Y123.651 E9.87986
G1 X90.854 Y121.546 E9.92016
G1 X92.241 Y119.738 E9.96045
G1 X94.048 Y118.351 E10.00074
G1 X96.153 Y117.479 E10.04104
G1 X98.412 Y117.182 E10.08133
G1 X100.597 Y117.469 E10.12030
G1 X100.671 Y117.479 E10.12162
G1 X100.541 Y117.966 F7800.000
G1 X102.524 Y118.788 F900.000 E10.15959
G1 X104.169 Y120.050 E10.19625
G1 X104.228 Y120.095 E10.19755
G1 X105.535 Y121.798 E10.23552
G1 X106.356 Y123.781 E10.27348
G1 X106.636 Y125.910 E10.31145
G1 X106.356 Y128.038 E10.34941
G1 X105.535 Y130.022 E10.38738
G1 X104.228 Y131.725 E10.42534
G1 X102.524 Y133.032 E10.46331
G1 X100.541 Y133.854 E10.50127
G1 X98.412 Y134.134 E10.53924
G1 X98.339 Y134.124 E10.54054
G1 X96.284 Y133.854 E10.57720
G1 X94.300 Y133.032 E10.61517
G1 X92.597 Y131.725 E10.65313
G1 X91.290 Y130.022 E10.69110
G1 X91.262 Y129.954 E10.69240
G1 X90.469 Y128.038 E10.72906
G1 X90.189 Y125.910 E10.76703
G1 X90.469 Y123.781 E10.80499
G1 X90.497 Y123.713 E10.80630
G1 X91.290 Y121.798 E10.84296
G1 X92.597 Y120.095 E10.88092
G1 X94.300 Y118.788 E10.91889
G1 X96.284 Y117.966 E10.95685
G1 X98.412 Y117.686 E10.99482
G1 X100.467 Y117.956 E11.03146
G1 X100.541 Y117.966 E11.03278
G1 X100.910 Y117.628 F7800.000
G1 X108.951 Y137.104
G1 X108.951 Y137.860 F900.000 E11.04615
G1 X87.874 Y137.860 E11.41886
G1 X87.874 Y136.583 E11.44143
G1 X87.874 Y62.139 E12.75789
G1 X112.126 Y62.139 E13.18675
G1 X112.126 Y77.747 E13.46276
G1 X108.951 Y80.922 E13.54216
G1 X108.951 Y137.029 E14.53435
G1 X108.951 Y137.104 E14.53567
G1 X109.451 Y137.104 F7800.000
G1 X109.451 Y138.360 F900.000 E14.55788
G1 X87.374 Y138.360 E14.94828
G1 X87.374 Y136.583 E14.97969
G1 X87.374 Y61.639 E16.30499
G1 X112.626 Y61.639 E16.75153
G1 X112.626 Y77.955 E17.04005
G1 X109.451 Y81.130 E17.11945
G1 X109.451 Y137.029 E18.10797
G1 X109.451 Y137.104 E18.10930
G1 X109.018 Y137.354 F7800.000
G1 X108.676 Y137.360
G1 X88.149 Y137.360 F1500.000 E18.47336
G1 X88.149 Y136.858 E18.48225
G1 X108.676 Y136.858 E18.84632
G1 X108.676 Y136.357 E18.85521
G1 X88.149 Y136.357 E19.21927
G1 X88.149 Y135.855 E19.22816
G1 X108.676 Y135.855 E19.59223
G1 X108.676 Y135.354 E19.60112
G1 X88.149 Y135.354 E19.96518
G1 X88.149 Y134.852 E19.97408
G1 X96.436 Y134.852 E20.12106
G1 X95.097 Y134.351 E20.14642
G1 X88.149 Y134.351 E20.26965
G1 X88.149 Y133.850 E20.27854
G1 X93.948 Y133.850 E20.38140
G1 X93.295 Y133.348 E20.39601
G1 X88.149 Y133.348 E20.48727
G1 X88.149 Y132.847 E20.49616
G1 X92.641 Y132.847 E20.57584
G1 X92.038 Y132.345 E20.58975
G1 X88.149 Y132.345 E20.65872
G1 X88.149 Y131.844 E20.66761
G1 X91.653 Y131.844 E20.72975
G1 X91.268 Y131.342 E20.74097
G1 X88.149 Y131.342 E20.79628
G1 X88.149 Y130.841 E20.80518
G1 X90.883 Y130.841 E20.85367
G1 X90.565 Y130.339 E20.86421
G1 X88.149 Y130.339 E20.90704
G1 X88.149 Y129.838 E20.91594
G1 X90.357 Y129.838 E20.95509
G1 X90.149 Y129.336 E20.96472
G1 X88.149 Y129.336 E21.00018
G1 X88.149 Y128.835 E21.00908
G1 X89.941 Y128.835 E21.04086
G1 X89.734 Y128.333 E21.05049
G1 X88.149 Y128.333 E21.07859
G1 X88.149 Y127.832 E21.08748
G1 X89.658 Y127.832 E21.11424
G1 X89.592 Y127.330 E21.12321
G1 X88.149 Y127.330 E21.14880
G1 X88.149 Y126.829 E21.15769
G1 X89.526 Y126.829 E21.18211
G1 X89.460 Y126.327 E21.19108
G1 X88.149 Y126.327 E21.21433
G1 X88.149 Y125.826 E21.22322
G1 X89.416 Y125.826 E21.24569
G1 X89.482 Y125.324 E21.25466
G1 X88.149 Y125.324 E21.27830
G1 X88.149 Y124.823 E21.28719
G1 X89.548 Y124.823 E21.31200
G1 X89.614 Y124.321 E21.32097
G1 X88.149 Y124.321 E21.34695
G1 X88.149 Y123.820 E21.35585
G1 X89.680 Y123.820 E21.38300
G1 X89.803 Y123.318 E21.39215
G1 X88.149 Y123.318 E21.42149
G1 X88.149 Y122.817 E21.43038
G1 X90.011 Y122.817 E21.46340
G1 X90.219 Y122.315 E21.47303
G1 X88.149 Y122.315 E21.50973
G1 X88.149 Y121.814 E21.51862
G1 X90.426 Y121.814 E21.55901
G1 X90.634 Y121.313 E21.56864
G1 X88.149 Y121.313 E21.61271
G1 X88.149 Y120.811 E21.62160
G1 X91.012 Y120.811 E21.67238
G1 X91.397 Y120.310 E21.68359
G1 X88.149 Y120.310 E21.74119
G1 X88.149 Y119.808 E21.75009
G1 X91.782 Y119.808 E21.81451
G1 X92.207 Y119.307 E21.82617
G1 X88.149 Y119.307 E21.89813
G1 X88.149 Y118.805 E21.90703
G1 X92.860 Y118.805 E21.99058
G1 X93.514 Y118.304 E22.00519
G1 X88.149 Y118.304 E22.10034
G1 X88.149 Y117.802 E22.10923
G1 X94.292 Y117.802 E22.21818
G1 X95.503 Y117.301 E22.24143
G1 X88.149 Y117.301 E22.37185
G1 X88.149 Y116.799 E22.38074
G1 X97.712 Y116.799 E22.55036
G1 X99.112 Y116.799 F7800.000
G1 X108.676 Y116.799 F1500.000 E22.71997
G1 X108.676 Y117.301 E22.72887
G1 X101.322 Y117.301 E22.85929
G1 X102.533 Y117.802 E22.88253
G1 X108.676 Y117.802 E22.99149
G1 X108.676 Y118.304 E23.00038
G1 X103.311 Y118.304 E23.09553
G1 X103.965 Y118.805 E23.11014
G1 X108.676 Y118.805 E23.19370
G1 X108.676 Y119.307 E23.20260
G1 X104.618 Y119.307 E23.27457
G1 X105.043 Y119.808 E23.28622
G1 X108.676 Y119.808 E23.35065
G1 X108.676 Y120.310 E23.35955
G1 X105.428 Y120.310 E23.41715
G1 X105.813 Y120.811 E23.42837
G1 X108.676 Y120.811 E23.47915
G1 X108.676 Y121.313 E23.48804
G1 X106.191 Y121.313 E23.53212
G1 X106.398 Y121.814 E23.54174
G1 X108.676 Y121.814 E23.58213
G1 X108.676 Y122.315 E23.59103
G1 X106.606 Y122.315 E23.62773
G1 X106.814 Y122.817 E23.63736
G1 X108.676 Y122.817 E23.67038
G1 X108.676 Y123.318 E23.67928
G1 X107.022 Y123.318 E23.70861
G1 X107.145 Y123.820 E23.71777
G1 X108.676 Y123.820 E23.74493
G1 X108.676 Y124.321 E23.75382
G1 X107.211 Y124.321 E23.77980
G1 X107.277 Y124.823 E23.78877
G1 X108.676 Y124.823 E23.81359
G1 X108.676 Y125.324 E23.82248
G1 X107.343 Y125.324 E23.84612
G1 X107.409 Y125.826 E23.85510
G1 X108.676 Y125.826 E23.87757
G1 X108.676 Y126.327 E23.88646
G1 X107.365 Y126.327 E23.90971
G1 X107.299 Y126.829 E23.91868
G1 X108.676 Y126.829 E23.94310
G1 X108.676 Y127.330 E23.95200
G1 X107.233 Y127.330 E23.97759
G1 X107.167 Y127.832 E23.98656
G1 X108.676 Y127.832 E24.01332
G1 X108.676 Y128.333 E24.02222
G1 X107.091 Y128.333 E24.05032
G1 X106.884 Y128.835 E24.05995
G1 X108.676 Y128.835 E24.09173
G1 X108.676 Y129.336 E24.10063
G1 X106.676 Y129.336 E24.13610
G1 X106.468 Y129.838 E24.14573
G1 X108.676 Y129.838 E24.18488
G1 X108.676 Y130.339 E24.19378
G1 X106.260 Y130.339 E24.23662
G1 X105.942 Y130.841 E24.24716
G1 X108.676 Y130.841 E24.29565
G1 X108.676 Y131.342 E24.30455
G1 X105.557 Y131.342 E24.35986
G1 X105.172 Y131.844 E24.37108
G1 X108.676 Y131.844 E24.43322
G1 X108.676 Y132.345 E24.44211
G1 X104.787 Y132.345 E24.51108
G1 X104.183 Y132.847 E24.52500
G1 X108.676 Y132.847 E24.60468
G1 X108.676 Y133.348 E24.61357
G1 X103.530 Y133.348 E24.70484
G1 X102.876 Y133.850 E24.71945
G1 X108.676 Y133.850 E24.82231
G1 X108.676 Y134.351 E24.83120
G1 X101.728 Y134.351 E24.95444
G1 X100.388 Y134.852 E24.97980
G1 X108.676 Y134.852 E25.12679
G1 X108.676 Y116.298 F7800.000
G1 X88.149 Y116.298 F1500.000 E25.49085
G1 X88.149 Y115.796 E25.49975
G1 X108.676 Y115.796 E25.86381
G1 X108.676 Y115.295 E25.87270
G1 X88.149 Y115.295 E26.23676
G1 X88.149 Y114.793 E26.24566
G1 X108.676 Y114.793 E26.60972
G1 X108.676 Y114.292 E26.61861
G1 X88.149 Y114.292 E26.98268
G1 X88.149 Y113.790 E26.99157
G1 X108.676 Y113.790 E27.35563
G1 X108.676 Y113.289 E27.36452
G1 X88.149 Y113.289 E27.72859
G1 X88.149 Y112.787 E27.73748
G1 X108.676 Y112.787 E28.10154
G1 X108.676 Y112.286 E28.11044
G1 X88.149 Y112.286 E28.47450
G1 X88.149 Y111.784 E28.48339
G1 X108.676 Y111.784 E28.84745
G1 X108.676 Y111.283 E28.85635
G1 X88.149 Y111.283 E29.22041
G1 X88.149 Y110.781 E29.22930
G1 X108.676 Y110.781 E29.59337
G1 X108.676 Y110.280 E29.60226
G1 X88.149 Y110.280 E29.96632
G1 X88.149 Y109.778 E29.97521
G1 X108.676 Y109.778 E30.33928
G1 X108.676 Y109.277 E30.34817
G1 X88.149 Y109.277 E30.71223
G1 X88.149 Y108.775 E30.72113
G1 X108.676 Y108.775 E31.08519
G1 X108.676 Y108.274 E31.09408
G1 X88.149 Y108.274 E31.45814
G1 X88.149 Y107.773 E31.46704
G1 X108.676 Y107.773 E31.83110
G1 X108.676 Y107.271 E31.83999
G1 X88.149 Y107.271 E32.20405
G1 X88.149 Y106.770 E32.21295
G1 X108.676 Y106.770 E32.57701
G1 X108.676 Y106.268 E32.58590
G1 X88.149 Y106.268 E32.94997
G1 X88.149 Y105.767 E32.95886
G1 X108.676 Y105.767 E33.32292
