; generated by Slic3r 0.9.8 on 2013-06-04 at 19:44:41

; layer_height = .25
; perimeters = 1
; top_solid_layers = 4
; bottom_solid_layers = 4
; fill_density = .9
; perimeter_speed = 30
; infill_speed = 40
; travel_speed = 130
; scale = 1
; nozzle_diameter = 0.5
; filament_diameter = 3
; extrusion_multiplier = 1
; perimeters extrusion width = 0.80mm
; infill extrusion width = 0.80mm
; first layer extrusion width = 0.50mm

M107
M104 S220 ; set temperature
G28 ; home all axes
M109 S220 ; wait for temperature to be reached
G90 ; use absolute coordinates
G21 ; set units to millimeters
G92 E0
M82 ; use absolute distances for extrusion
G1 Z0.250 F7800.000
G1 X63.755 Y22.858
G1 X64.135 Y22.108 F900.000 E0.01487
G1 X64.445 Y21.638 E0.02482
G1 X64.785 Y21.198 E0.03466
G1 X65.155 Y20.778 E0.04456
G1 X65.355 Y20.588 E0.04943
G1 X65.995 Y20.038 E0.06436
G1 X66.225 Y19.878 E0.06931
G1 X66.695 Y19.578 E0.07917
G1 X67.445 Y19.208 E0.09396
G1 X68.245 Y18.928 E0.10895
G1 X68.785 Y18.798 E0.11877
G1 X69.335 Y18.708 E0.12863
G1 X69.615 Y18.678 E0.13361
G1 X70.175 Y18.658 E0.14352
G1 X129.825 Y18.658 E1.19836
G1 X130.385 Y18.678 E1.20827
G1 X130.945 Y18.748 E1.21825
G1 X131.755 Y18.928 E1.23292
G1 X132.555 Y19.208 E1.24791
G1 X133.055 Y19.448 E1.25772
G1 X133.545 Y19.728 E1.26770
G1 X134.005 Y20.038 E1.27751
G1 X134.445 Y20.398 E1.28756
G1 X134.845 Y20.778 E1.29732
G1 X135.395 Y21.418 E1.31224
G1 X135.715 Y21.878 E1.32215
G1 X135.995 Y22.358 E1.33198
G1 X136.245 Y22.858 E1.34186
G1 X167.995 Y95.718 E2.74733
G1 X168.225 Y96.318 E2.75869
G1 X168.395 Y96.938 E2.77006
G1 X168.455 Y97.248 E2.77565
G1 X168.545 Y97.878 E2.78690
G1 X168.575 Y98.518 E2.79823
G1 X168.575 Y124.078 E3.25023
G1 X168.535 Y124.608 E3.25963
G1 X168.455 Y125.128 E3.26893
G1 X160.535 Y166.798 E4.01901
G1 X160.365 Y167.478 E4.03141
G1 X160.255 Y167.818 E4.03773
G1 X159.995 Y168.468 E4.05011
G1 X155.125 Y177.618 E4.23341
G1 X154.685 Y178.338 E4.24833
G1 X154.345 Y178.778 E4.25816
G1 X153.975 Y179.198 E4.26806
G1 X153.355 Y179.768 E4.28295
G1 X152.665 Y180.258 E4.29792
G1 X152.185 Y180.538 E4.30774
G1 X151.675 Y180.778 E4.31771
G1 X150.885 Y181.058 E4.33253
G1 X150.065 Y181.238 E4.34738
G1 X149.505 Y181.308 E4.35736
G1 X148.945 Y181.328 E4.36727
G1 X50.735 Y181.328 E6.10400
G1 X50.185 Y181.308 E6.11374
G1 X49.905 Y181.278 E6.11872
G1 X49.095 Y181.128 E6.13328
G1 X48.295 Y180.888 E6.14805
G1 X47.535 Y180.558 E6.16271
G1 X47.055 Y180.288 E6.17244
G1 X46.595 Y179.978 E6.18225
G1 X45.955 Y179.448 E6.19695
G1 X45.385 Y178.848 E6.21158
G1 X45.045 Y178.408 E6.22142
G1 X44.745 Y177.948 E6.23113
G1 X44.475 Y177.458 E6.24102
G1 X40.095 Y168.708 E6.41406
G1 X39.955 Y168.418 E6.41975
G1 X39.725 Y167.818 E6.43112
G1 X39.545 Y167.198 E6.44253
G1 X31.535 Y125.128 E7.19986
G1 X31.455 Y124.608 E7.20916
G1 X31.415 Y124.078 E7.21856
G1 X31.415 Y98.518 E7.67056
G1 X31.445 Y97.878 E7.68189
G1 X31.595 Y96.938 E7.69873
G1 X31.765 Y96.318 E7.71009
G1 X31.995 Y95.718 E7.72146
G1 X63.725 Y22.927 E9.12567
G1 X63.755 Y22.858 E9.12700
G1 X64.215 Y23.058 F7800.000
G1 X64.585 Y22.338 F900.000 E9.14131
G1 X64.875 Y21.888 E9.15078
G1 X65.205 Y21.468 E9.16022
G1 X65.765 Y20.878 E9.17461
G1 X66.175 Y20.538 E9.18403
G1 X66.615 Y20.218 E9.19365
G1 X67.315 Y19.818 E9.20791
G1 X67.805 Y19.608 E9.21733
G1 X68.315 Y19.428 E9.22690
G1 X68.835 Y19.298 E9.23638
G1 X69.365 Y19.208 E9.24588
G1 X69.635 Y19.178 E9.25069
G1 X70.175 Y19.158 E9.26024
G1 X129.825 Y19.158 E10.31509
G1 X130.365 Y19.178 E10.32464
G1 X131.165 Y19.298 E10.33895
G1 X131.935 Y19.508 E10.35306
G1 X132.685 Y19.818 E10.36741
G1 X133.155 Y20.078 E10.37691
G1 X133.605 Y20.368 E10.38638
G1 X134.235 Y20.878 E10.40071
G1 X134.795 Y21.468 E10.41510
G1 X135.125 Y21.888 E10.42454
G1 X135.415 Y22.338 E10.43401
G1 X135.785 Y23.058 E10.44832
G1 X167.535 Y95.918 E11.85379
G1 X167.835 Y96.758 E11.86956
G1 X168.015 Y97.628 E11.88528
G1 X168.075 Y98.518 E11.90105
G1 X168.075 Y124.058 E12.35270
G1 X168.035 Y124.548 E12.36139
G1 X167.965 Y125.028 E12.36997
G1 X160.045 Y166.698 E13.12005
G1 X159.885 Y167.338 E13.13171
G1 X159.665 Y167.958 E13.14335
G1 X159.395 Y168.548 E13.15482
G1 X154.685 Y177.388 E13.33195
G1 X154.255 Y178.078 E13.34633
G1 X154.095 Y178.288 E13.35100
G1 X153.565 Y178.898 E13.36529
G1 X153.165 Y179.268 E13.37492
G1 X152.745 Y179.608 E13.38448
G1 X152.055 Y180.038 E13.39886
G1 X151.575 Y180.278 E13.40835
G1 X150.815 Y180.558 E13.42267
G1 X150.025 Y180.738 E13.43700
G1 X149.485 Y180.808 E13.44663
G1 X148.945 Y180.828 E13.45618
G1 X50.735 Y180.828 E15.19292
G1 X50.205 Y180.808 E15.20230
G1 X49.935 Y180.778 E15.20710
G1 X49.155 Y180.628 E15.22115
G1 X48.395 Y180.388 E15.23524
G1 X47.665 Y180.058 E15.24941
G1 X46.985 Y179.638 E15.26354
G1 X46.565 Y179.308 E15.27299
G1 X46.165 Y178.958 E15.28239
G1 X45.805 Y178.568 E15.29177
G1 X45.325 Y177.928 E15.30592
G1 X45.045 Y177.478 E15.31529
G1 X40.545 Y168.488 E15.49307
G1 X40.295 Y167.938 E15.50376
G1 X40.105 Y167.378 E15.51421
G1 X39.965 Y166.788 E15.52494
G1 X31.985 Y124.788 E16.28095
G1 X31.915 Y124.058 E16.29392
G1 X31.915 Y98.518 E16.74556
G1 X31.975 Y97.628 E16.76134
G1 X32.155 Y96.758 E16.77705
G1 X32.455 Y95.918 E16.79282
G1 X64.185 Y23.127 E18.19703
G1 X64.215 Y23.058 E18.19836
G1 X147.196 Y107.802 F7800.000
G1 X148.175 Y107.049 F300.000 E18.22021
G1 X149.315 Y106.577 E18.24202
G1 X150.537 Y106.418 E18.26381
G1 X151.760 Y106.577 E18.28563
G1 X152.900 Y107.049 E18.30745
G1 X153.877 Y107.801 E18.32925
G1 X154.630 Y108.779 E18.35108
G1 X155.102 Y109.918 E18.37287
G1 X155.264 Y111.142 E18.39471
G1 X155.102 Y112.366 E18.41654
G1 X154.630 Y113.505 E18.43833
G1 X153.878 Y114.483 E18.46015
G1 X152.900 Y115.235 E18.48198
G1 X151.760 Y115.707 E18.50378
G1 X150.537 Y115.866 E18.52560
G1 X149.316 Y115.707 E18.54737
G1 X148.175 Y115.235 E18.56922
G1 X147.196 Y114.482 E18.59105
G1 X146.446 Y113.504 E18.61284
G1 X145.972 Y112.366 E18.63465
G1 X145.813 Y111.142 E18.65648
G1 X145.972 Y109.918 E18.67831
G1 X146.446 Y108.780 E18.70011
G1 X147.150 Y107.861 E18.72058
G1 X147.196 Y107.802 E18.72190
G1 X147.553 Y108.158 F7800.000
G1 X148.427 Y107.486 F300.000 E18.74141
G1 X149.446 Y107.064 E18.76090
G1 X150.537 Y106.922 E18.78036
G1 X151.630 Y107.064 E18.79986
G1 X152.647 Y107.486 E18.81933
G1 X153.521 Y108.158 E18.83882
G1 X154.193 Y109.032 E18.85832
G1 X154.615 Y110.049 E18.87778
G1 X154.759 Y111.142 E18.89729
G1 X154.615 Y112.235 E18.91679
G1 X154.193 Y113.252 E18.93625
G1 X153.521 Y114.126 E18.95575
G1 X152.647 Y114.798 E18.97525
G1 X151.630 Y115.220 E18.99472
G1 X150.537 Y115.362 E19.01421
G1 X149.446 Y115.220 E19.03367
G1 X148.427 Y114.798 E19.05317
G1 X147.553 Y114.126 E19.07267
G1 X146.883 Y113.252 E19.09215
G1 X146.459 Y112.235 E19.11162
G1 X146.317 Y111.142 E19.13112
G1 X146.459 Y110.049 E19.15062
G1 X146.883 Y109.032 E19.17010
G1 X147.507 Y108.217 E19.18824
G1 X147.553 Y108.158 E19.18957
G1 X147.444 Y107.670 F7800.000
G1 X113.233 Y32.553
G1 X112.573 Y32.827 F300.000 E19.20220
G1 X111.863 Y32.921 E19.21487
G1 X111.153 Y32.827 E19.22753
G1 X110.492 Y32.553 E19.24019
G1 X109.926 Y32.117 E19.25282
G1 X109.490 Y31.551 E19.26545
G1 X109.216 Y30.890 E19.27810
G1 X109.122 Y30.180 E19.29077
G1 X109.216 Y29.470 E19.30343
G1 X109.490 Y28.810 E19.31607
G1 X109.926 Y28.241 E19.32875
G1 X110.492 Y27.808 E19.34135
G1 X111.153 Y27.531 E19.35402
G1 X111.863 Y27.440 E19.36668
G1 X112.573 Y27.531 E19.37934
G1 X113.233 Y27.807 E19.39199
G1 X113.802 Y28.241 E19.40464
G1 X114.236 Y28.810 E19.41730
G1 X114.512 Y29.470 E19.42995
G1 X114.603 Y30.180 E19.44261
G1 X114.512 Y30.890 E19.45527
G1 X114.235 Y31.551 E19.46794
G1 X113.802 Y32.117 E19.48054
G1 X113.293 Y32.508 E19.49189
G1 X113.233 Y32.553 E19.49322
G1 X112.981 Y32.116 F7800.000
G1 X112.442 Y32.340 F300.000 E19.50353
G1 X111.863 Y32.416 E19.51387
G1 X111.284 Y32.340 E19.52420
G1 X110.745 Y32.116 E19.53452
G1 X110.283 Y31.760 E19.54483
G1 X109.927 Y31.298 E19.55515
G1 X109.703 Y30.759 E19.56546
G1 X109.627 Y30.180 E19.57579
G1 X109.703 Y29.601 E19.58613
G1 X109.927 Y29.062 E19.59644
G1 X110.283 Y28.598 E19.60679
G1 X110.745 Y28.244 E19.61708
G1 X111.284 Y28.018 E19.62741
G1 X111.863 Y27.944 E19.63774
G1 X112.442 Y28.018 E19.64807
G1 X112.981 Y28.244 E19.65840
G1 X113.445 Y28.598 E19.66872
G1 X113.799 Y29.062 E19.67904
G1 X114.025 Y29.601 E19.68937
G1 X114.099 Y30.180 E19.69970
G1 X114.025 Y30.759 E19.71003
G1 X113.799 Y31.298 E19.72036
G1 X113.445 Y31.760 E19.73065
G1 X113.041 Y32.071 E19.73967
G1 X112.981 Y32.116 E19.74100
G1 X112.959 Y32.616 F7800.000
G1 X90.880 Y30.180
G1 X90.786 Y30.890 F300.000 E19.75366
G1 X90.512 Y31.551 E19.76631
G1 X90.076 Y32.117 E19.77895
G1 X89.510 Y32.553 E19.79159
G1 X88.847 Y32.827 E19.80427
G1 X88.139 Y32.921 E19.81689
G1 X87.430 Y32.827 E19.82955
G1 X86.766 Y32.553 E19.84223
G1 X86.200 Y32.117 E19.85488
G1 X85.764 Y31.551 E19.86751
G1 X85.490 Y30.890 E19.88016
G1 X85.396 Y30.180 E19.89282
G1 X85.490 Y29.470 E19.90549
G1 X85.764 Y28.810 E19.91813
G1 X86.200 Y28.241 E19.93081
G1 X86.766 Y27.807 E19.94342
G1 X87.430 Y27.531 E19.95612
G1 X88.139 Y27.440 E19.96877
G1 X88.847 Y27.531 E19.98139
G1 X89.510 Y27.807 E19.99409
G1 X90.076 Y28.241 E20.00670
G1 X90.512 Y28.810 E20.01938
G1 X90.786 Y29.470 E20.03202
G1 X90.870 Y30.106 E20.04336
G1 X90.880 Y30.180 E20.04468
G1 X90.375 Y30.180 F7800.000
G1 X90.299 Y30.759 F300.000 E20.05501
G1 X90.075 Y31.298 E20.06533
G1 X89.719 Y31.760 E20.07565
G1 X89.257 Y32.116 E20.08596
G1 X88.716 Y32.340 E20.09631
G1 X88.139 Y32.416 E20.10661
G1 X87.560 Y32.340 E20.11694
G1 X87.019 Y32.116 E20.12729
G1 X86.557 Y31.760 E20.13761
G1 X86.201 Y31.298 E20.14792
G1 X85.977 Y30.759 E20.15824
G1 X85.901 Y30.180 E20.16857
G1 X85.977 Y29.601 E20.17890
G1 X86.201 Y29.062 E20.18922
G1 X86.557 Y28.598 E20.19956
G1 X87.019 Y28.244 E20.20985
G1 X87.560 Y28.018 E20.22022
G1 X88.139 Y27.944 E20.23055
G1 X88.716 Y28.018 E20.24084
G1 X89.257 Y28.244 E20.25120
G1 X89.719 Y28.598 E20.26149
G1 X90.075 Y29.062 E20.27184
G1 X90.299 Y29.601 E20.28215
G1 X90.365 Y30.106 E20.29116
G1 X90.375 Y30.180 E20.29249
G1 X90.797 Y30.449 F7800.000
G1 X75.525 Y34.192
G1 X124.475 Y34.192 F900.000 E21.15811
G1 X124.475 Y48.392 E21.40922
G1 X111.775 Y48.392 E21.63381
G1 X111.775 Y65.854 E21.94261
G1 X88.225 Y65.854 E22.35906
G1 X88.225 Y48.392 E22.66786
G1 X75.525 Y48.392 E22.89244
G1 X75.525 Y34.267 E23.14223
G1 X75.525 Y34.192 E23.14355
G1 X76.025 Y34.692 F7800.000
G1 X123.975 Y34.692 F900.000 E23.99150
G1 X123.975 Y47.892 E24.22492
G1 X111.275 Y47.892 E24.44951
G1 X111.275 Y65.354 E24.75830
G1 X88.725 Y65.354 E25.15708
G1 X88.725 Y47.892 E25.46587
G1 X76.025 Y47.892 E25.69046
G1 X76.025 Y34.767 E25.92256
G1 X76.025 Y34.692 E25.92388
G1 X76.025 Y34.192 F7800.000
G1 X50.687 Y106.577
G1 X51.827 Y107.049 F300.000 E25.94570
G1 X52.806 Y107.802 E25.96755
G1 X53.556 Y108.780 E25.98935
G1 X54.028 Y109.918 E26.01113
G1 X54.190 Y111.142 E26.03296
G1 X54.028 Y112.366 E26.05480
G1 X53.556 Y113.504 E26.07658
G1 X52.806 Y114.482 E26.09838
G1 X51.827 Y115.235 E26.12022
G1 X50.686 Y115.707 E26.14206
G1 X49.463 Y115.866 E26.16387
G1 X48.242 Y115.707 E26.18565
G1 X47.101 Y115.235 E26.20748
G1 X46.122 Y114.482 E26.22932
G1 X45.372 Y113.504 E26.25112
G1 X44.900 Y112.366 E26.27290
G1 X44.738 Y111.142 E26.29474
G1 X44.900 Y109.918 E26.31657
G1 X45.372 Y108.780 E26.33836
G1 X46.122 Y107.801 E26.36017
G1 X47.100 Y107.049 E26.38198
G1 X48.242 Y106.577 E26.40383
G1 X49.463 Y106.418 E26.42561
G1 X50.612 Y106.567 E26.44610
G1 X50.687 Y106.577 E26.44743
G1 X50.556 Y107.064 F7800.000
G1 X51.575 Y107.486 F300.000 E26.46692
G1 X52.449 Y108.158 E26.48643
G1 X53.119 Y109.032 E26.50591
G1 X53.541 Y110.049 E26.52537
G1 X53.685 Y111.142 E26.54487
G1 X53.541 Y112.235 E26.56437
G1 X53.119 Y113.252 E26.58383
G1 X52.449 Y114.126 E26.60331
G1 X51.575 Y114.798 E26.62281
G1 X50.556 Y115.220 E26.64231
G1 X49.463 Y115.362 E26.66181
G1 X48.372 Y115.220 E26.68126
G1 X47.353 Y114.798 E26.70076
G1 X46.479 Y114.126 E26.72027
G1 X45.809 Y113.252 E26.73974
G1 X45.387 Y112.235 E26.75920
G1 X45.243 Y111.142 E26.77871
G1 X45.387 Y110.049 E26.79821
G1 X45.809 Y109.032 E26.81767
G1 X46.479 Y108.158 E26.83715
G1 X47.353 Y107.486 E26.85664
G1 X48.372 Y107.064 E26.87615
G1 X49.463 Y106.922 E26.89560
G1 X50.482 Y107.055 E26.91377
G1 X50.556 Y107.064 E26.91510
G1 X50.925 Y106.726 F7800.000
G1 X57.883 Y164.587
G1 X58.593 Y164.681 F300.000 E26.92777
G1 X59.253 Y164.955 E26.94041
G1 X59.821 Y165.391 E26.95307
G1 X60.258 Y165.957 E26.96572
G1 X60.532 Y166.618 E26.97837
G1 X60.626 Y167.328 E26.99103
G1 X60.532 Y168.038 E27.00370
G1 X60.258 Y168.698 E27.01633
G1 X59.821 Y169.268 E27.02903
G1 X59.253 Y169.701 E27.04166
G1 X58.593 Y169.977 E27.05431
G1 X57.883 Y170.068 E27.06697
G1 X57.175 Y169.977 E27.07959
G1 X56.513 Y169.701 E27.09229
G1 X55.946 Y169.267 E27.10490
G1 X55.510 Y168.698 E27.11758
G1 X55.236 Y168.038 E27.13022
G1 X55.142 Y167.328 E27.14288
G1 X55.236 Y166.618 E27.15555
G1 X55.510 Y165.957 E27.16820
G1 X55.946 Y165.391 E27.18083
G1 X56.512 Y164.955 E27.19347
G1 X57.175 Y164.681 E27.20615
G1 X57.808 Y164.597 E27.21745
G1 X57.883 Y164.587 E27.21877
G1 X57.883 Y165.092 F7800.000
G1 X58.462 Y165.168 F300.000 E27.22911
G1 X59.001 Y165.392 E27.23942
G1 X59.465 Y165.748 E27.24976
G1 X59.821 Y166.210 E27.26008
G1 X60.045 Y166.749 E27.27040
G1 X60.121 Y167.328 E27.28073
G1 X60.045 Y167.907 E27.29107
G1 X59.821 Y168.446 E27.30138
G1 X59.465 Y168.911 E27.31173
G1 X59.001 Y169.264 E27.32205
G1 X58.462 Y169.490 E27.33238
G1 X57.883 Y169.564 E27.34270
G1 X57.306 Y169.490 E27.35300
G1 X56.765 Y169.264 E27.36336
G1 X56.303 Y168.910 E27.37365
G1 X55.947 Y168.446 E27.38400
G1 X55.723 Y167.907 E27.39431
G1 X55.647 Y167.328 E27.40465
G1 X55.723 Y166.749 E27.41498
G1 X55.947 Y166.210 E27.42530
G1 X56.303 Y165.748 E27.43561
G1 X56.765 Y165.392 E27.44593
G1 X57.306 Y165.168 E27.45628
G1 X57.809 Y165.102 E27.46524
G1 X57.883 Y165.092 E27.46657
G1 X58.152 Y164.670 F7800.000
G1 X97.261 Y160.800
G1 X97.352 Y160.090 F300.000 E27.47923
G1 X97.629 Y159.429 E27.49190
G1 X98.062 Y158.863 E27.50450
G1 X98.631 Y158.427 E27.51718
G1 X99.291 Y158.153 E27.52982
G1 X100.001 Y158.060 E27.54248
G1 X100.711 Y158.153 E27.55515
G1 X101.372 Y158.427 E27.56780
G1 X101.938 Y158.863 E27.58043
G1 X102.374 Y159.429 E27.59306
G1 X102.648 Y160.090 E27.60571
G1 X102.742 Y160.800 E27.61838
G1 X102.648 Y161.510 E27.63105
G1 X102.374 Y162.170 E27.64368
G1 X101.938 Y162.739 E27.65636
G1 X101.372 Y163.172 E27.66896
G1 X100.711 Y163.449 E27.68163
G1 X100.001 Y163.540 E27.69429
G1 X99.291 Y163.449 E27.70695
G1 X98.631 Y163.173 E27.71960
G1 X98.062 Y162.739 E27.73226
G1 X97.628 Y162.170 E27.74491
G1 X97.352 Y161.510 E27.75756
G1 X97.270 Y160.874 E27.76890
G1 X97.261 Y160.800 E27.77022
G1 X97.765 Y160.800 F7800.000
G1 X97.839 Y160.221 F300.000 E27.78055
G1 X98.065 Y159.682 E27.79088
G1 X98.419 Y159.220 E27.80117
G1 X98.883 Y158.864 E27.81152
G1 X99.422 Y158.640 E27.82183
G1 X100.001 Y158.564 E27.83216
G1 X100.580 Y158.640 E27.84250
G1 X101.119 Y158.864 E27.85282
G1 X101.581 Y159.220 E27.86313
G1 X101.937 Y159.682 E27.87344
G1 X102.161 Y160.221 E27.88376
G1 X102.237 Y160.800 E27.89409
G1 X102.161 Y161.379 E27.90443
G1 X101.937 Y161.918 E27.91474
G1 X101.581 Y162.382 E27.92509
G1 X101.119 Y162.736 E27.93537
G1 X100.580 Y162.962 E27.94571
G1 X100.001 Y163.036 E27.95604
G1 X99.422 Y162.962 E27.96637
G1 X98.883 Y162.736 E27.97669
G1 X98.419 Y162.382 E27.98702
G1 X98.065 Y161.918 E27.99734
G1 X97.839 Y161.380 E28.00767
G1 X97.775 Y160.874 E28.01667
G1 X97.765 Y160.800 E28.01800
G1 X97.343 Y160.532 F7800.000
G1 X139.160 Y166.619
