; generated by Slic3r 0.9.8 on 2013-06-04 at 14:25:23

; layer_height = .25
; perimeters = 1
; top_solid_layers = 4
; bottom_solid_layers = 4
; fill_density = .9
; perimeter_speed = 30
; infill_speed = 40
; travel_speed = 130
; scale = 1
; nozzle_diameter = 0.5
; filament_diameter = 3
; extrusion_multiplier = 1
; perimeters extrusion width = 0.80mm
; infill extrusion width = 0.80mm
; first layer extrusion width = 0.50mm

M107
M104 S220 ; set temperature
G28 ; home all axes
M109 S220 ; wait for temperature to be reached
G90 ; use absolute coordinates
G21 ; set units to millimeters
G92 E0
M82 ; use absolute distances for extrusion
G1 Z0.250 F7800.000
G1 X116.434 Y138.729
G1 X116.344 Y139.539 F900.000 E0.01441
G1 X116.234 Y140.069 E0.02398
G1 X116.164 Y140.339 E0.02892
G1 X115.884 Y141.099 E0.04324
G1 X115.654 Y141.599 E0.05297
G1 X115.384 Y142.069 E0.06256
G1 X115.074 Y142.519 E0.07222
G1 X114.554 Y143.149 E0.08667
G1 X114.164 Y143.529 E0.09630
G1 X113.524 Y144.049 E0.11088
G1 X113.074 Y144.349 E0.12044
G1 X112.354 Y144.729 E0.13484
G1 X112.104 Y144.839 E0.13967
G1 X111.584 Y145.019 E0.14940
G1 X111.064 Y145.169 E0.15897
G1 X110.534 Y145.279 E0.16854
G1 X109.984 Y145.339 E0.17833
G1 X109.444 Y145.359 E0.18788
G1 X87.374 Y145.359 E0.57817
G1 X86.824 Y145.339 E0.58790
G1 X86.554 Y145.309 E0.59270
G1 X86.004 Y145.229 E0.60253
G1 X85.744 Y145.169 E0.60725
G1 X84.954 Y144.929 E0.62185
G1 X84.194 Y144.599 E0.63650
G1 X83.484 Y144.179 E0.65109
G1 X82.824 Y143.679 E0.66573
G1 X82.424 Y143.309 E0.67537
G1 X82.054 Y142.909 E0.68500
G1 X81.874 Y142.689 E0.69003
G1 X81.404 Y142.019 E0.70450
G1 X81.014 Y141.289 E0.71914
G1 X80.714 Y140.519 E0.73375
G1 X80.504 Y139.729 E0.74821
G1 X80.394 Y138.909 E0.76284
G1 X80.374 Y138.359 E0.77257
G1 X80.374 Y61.639 E2.12928
G1 X80.394 Y61.089 E2.13901
G1 X80.504 Y60.269 E2.15364
G1 X80.634 Y59.739 E2.16329
G1 X80.804 Y59.219 E2.17297
G1 X81.014 Y58.709 E2.18272
G1 X81.264 Y58.219 E2.19245
G1 X81.554 Y57.749 E2.20221
G1 X82.054 Y57.089 E2.21686
G1 X82.424 Y56.689 E2.22649
G1 X82.824 Y56.319 E2.23613
G1 X83.484 Y55.819 E2.25077
G1 X83.954 Y55.529 E2.26054
G1 X84.444 Y55.279 E2.27026
G1 X84.954 Y55.069 E2.28002
G1 X85.474 Y54.899 E2.28969
G1 X86.004 Y54.769 E2.29934
G1 X86.824 Y54.659 E2.31397
G1 X87.374 Y54.639 E2.32371
G1 X112.624 Y54.639 E2.77022
G1 X113.174 Y54.659 E2.77996
G1 X113.444 Y54.689 E2.78476
G1 X113.994 Y54.769 E2.79459
G1 X114.254 Y54.829 E2.79931
G1 X115.044 Y55.069 E2.81391
G1 X115.804 Y55.399 E2.82856
G1 X116.514 Y55.819 E2.84315
G1 X117.174 Y56.319 E2.85779
G1 X117.574 Y56.689 E2.86743
G1 X117.944 Y57.089 E2.87706
G1 X118.124 Y57.309 E2.88209
G1 X118.594 Y57.979 E2.89656
G1 X118.984 Y58.709 E2.91120
G1 X119.284 Y59.479 E2.92581
G1 X119.494 Y60.269 E2.94027
G1 X119.604 Y61.089 E2.95490
G1 X119.624 Y61.639 E2.96463
G1 X119.614 Y78.319 E3.25960
G1 X116.438 Y138.654 E4.32803
G1 X116.434 Y138.729 E4.32936
G1 X115.934 Y138.699 F7800.000
G1 X115.844 Y139.499 F900.000 E4.34360
G1 X115.734 Y140.019 E4.35300
G1 X115.574 Y140.529 E4.36245
G1 X115.374 Y141.019 E4.37181
G1 X115.134 Y141.499 E4.38130
G1 X114.864 Y141.949 E4.39058
G1 X114.544 Y142.389 E4.40020
G1 X114.204 Y142.789 E4.40948
G1 X113.824 Y143.169 E4.41898
G1 X113.414 Y143.509 E4.42840
G1 X112.754 Y143.959 E4.44253
G1 X112.284 Y144.209 E4.45194
G1 X111.794 Y144.419 E4.46137
G1 X111.284 Y144.589 E4.47088
G1 X110.504 Y144.769 E4.48503
G1 X109.974 Y144.839 E4.49449
G1 X109.444 Y144.859 E4.50387
G1 X87.374 Y144.859 E4.89415
G1 X86.854 Y144.839 E4.90335
G1 X86.334 Y144.779 E4.91261
G1 X85.814 Y144.669 E4.92201
G1 X85.314 Y144.529 E4.93119
G1 X84.824 Y144.339 E4.94048
G1 X84.354 Y144.119 E4.94966
G1 X84.124 Y143.989 E4.95433
G1 X83.474 Y143.559 E4.96812
G1 X83.064 Y143.229 E4.97742
G1 X82.874 Y143.049 E4.98205
G1 X82.504 Y142.669 E4.99143
G1 X82.174 Y142.259 E5.00074
G1 X81.744 Y141.609 E5.01452
G1 X81.614 Y141.379 E5.01919
G1 X81.394 Y140.909 E5.02837
G1 X81.204 Y140.419 E5.03766
G1 X81.004 Y139.659 E5.05156
G1 X80.954 Y139.399 E5.05624
G1 X80.894 Y138.879 E5.06550
G1 X80.874 Y138.359 E5.07470
G1 X80.874 Y61.639 E6.43141
G1 X80.894 Y61.119 E6.44061
G1 X80.954 Y60.599 E6.44987
G1 X81.064 Y60.079 E6.45927
G1 X81.204 Y59.579 E6.46845
G1 X81.394 Y59.089 E6.47774
G1 X81.614 Y58.619 E6.48692
G1 X82.024 Y57.949 E6.50081
G1 X82.504 Y57.329 E6.51467
G1 X82.684 Y57.139 E6.51930
G1 X83.064 Y56.769 E6.52868
G1 X83.474 Y56.439 E6.53799
G1 X84.124 Y56.009 E6.55177
G1 X84.584 Y55.769 E6.56095
G1 X85.314 Y55.469 E6.57490
G1 X85.814 Y55.329 E6.58409
G1 X86.334 Y55.219 E6.59348
G1 X86.854 Y55.159 E6.60274
G1 X87.374 Y55.139 E6.61194
G1 X112.624 Y55.139 E7.05846
G1 X113.144 Y55.159 E7.06766
G1 X113.664 Y55.219 E7.07692
G1 X114.184 Y55.329 E7.08632
G1 X114.684 Y55.469 E7.09550
G1 X115.174 Y55.659 E7.10480
G1 X115.644 Y55.879 E7.11397
G1 X115.874 Y56.009 E7.11864
G1 X116.524 Y56.439 E7.13243
G1 X116.934 Y56.769 E7.14173
G1 X117.124 Y56.949 E7.14636
G1 X117.494 Y57.329 E7.15574
G1 X117.824 Y57.739 E7.16505
G1 X118.254 Y58.389 E7.17883
G1 X118.384 Y58.619 E7.18350
G1 X118.604 Y59.089 E7.19268
G1 X118.794 Y59.579 E7.20197
G1 X118.994 Y60.339 E7.21587
G1 X119.044 Y60.599 E7.22055
G1 X119.104 Y61.119 E7.22981
G1 X119.124 Y61.639 E7.23901
G1 X119.114 Y78.289 E7.53345
G1 X115.938 Y138.624 E8.60188
G1 X115.934 Y138.699 E8.60321
G1 X107.542 Y72.371 F7800.000
G1 X106.832 Y72.465 F300.000 E8.61586
G1 X106.123 Y72.371 E8.62852
G1 X105.462 Y72.097 E8.64117
G1 X104.894 Y71.662 E8.65382
G1 X104.459 Y71.094 E8.66648
G1 X104.185 Y70.433 E8.67913
G1 X104.092 Y69.724 E8.69178
G1 X104.185 Y69.014 E8.70443
G1 X104.459 Y68.353 E8.71709
G1 X104.894 Y67.786 E8.72974
G1 X105.462 Y67.350 E8.74239
G1 X106.123 Y67.076 E8.75505
G1 X106.832 Y66.983 E8.76770
G1 X107.542 Y67.076 E8.78035
G1 X108.203 Y67.350 E8.79300
G1 X108.770 Y67.786 E8.80566
G1 X109.206 Y68.353 E8.81831
G1 X109.480 Y69.014 E8.83096
G1 X109.573 Y69.724 E8.84362
G1 X109.480 Y70.433 E8.85627
G1 X109.206 Y71.094 E8.86892
G1 X108.770 Y71.662 E8.88157
G1 X108.203 Y72.097 E8.89423
G1 X107.611 Y72.342 E8.90555
G1 X107.542 Y72.371 E8.90688
G1 X107.411 Y71.884 F7800.000
G1 X106.832 Y71.960 F300.000 E8.91720
G1 X106.254 Y71.884 E8.92753
G1 X105.714 Y71.661 E8.93785
G1 X105.251 Y71.305 E8.94818
G1 X104.895 Y70.842 E8.95850
G1 X104.672 Y70.303 E8.96883
G1 X104.596 Y69.724 E8.97915
G1 X104.672 Y69.145 E8.98948
G1 X104.895 Y68.605 E8.99980
G1 X105.251 Y68.142 E9.01013
G1 X105.714 Y67.787 E9.02045
G1 X106.254 Y67.563 E9.03078
G1 X106.832 Y67.487 E9.04110
G1 X107.411 Y67.563 E9.05143
G1 X107.951 Y67.787 E9.06175
G1 X108.414 Y68.142 E9.07208
G1 X108.769 Y68.605 E9.08240
G1 X108.993 Y69.145 E9.09273
G1 X109.069 Y69.724 E9.10305
G1 X108.993 Y70.303 E9.11338
G1 X108.769 Y70.842 E9.12370
G1 X108.414 Y71.305 E9.13403
G1 X107.951 Y71.661 E9.14435
G1 X107.481 Y71.855 E9.15335
G1 X107.411 Y71.884 E9.15467
G1 X107.261 Y72.361 F7800.000
G1 X99.635 Y121.346
G1 X100.775 Y121.818 F300.000 E9.17649
G1 X101.754 Y122.569 E9.19830
G1 X102.505 Y123.547 E9.22012
G1 X102.977 Y124.687 E9.24193
G1 X103.138 Y125.910 E9.26374
G1 X102.977 Y127.133 E9.28556
G1 X102.505 Y128.272 E9.30737
G1 X101.754 Y129.251 E9.32918
G1 X100.775 Y130.002 E9.35100
G1 X99.635 Y130.474 E9.37281
G1 X98.412 Y130.635 E9.39462
G1 X97.189 Y130.474 E9.41644
G1 X96.050 Y130.002 E9.43825
G1 X95.071 Y129.251 E9.46007
G1 X94.320 Y128.272 E9.48188
G1 X93.848 Y127.133 E9.50369
G1 X93.687 Y125.910 E9.52551
G1 X93.848 Y124.687 E9.54732
G1 X94.320 Y123.547 E9.56913
G1 X95.071 Y122.569 E9.59095
G1 X96.050 Y121.818 E9.61276
G1 X97.189 Y121.346 E9.63457
G1 X98.412 Y121.185 E9.65639
G1 X99.561 Y121.336 E9.67687
G1 X99.635 Y121.346 E9.67820
G1 X99.505 Y121.833 F7800.000
G1 X100.523 Y122.254 F300.000 E9.69769
G1 X101.397 Y122.925 E9.71717
G1 X102.068 Y123.799 E9.73666
G1 X102.490 Y124.817 E9.75614
G1 X102.633 Y125.910 E9.77563
G1 X102.490 Y127.002 E9.79511
G1 X102.068 Y128.020 E9.81460
G1 X101.397 Y128.894 E9.83408
G1 X100.523 Y129.565 E9.85357
G1 X99.505 Y129.987 E9.87306
G1 X98.412 Y130.131 E9.89254
G1 X97.320 Y129.987 E9.91203
G1 X96.302 Y129.565 E9.93151
G1 X95.428 Y128.894 E9.95100
G1 X94.757 Y128.020 E9.97048
G1 X94.335 Y127.002 E9.98997
G1 X94.192 Y125.910 E10.00945
G1 X94.335 Y124.817 E10.02894
G1 X94.757 Y123.799 E10.04843
G1 X95.428 Y122.925 E10.06791
G1 X96.302 Y122.254 E10.08740
G1 X97.320 Y121.833 E10.10688
G1 X98.412 Y121.689 E10.12637
G1 X99.431 Y121.823 E10.14453
G1 X99.505 Y121.833 E10.14585
G1 X99.874 Y121.495 F7800.000
G1 X108.951 Y137.860
G1 X87.874 Y137.860 F900.000 E10.51856
G1 X87.874 Y62.139 E11.85760
G1 X112.126 Y62.139 E12.28645
G1 X112.126 Y77.747 E12.56246
G1 X108.951 Y80.922 E12.64187
G1 X108.951 Y137.785 E13.64742
G1 X108.951 Y137.860 E13.64874
G1 X109.451 Y137.857 F7800.000
G1 X109.451 Y138.360 F900.000 E13.65764
G1 X87.374 Y138.360 E14.04803
G1 X87.374 Y61.639 E15.40475
G1 X112.626 Y61.639 E15.85129
G1 X112.626 Y77.955 E16.13980
G1 X109.451 Y81.130 E16.21921
G1 X109.451 Y137.782 E17.22104
G1 X109.451 Y137.857 E17.22237
G1 X109.018 Y138.107 F7800.000
G1 X108.676 Y137.360
G1 X88.149 Y137.360 F1500.000 E17.58643
G1 X88.149 Y136.858 E17.59532
G1 X108.676 Y136.858 E17.95939
G1 X108.676 Y136.357 E17.96828
G1 X88.149 Y136.357 E18.33234
G1 X88.149 Y135.855 E18.34123
G1 X108.676 Y135.855 E18.70530
G1 X108.676 Y135.354 E18.71419
G1 X88.149 Y135.354 E19.07825
G1 X88.149 Y134.852 E19.08715
G1 X108.676 Y134.852 E19.45121
G1 X108.676 Y134.351 E19.46010
G1 X88.149 Y134.351 E19.82416
G1 X88.149 Y133.850 E19.83306
G1 X108.676 Y133.850 E20.19712
G1 X108.676 Y133.348 E20.20601
G1 X88.149 Y133.348 E20.57007
G1 X88.149 Y132.847 E20.57897
G1 X108.676 Y132.847 E20.94303
G1 X108.676 Y132.345 E20.95192
G1 X88.149 Y132.345 E21.31599
G1 X88.149 Y131.844 E21.32488
G1 X108.676 Y131.844 E21.68894
G1 X108.676 Y131.342 E21.69784
G1 X88.149 Y131.342 E22.06190
G1 X88.149 Y130.841 E22.07079
G1 X96.993 Y130.841 E22.22765
G1 X95.893 Y130.339 E22.24909
G1 X88.149 Y130.339 E22.38644
G1 X88.149 Y129.838 E22.39533
G1 X95.240 Y129.838 E22.52109
G1 X94.731 Y129.336 E22.53375
G1 X88.149 Y129.336 E22.65049
G1 X88.149 Y128.835 E22.65938
G1 X94.347 Y128.835 E22.76930
G1 X94.029 Y128.333 E22.77983
G1 X88.149 Y128.333 E22.88411
G1 X88.149 Y127.832 E22.89301
G1 X93.822 Y127.832 E22.99361
G1 X93.614 Y127.330 E23.00324
G1 X88.149 Y127.330 E23.10016
G1 X88.149 Y126.829 E23.10906
G1 X93.529 Y126.829 E23.20447
G1 X93.463 Y126.327 E23.21344
G1 X88.149 Y126.327 E23.30769
G1 X88.149 Y125.826 E23.31658
G1 X93.419 Y125.826 E23.41004
G1 X93.485 Y125.324 E23.41902
G1 X88.149 Y125.324 E23.51365
G1 X88.149 Y124.823 E23.52255
G1 X93.551 Y124.823 E23.61835
G1 X93.684 Y124.321 E23.62755
G1 X88.149 Y124.321 E23.72571
G1 X88.149 Y123.820 E23.73460
G1 X93.891 Y123.820 E23.83644
G1 X94.099 Y123.318 E23.84607
G1 X88.149 Y123.318 E23.95159
G1 X88.149 Y122.817 E23.96049
G1 X94.476 Y122.817 E24.07269
G1 X94.860 Y122.315 E24.08390
G1 X88.149 Y122.315 E24.20293
G1 X88.149 Y121.814 E24.21182
G1 X95.458 Y121.814 E24.34146
G1 X96.188 Y121.313 E24.35716
G1 X88.149 Y121.313 E24.49974
G1 X88.149 Y120.811 E24.50864
G1 X97.645 Y120.811 E24.67706
G1 X99.180 Y120.811 F7800.000
G1 X108.676 Y120.811 F1500.000 E24.84548
G1 X108.676 Y121.313 E24.85438
G1 X100.637 Y121.313 E24.99696
G1 X101.366 Y121.814 E25.01266
G1 X108.676 Y121.814 E25.14230
G1 X108.676 Y122.315 E25.15120
G1 X101.965 Y122.315 E25.27023
G1 X102.349 Y122.817 E25.28144
G1 X108.676 Y122.817 E25.39365
G1 X108.676 Y123.318 E25.40254
G1 X102.726 Y123.318 E25.50807
G1 X102.934 Y123.820 E25.51770
G1 X108.676 Y123.820 E25.61954
G1 X108.676 Y124.321 E25.62843
G1 X103.141 Y124.321 E25.72659
G1 X103.274 Y124.823 E25.73579
G1 X108.676 Y124.823 E25.83160
G1 X108.676 Y125.324 E25.84050
G1 X103.340 Y125.324 E25.93514
G1 X103.406 Y125.826 E25.94411
G1 X108.676 Y125.826 E26.03758
G1 X108.676 Y126.327 E26.04647
G1 X103.362 Y126.327 E26.14072
G1 X103.296 Y126.829 E26.14969
G1 X108.676 Y126.829 E26.24511
G1 X108.676 Y127.330 E26.25400
G1 X103.211 Y127.330 E26.35093
G1 X103.003 Y127.832 E26.36056
G1 X108.676 Y127.832 E26.46116
G1 X108.676 Y128.333 E26.47006
G1 X102.795 Y128.333 E26.57435
G1 X102.478 Y128.835 E26.58488
G1 X108.676 Y128.835 E26.69480
G1 X108.676 Y129.336 E26.70369
G1 X102.093 Y129.336 E26.82044
G1 X101.585 Y129.838 E26.83310
G1 X108.676 Y129.838 E26.95886
G1 X108.676 Y130.339 E26.96775
G1 X100.932 Y130.339 E27.10510
G1 X99.832 Y130.841 E27.12654
G1 X108.676 Y130.841 E27.28341
G1 X108.676 Y120.310 F7800.000
G1 X88.149 Y120.310 F1500.000 E27.64747
G1 X88.149 Y119.808 E27.65636
G1 X108.676 Y119.808 E28.02042
G1 X108.676 Y119.307 E28.02932
G1 X88.149 Y119.307 E28.39338
G1 X88.149 Y118.805 E28.40227
G1 X108.676 Y118.805 E28.76633
G1 X108.676 Y118.304 E28.77523
G1 X88.149 Y118.304 E29.13929
G1 X88.149 Y117.802 E29.14818
G1 X108.676 Y117.802 E29.51224
G1 X108.676 Y117.301 E29.52114
G1 X88.149 Y117.301 E29.88520
G1 X88.149 Y116.799 E29.89409
G1 X108.676 Y116.799 E30.25816
G1 X108.676 Y116.298 E30.26705
G1 X88.149 Y116.298 E30.63111
G1 X88.149 Y115.796 E30.64001
G1 X108.676 Y115.796 E31.00407
G1 X108.676 Y115.295 E31.01296
G1 X88.149 Y115.295 E31.37702
G1 X88.149 Y114.793 E31.38592
G1 X108.676 Y114.793 E31.74998
G1 X108.676 Y114.292 E31.75887
G1 X88.149 Y114.292 E32.12293
G1 X88.149 Y113.790 E32.13183
G1 X108.676 Y113.790 E32.49589
G1 X108.676 Y113.289 E32.50478
G1 X88.149 Y113.289 E32.86884
G1 X88.149 Y112.787 E32.87774
G1 X108.676 Y112.787 E33.24180
G1 X108.676 Y112.286 E33.25069
G1 X88.149 Y112.286 E33.61476
G1 X88.149 Y111.784 E33.62365
G1 X108.676 Y111.784 E33.98771
G1 X108.676 Y111.283 E33.99661
G1 X88.149 Y111.283 E34.36067
G1 X88.149 Y110.781 E34.36956
G1 X108.676 Y110.781 E34.73362
G1 X108.676 Y110.280 E34.74252
G1 X88.149 Y110.280 E35.10658
G1 X88.149 Y109.778 E35.11547
G1 X108.676 Y109.778 E35.47953
G1 X108.676 Y109.277 E35.48843
G1 X88.149 Y109.277 E35.85249
G1 X88.149 Y108.775 E35.86138
G1 X108.676 Y108.775 E36.22545
G1 X108.676 Y108.274 E36.23434
G1 X88.149 Y108.274 E36.59840
G1 X88.149 Y107.773 E36.60729
G1 X108.676 Y107.773 E36.97136
G1 X108.676 Y107.271 E36.98025
G1 X88.149 Y107.271 E37.34431
G1 X88.149 Y106.770 E37.35321
G1 X108.676 Y106.770 E37.71727
G1 X108.676 Y106.268 E37.72616
G1 X88.149 Y106.268 E38.09022
G1 X88.149 Y105.767 E38.09912
G1 X108.676 Y105.767 E38.46318
G1 X108.676 Y105.265 E38.47207
G1 X88.149 Y105.265 E38.83613
G1 X88.149 Y104.764 E38.84503
G1 X108.676 Y104.764 E39.20909
G1 X108.676 Y104.262 E39.21798
G1 X88.149 Y104.262 E39.58205
G1 X88.149 Y103.761 E39.59094
G1 X108.676 Y103.761 E39.95500
G1 X108.676 Y103.259 E39.96390
G1 X88.149 Y103.259 E40.32796
G1 X88.149 Y102.758 E40.33685
G1 X108.676 Y102.758 E40.70091
G1 X108.676 Y102.256 E40.70981
G1 X88.149 Y102.256 E41.07387
G1 X88.149 Y101.755 E41.08276
G1 X108.676 Y101.755 E41.44682
G1 X108.676 Y101.253 E41.45572
G1 X88.149 Y101.253 E41.81978
G1 X88.149 Y100.752 E41.82867
G1 X108.676 Y100.752 E42.19274
G1 X108.676 Y100.250 E42.20163
G1 X88.149 Y100.250 E42.56569
G1 X88.149 Y99.749 E42.57458
G1 X108.676 Y99.749 E42.93865
G1 X108.676 Y99.247 E42.94754
G1 X88.149 Y99.247 E43.31160
G1 X88.149 Y98.746 E43.32050
G1 X108.676 Y98.746 E43.68456
G1 X108.676 Y98.244 E43.69345
G1 X88.149 Y98.244 E44.05751
G1 X88.149 Y97.743 E44.06641
G1 X108.676 Y97.743 E44.43047
G1 X108.676 Y97.241 E44.43936
G1 X88.149 Y97.241 E44.80342
G1 X88.149 Y96.740 E44.81232
G1 X108.676 Y96.740 E45.17638
G1 X108.676 Y96.238 E45.18527
G1 X88.149 Y96.238 E45.54934
G1 X88.149 Y95.737 E45.55823
G1 X108.676 Y95.737 E45.92229
G1 X108.676 Y95.236 E45.93118
G1 X88.149 Y95.236 E46.29525
G1 X88.149 Y94.734 E46.30414
