; generated by Slic3r 0.9.8 on 2013-05-30 at 13:57:09

; layer_height = .25
; perimeters = 1
; top_solid_layers = 4
; bottom_solid_layers = 4
; fill_density = .9
; perimeter_speed = 30
; infill_speed = 40
; travel_speed = 130
; scale = 1
; nozzle_diameter = 0.5
; filament_diameter = 3
; extrusion_multiplier = 1
; perimeters extrusion width = 0.80mm
; infill extrusion width = 0.80mm
; first layer extrusion width = 0.50mm

M107
M104 S220 ; set temperature
G28 ; home all axes
M109 S220 ; wait for temperature to be reached
G90 ; use absolute coordinates
G21 ; set units to millimeters
G92 E0
M82 ; use absolute distances for extrusion
G1 F1800.000 E-1.00000
G92 E0
G1 Z0.250 F7800.000
G1 X82.933 Y127.351
G1 F1800.000 E1.00000
G1 X82.343 Y127.331 F900.000 E1.01044
G1 X81.763 Y127.251 E1.02079
G1 X81.193 Y127.131 E1.03109
G1 X80.363 Y126.861 E1.04653
G1 X80.093 Y126.751 E1.05168
G1 X79.563 Y126.491 E1.06212
G1 X70.933 Y121.271 E1.24048
G1 X70.653 Y121.091 E1.24637
G1 X70.123 Y120.701 E1.25800
G1 X69.633 Y120.261 E1.26965
G1 X69.183 Y119.771 E1.28142
G1 X41.293 Y86.441 E2.04995
G1 X40.963 Y86.011 E2.05954
G1 X40.663 Y85.561 E2.06910
G1 X40.283 Y84.841 E2.08350
G1 X40.083 Y84.331 E2.09318
G1 X39.913 Y83.811 E2.10286
G1 X39.743 Y83.021 E2.11715
G1 X39.683 Y82.481 E2.12676
G1 X39.663 Y82.201 E2.13172
G1 X39.683 Y81.391 E2.14605
G1 X39.753 Y80.851 E2.15568
G1 X39.853 Y80.321 E2.16522
G1 X40.003 Y79.791 E2.17496
G1 X40.193 Y79.281 E2.18458
G1 X40.413 Y78.791 E2.19408
G1 X40.543 Y78.551 E2.19891
G1 X40.823 Y78.081 E2.20858
G1 X41.143 Y77.641 E2.21820
G1 X41.493 Y77.231 E2.22773
G1 X41.883 Y76.841 E2.23749
G1 X42.293 Y76.481 E2.24714
G1 X42.723 Y76.161 E2.25662
G1 X43.193 Y75.871 E2.26638
G1 X47.493 Y73.421 E2.35390
G1 X48.043 Y73.161 E2.36466
G1 X48.903 Y72.871 E2.38071
G1 X49.493 Y72.741 E2.39139
G1 X49.793 Y72.701 E2.39674
G1 X50.703 Y72.641 E2.41287
G1 X149.583 Y72.651 E4.16145
G1 X150.193 Y72.701 E4.17228
G1 X150.783 Y72.801 E4.18286
G1 X151.083 Y72.871 E4.18831
G1 X151.943 Y73.161 E4.20436
G1 X152.753 Y73.561 E4.22033
G1 X156.793 Y75.871 E4.30263
G1 X157.033 Y76.011 E4.30754
G1 X157.483 Y76.321 E4.31720
G1 X158.103 Y76.841 E4.33151
G1 X158.483 Y77.221 E4.34102
G1 X158.663 Y77.431 E4.34591
G1 X159.003 Y77.851 E4.35546
G1 X159.303 Y78.301 E4.36503
G1 X159.563 Y78.781 E4.37468
G1 X159.793 Y79.271 E4.38425
G1 X159.893 Y79.521 E4.38902
G1 X160.123 Y80.301 E4.40340
G1 X160.233 Y80.831 E4.41297
G1 X160.303 Y81.371 E4.42260
G1 X160.323 Y82.181 E4.43693
G1 X160.283 Y82.721 E4.44650
G1 X160.203 Y83.261 E4.45615
G1 X160.083 Y83.791 E4.46576
G1 X160.003 Y84.051 E4.47057
G1 X159.823 Y84.561 E4.48014
G1 X159.603 Y85.051 E4.48964
G1 X159.343 Y85.531 E4.49929
G1 X159.043 Y85.981 E4.50885
G1 X158.713 Y86.411 E4.51844
G1 X131.133 Y119.741 E5.28347
G1 X130.913 Y120.001 E5.28949
G1 X130.443 Y120.471 E5.30125
G1 X130.183 Y120.691 E5.30727
G1 X129.653 Y121.091 E5.31901
G1 X120.733 Y126.491 E5.50340
G1 X120.203 Y126.751 E5.51384
G1 X119.383 Y127.051 E5.52928
G1 X118.813 Y127.201 E5.53971
G1 X117.953 Y127.331 E5.55509
G1 X117.363 Y127.351 E5.56553
G1 X83.008 Y127.351 E6.17306
G1 X82.933 Y127.351 E6.17438
G1 X82.933 Y126.851 F7800.000
G1 X82.053 Y126.791 F900.000 E6.18998
G1 X81.183 Y126.611 E6.20569
G1 X80.623 Y126.431 E6.21609
G1 X80.353 Y126.321 E6.22125
G1 X79.823 Y126.061 E6.23169
G1 X70.933 Y120.681 E6.41545
G1 X70.443 Y120.311 E6.42630
G1 X69.983 Y119.901 E6.43720
G1 X69.573 Y119.451 E6.44797
G1 X41.513 Y85.921 E7.22114
G1 X41.203 Y85.481 E7.23066
G1 X40.943 Y85.031 E7.23985
G1 X40.703 Y84.551 E7.24934
G1 X40.513 Y84.061 E7.25864
G1 X40.363 Y83.561 E7.26787
G1 X40.253 Y83.041 E7.27727
G1 X40.183 Y82.511 E7.28672
G1 X40.163 Y81.721 E7.30069
G1 X40.203 Y81.201 E7.30992
G1 X40.243 Y80.931 E7.31474
G1 X40.343 Y80.421 E7.32393
G1 X40.493 Y79.911 E7.33334
G1 X40.783 Y79.171 E7.34739
G1 X40.903 Y78.941 E7.35198
G1 X41.033 Y78.701 E7.35681
G1 X41.473 Y78.041 E7.37083
G1 X41.803 Y77.631 E7.38014
G1 X42.363 Y77.071 E7.39414
G1 X42.773 Y76.741 E7.40345
G1 X43.213 Y76.441 E7.41287
G1 X47.723 Y73.861 E7.50475
G1 X48.493 Y73.531 E7.51957
G1 X49.303 Y73.291 E7.53451
G1 X49.863 Y73.191 E7.54456
G1 X50.143 Y73.161 E7.54954
G1 X50.703 Y73.141 E7.55945
G1 X149.283 Y73.141 E9.30273
G1 X149.843 Y73.161 E9.31264
G1 X150.123 Y73.191 E9.31762
G1 X150.683 Y73.291 E9.32768
G1 X150.953 Y73.361 E9.33261
G1 X151.493 Y73.531 E9.34262
G1 X152.013 Y73.741 E9.35254
G1 X152.513 Y74.001 E9.36251
G1 X156.773 Y76.441 E9.44932
G1 X157.213 Y76.741 E9.45874
G1 X157.623 Y77.071 E9.46805
G1 X158.003 Y77.441 E9.47743
G1 X158.183 Y77.631 E9.48205
G1 X158.513 Y78.041 E9.49136
G1 X158.953 Y78.691 E9.50524
G1 X159.193 Y79.161 E9.51457
G1 X159.403 Y79.651 E9.52400
G1 X159.493 Y79.891 E9.52853
G1 X159.693 Y80.661 E9.54260
G1 X159.743 Y80.921 E9.54728
G1 X159.823 Y81.701 E9.56115
G1 X159.803 Y82.491 E9.57513
G1 X159.733 Y83.011 E9.58440
G1 X159.633 Y83.531 E9.59377
G1 X159.393 Y84.281 E9.60769
G1 X159.293 Y84.531 E9.61245
G1 X159.063 Y85.001 E9.62171
G1 X158.653 Y85.671 E9.63560
G1 X158.333 Y86.091 E9.64494
G1 X130.753 Y119.421 E10.40996
G1 X130.333 Y119.881 E10.42098
G1 X130.103 Y120.101 E10.42661
G1 X129.873 Y120.301 E10.43200
G1 X129.373 Y120.671 E10.44300
G1 X120.473 Y126.061 E10.62700
G1 X119.943 Y126.321 E10.63744
G1 X119.393 Y126.531 E10.64785
G1 X118.823 Y126.681 E10.65827
G1 X118.243 Y126.791 E10.66871
G1 X117.363 Y126.851 E10.68431
G1 X83.008 Y126.851 E11.29184
G1 X82.933 Y126.851 E11.29316
G1 F1800.000 E10.29316
G92 E0
G1 X59.407 Y85.846 F7800.000
G1 F1800.000 E1.00000
G1 X58.717 Y86.124 F300.000 E1.01316
G1 X58.037 Y86.214 E1.02528
G1 X57.327 Y86.120 E1.03795
G1 X56.651 Y85.840 E1.05089
G1 X56.100 Y85.410 E1.06324
G1 X55.664 Y84.844 E1.07588
G1 X55.390 Y84.179 E1.08859
G1 X55.311 Y83.584 E1.09920
G1 X55.297 Y83.472 E1.10120
G1 X55.390 Y82.764 E1.11383
G1 X55.665 Y82.102 E1.12651
G1 X56.101 Y81.533 E1.13918
G1 X56.669 Y81.096 E1.15186
G1 X57.327 Y80.824 E1.16445
G1 X58.037 Y80.731 E1.17711
G1 X58.747 Y80.824 E1.18978
G1 X59.408 Y81.099 E1.20243
G1 X59.975 Y81.533 E1.21507
G1 X60.414 Y82.105 E1.22782
G1 X60.686 Y82.764 E1.24043
G1 X60.777 Y83.474 E1.25308
G1 X60.682 Y84.210 E1.26621
G1 X60.412 Y84.844 E1.27838
G1 X59.975 Y85.410 E1.29104
G1 X59.467 Y85.801 E1.30238
G1 X59.407 Y85.846 E1.30370
G1 X59.155 Y85.409 F7800.000
G1 X58.604 Y85.634 F300.000 E1.31423
G1 X58.037 Y85.709 E1.32434
G1 X57.458 Y85.633 E1.33467
G1 X56.912 Y85.407 E1.34511
G1 X56.457 Y85.053 E1.35531
G1 X56.101 Y84.591 E1.36563
G1 X55.877 Y84.050 E1.37599
G1 X55.807 Y83.519 E1.38545
G1 X55.877 Y82.894 E1.39657
G1 X56.101 Y82.354 E1.40690
G1 X56.457 Y81.890 E1.41724
G1 X56.920 Y81.534 E1.42758
G1 X57.458 Y81.311 E1.43787
G1 X58.037 Y81.235 E1.44820
G1 X58.616 Y81.312 E1.45854
G1 X59.155 Y81.535 E1.46886
G1 X59.619 Y81.890 E1.47919
G1 X59.976 Y82.356 E1.48956
G1 X60.199 Y82.894 E1.49986
G1 X60.273 Y83.473 E1.51019
G1 X60.197 Y84.063 E1.52069
G1 X59.975 Y84.591 E1.53083
G1 X59.619 Y85.053 E1.54115
G1 X59.215 Y85.364 E1.55017
G1 X59.155 Y85.409 E1.55149
G1 X59.131 Y85.909 F7800.000
G1 F1800.000 E0.55149
G92 E0
G1 X139.220 Y83.473 F7800.000
G1 F1800.000 E1.00000
G1 X139.314 Y82.763 F300.000 E1.01267
G1 X139.588 Y82.103 E1.02531
G1 X140.016 Y81.542 E1.03778
G1 X140.590 Y81.101 E1.05058
G1 X140.693 Y81.058 E1.05256
G1 X141.251 Y80.826 E1.06325
G1 X141.961 Y80.732 E1.07591
G1 X142.671 Y80.826 E1.08857
G1 X143.331 Y81.100 E1.10120
G1 X143.902 Y81.537 E1.11392
G1 X144.333 Y82.102 E1.12650
G1 X144.608 Y82.763 E1.13916
G1 X144.701 Y83.472 E1.15179
G1 X144.687 Y83.583 E1.15378
G1 X144.608 Y84.183 E1.16448
G1 X144.334 Y84.844 E1.17713
G1 X143.901 Y85.411 E1.18975
G1 X143.321 Y85.852 E1.20263
G1 X142.670 Y86.122 E1.21510
G1 X141.961 Y86.213 E1.22774
G1 X141.252 Y86.122 E1.24037
G1 X140.595 Y85.850 E1.25295
G1 X140.021 Y85.411 E1.26572
G1 X139.588 Y84.843 E1.27836
G1 X139.315 Y84.184 E1.29098
G1 X139.230 Y83.548 E1.30233
G1 X139.220 Y83.473 E1.30366
G1 X139.725 Y83.473 F7800.000
G1 X139.801 Y82.894 F300.000 E1.31400
G1 X140.025 Y82.355 E1.32431
G1 X140.376 Y81.895 E1.33454
G1 X140.885 Y81.519 E1.34573
G1 X141.382 Y81.313 E1.35524
G1 X141.961 Y81.237 E1.36557
G1 X142.540 Y81.313 E1.37590
G1 X143.079 Y81.537 E1.38621
G1 X143.544 Y81.893 E1.39658
G1 X143.897 Y82.355 E1.40685
G1 X144.121 Y82.894 E1.41717
G1 X144.191 Y83.519 E1.42829
G1 X144.121 Y84.052 E1.43781
G1 X143.897 Y84.591 E1.44813
G1 X143.544 Y85.055 E1.45844
G1 X143.075 Y85.413 E1.46887
G1 X142.540 Y85.635 E1.47911
G1 X141.961 Y85.709 E1.48944
G1 X141.382 Y85.635 E1.49976
G1 X140.845 Y85.412 E1.51004
G1 X140.378 Y85.055 E1.52043
G1 X140.025 Y84.591 E1.53075
G1 X139.802 Y84.053 E1.54105
G1 X139.735 Y83.547 E1.55006
G1 X139.725 Y83.473 E1.55139
G1 X139.303 Y83.204 F7800.000
G1 F1800.000 E0.55139
G92 E0
G1 X116.689 Y113.197 F7800.000
G1 F1800.000 E1.00000
G1 X117.126 Y113.767 F300.000 E1.01270
G1 X117.400 Y114.428 E1.02536
G1 X117.491 Y115.137 E1.03800
G1 X117.400 Y115.846 E1.05063
G1 X117.126 Y116.507 E1.06329
G1 X116.689 Y117.077 E1.07599
G1 X116.120 Y117.511 E1.08865
G1 X115.461 Y117.784 E1.10126
G1 X114.751 Y117.878 E1.11392
G1 X114.041 Y117.784 E1.12659
G1 X113.381 Y117.510 E1.13922
G1 X112.814 Y117.076 E1.15184
G1 X112.378 Y116.507 E1.16453
G1 X112.104 Y115.847 E1.17716
G1 X112.010 Y115.137 E1.18983
G1 X112.104 Y114.427 E1.20249
G1 X112.378 Y113.767 E1.21513
G1 X112.814 Y113.198 E1.22781
G1 X113.381 Y112.764 E1.24043
G1 X114.041 Y112.490 E1.25306
G1 X114.751 Y112.397 E1.26573
G1 X115.461 Y112.490 E1.27840
G1 X116.120 Y112.763 E1.29101
G1 X116.629 Y113.152 E1.30233
G1 X116.689 Y113.197 E1.30366
G1 X116.333 Y113.554 F7800.000
G1 X116.689 Y114.019 F300.000 E1.31402
G1 X116.913 Y114.558 E1.32434
G1 X116.987 Y115.137 E1.33466
G1 X116.913 Y115.716 E1.34498
G1 X116.689 Y116.255 E1.35530
G1 X116.333 Y116.720 E1.36565
G1 X115.869 Y117.074 E1.37598
G1 X115.330 Y117.297 E1.38628
G1 X114.751 Y117.373 E1.39662
G1 X114.172 Y117.297 E1.40695
G1 X113.633 Y117.073 E1.41726
G1 X113.171 Y116.719 E1.42756
G1 X112.815 Y116.255 E1.43791
G1 X112.591 Y115.716 E1.44822
G1 X112.515 Y115.137 E1.45855
G1 X112.591 Y114.558 E1.46888
G1 X112.815 Y114.019 E1.47920
G1 X113.171 Y113.555 E1.48955
G1 X113.633 Y113.201 E1.49984
G1 X114.171 Y112.978 E1.51015
G1 X114.751 Y112.901 E1.52048
G1 X115.331 Y112.978 E1.53082
G1 X115.869 Y113.200 E1.54112
G1 X116.273 Y113.509 E1.55012
G1 X116.333 Y113.554 E1.55145
G1 X116.821 Y113.446 F7800.000
G1 F1800.000 E0.55145
G92 E0
G1 X101.526 Y92.374 F7800.000
G1 F1800.000 E1.00000
G1 X100.844 Y92.650 F300.000 E1.01302
G1 X100.155 Y92.742 E1.02530
G1 X99.450 Y92.648 E1.03788
G1 X98.784 Y92.374 E1.05062
G1 X98.216 Y91.938 E1.06328
G1 X97.782 Y91.370 E1.07592
G1 X97.506 Y90.709 E1.08859
G1 X97.415 Y90.001 E1.10121
G1 X97.506 Y89.291 E1.11387
G1 X97.782 Y88.631 E1.12651
G1 X98.215 Y88.063 E1.13915
G1 X98.785 Y87.626 E1.15185
G1 X99.446 Y87.352 E1.16452
G1 X100.155 Y87.261 E1.17715
G1 X100.864 Y87.352 E1.18978
G1 X101.526 Y87.626 E1.20246
G1 X102.091 Y88.062 E1.21507
G1 X102.530 Y88.634 E1.22783
G1 X102.802 Y89.291 E1.24040
G1 X102.896 Y90.001 E1.25307
G1 X102.801 Y90.710 E1.26571
G1 X102.528 Y91.372 E1.27838
G1 X102.092 Y91.938 E1.29102
G1 X101.585 Y92.328 E1.30232
G1 X101.526 Y92.374 E1.30365
G1 X101.273 Y91.937 F7800.000
G1 X100.726 Y92.162 F300.000 E1.31412
G1 X100.155 Y92.237 E1.32429
G1 X99.578 Y92.161 E1.33459
G1 X99.036 Y91.937 E1.34495
G1 X98.573 Y91.581 E1.35529
G1 X98.219 Y91.119 E1.36559
G1 X97.993 Y90.578 E1.37594
G1 X97.919 Y90.001 E1.38623
G1 X97.993 Y89.422 E1.39656
G1 X98.219 Y88.883 E1.40689
G1 X98.572 Y88.419 E1.41721
G1 X99.037 Y88.063 E1.42756
G1 X99.576 Y87.839 E1.43788
G1 X100.155 Y87.765 E1.44820
G1 X100.734 Y87.839 E1.45852
G1 X101.273 Y88.063 E1.46885
G1 X101.735 Y88.419 E1.47915
G1 X102.092 Y88.884 E1.48953
G1 X102.315 Y89.422 E1.49982
G1 X102.391 Y90.001 E1.51015
G1 X102.314 Y90.579 E1.52046
G1 X102.091 Y91.119 E1.53080
G1 X101.735 Y91.581 E1.54112
G1 X101.333 Y91.891 E1.55010
G1 X101.273 Y91.937 E1.55143
G1 X101.251 Y92.437 F7800.000
G1 F1800.000 E0.55143
G92 E0
G1 X86.926 Y112.763 F7800.000
G1 F1800.000 E1.00000
G1 X87.495 Y113.197 F300.000 E1.01265
G1 X87.932 Y113.767 E1.02535
G1 X88.206 Y114.427 E1.03799
G1 X88.300 Y115.137 E1.05065
G1 X88.206 Y115.847 E1.06332
G1 X87.932 Y116.507 E1.07595
G1 X87.495 Y117.077 E1.08865
G1 X86.926 Y117.511 E1.10131
G1 X86.267 Y117.784 E1.11392
G1 X85.557 Y117.878 E1.12659
G1 X84.849 Y117.784 E1.13921
G1 X84.188 Y117.511 E1.15186
G1 X83.620 Y117.076 E1.16450
G1 X83.184 Y116.507 E1.17718
G1 X82.910 Y115.847 E1.18982
G1 X82.816 Y115.137 E1.20248
G1 X82.910 Y114.427 E1.21515
G1 X83.184 Y113.767 E1.22778
G1 X83.620 Y113.198 E1.24047
G1 X84.188 Y112.763 E1.25310
G1 X84.849 Y112.490 E1.26576
G1 X85.557 Y112.397 E1.27838
G1 X86.267 Y112.490 E1.29105
G1 X86.857 Y112.735 E1.30234
G1 X86.926 Y112.763 E1.30366
G1 X86.675 Y113.200 F7800.000
G1 X87.139 Y113.554 F300.000 E1.31399
G1 X87.495 Y114.019 E1.32434
G1 X87.719 Y114.558 E1.33466
G1 X87.795 Y115.137 E1.34499
G1 X87.719 Y115.716 E1.35532
G1 X87.495 Y116.255 E1.36563
G1 X87.139 Y116.720 E1.37599
G1 X86.675 Y117.074 E1.38632
G1 X86.136 Y117.297 E1.39662
G1 X85.557 Y117.373 E1.40695
G1 X84.980 Y117.297 E1.41725
G1 X84.439 Y117.074 E1.42759
G1 X83.977 Y116.719 E1.43789
G1 X83.621 Y116.255 E1.44824
G1 X83.397 Y115.716 E1.45855
G1 X83.321 Y115.137 E1.46888
G1 X83.397 Y114.558 E1.47922
G1 X83.621 Y114.019 E1.48953
G1 X83.977 Y113.555 E1.49988
G1 X84.439 Y113.200 E1.51018
G1 X84.980 Y112.978 E1.52052
G1 X85.557 Y112.901 E1.53081
G1 X86.137 Y112.978 E1.54115
G1 X86.605 Y113.172 E1.55013
G1 X86.675 Y113.200 E1.55145
G1 X87.118 Y112.969 F7800.000
G1 F1800.000 E0.55145
G92 E0
G1 X83.171 Y119.631 F7800.000
G1 F1800.000 E1.00000
G1 X74.884 Y114.896 F900.000 E1.16879
G1 X47.434 Y82.091 E1.92521
G1 X50.842 Y80.143 E1.99464
G1 X149.156 Y80.143 E3.73321
G1 X152.569 Y82.094 E3.80273
G1 X125.424 Y114.897 E4.55568
G1 X117.140 Y119.631 E4.72440
G1 X117.040 Y119.859 E4.72881
G1 X83.270 Y119.859 E5.32598
G1 X83.201 Y119.700 E5.32905
G1 X83.171 Y119.631 E5.33037
G1 X82.779 Y119.983 F7800.000
G1 X74.558 Y115.286 F900.000 E5.49781
G1 X46.667 Y81.954 E6.26639
G1 X50.709 Y79.643 E6.34874
G1 X149.289 Y79.643 E8.09200
G1 X153.333 Y81.955 E8.17438
G1 X125.751 Y115.286 E8.93945
G1 X117.531 Y119.983 E9.10687
G1 X117.366 Y120.359 E9.11413
G1 X82.943 Y120.359 E9.72287
G1 X82.809 Y120.052 E9.72879
G1 X82.779 Y119.983 E9.73012
G1 X82.883 Y119.494 F7800.000
G1 F1800.000 E8.73012
G92 E0
G1 X85.546 Y118.353 F7800.000
G1 F1800.000 E1.00000
G1 X114.762 Y118.353 F1500.000 E1.51954
G1 X114.740 Y118.353 F7800.000
G1 X118.593 Y118.353 F1500.000 E1.58806
G1 X117.713 Y118.856 E1.60608
G1 X82.597 Y118.856 E2.23055
G1 X83.373 Y119.359 E2.24699
G1 X116.939 Y119.359 E2.84389
G1 F1800.000 E1.84389
G92 E0
G1 X119.473 Y117.851 F7800.000
G1 F1800.000 E1.00000
G1 X116.274 Y117.851 F1500.000 E1.05690
G1 X116.886 Y117.348 E1.07099
G1 X120.353 Y117.348 E1.13264
G1 X121.233 Y116.845 E1.15067
G1 X117.272 Y116.845 E1.22110
G1 X117.511 Y116.342 E1.23100
G1 X122.113 Y116.342 E1.31285
G1 X122.993 Y115.839 E1.33087
G1 X117.680 Y115.839 E1.42535
G1 X117.745 Y115.337 E1.43437
G1 X123.873 Y115.337 E1.54335
G1 X124.753 Y114.834 E1.56138
G1 X117.731 Y114.834 E1.68625
G1 X117.667 Y114.331 E1.69526
G1 X125.469 Y114.331 E1.83402
G1 X125.885 Y113.828 E1.84562
G1 X117.468 Y113.828 E1.99531
G1 X117.193 Y113.325 E2.00551
G1 X126.301 Y113.325 E2.16749
G1 X126.717 Y112.823 E2.17910
G1 X116.797 Y112.823 E2.35550
G1 X116.130 Y112.320 E2.37036
G1 X127.134 Y112.320 E2.56603
G1 X127.550 Y111.817 E2.57764
