; generated by Slic3r 0.9.8 on 2013-05-29 at 12:50:27

; layer_height = .25
; perimeters = 1
; top_solid_layers = 4
; bottom_solid_layers = 4
; fill_density = .9
; perimeter_speed = 30
; infill_speed = 40
; travel_speed = 130
; scale = 1
; nozzle_diameter = 0.5
; filament_diameter = 3
; extrusion_multiplier = 1
; perimeters extrusion width = 0.80mm
; infill extrusion width = 0.80mm
; first layer extrusion width = 0.50mm

M107
M104 S210 ; set temperature
G28 ; home all axes
M109 S210 ; wait for temperature to be reached
G90 ; use absolute coordinates
G21 ; set units to millimeters
G92 E0
M82 ; use absolute distances for extrusion
G1 F1800.000 E-1.00000
G92 E0
G1 Z0.250 F7800.000
G1 X85.794 Y127.513
G1 F1800.000 E1.00000
G1 X84.884 Y127.453 F900.000 E1.01613
G1 X84.584 Y127.413 E1.02148
G1 X83.994 Y127.283 E1.03216
G1 X83.134 Y126.993 E1.04821
G1 X82.584 Y126.733 E1.05897
G1 X71.574 Y120.443 E1.28320
G1 X71.034 Y120.053 E1.29498
G1 X70.524 Y119.623 E1.30678
G1 X70.064 Y119.143 E1.31854
G1 X41.664 Y86.683 E2.08125
G1 X41.484 Y86.473 E2.08614
G1 X41.004 Y85.803 E2.10071
G1 X40.734 Y85.323 E2.11045
G1 X40.494 Y84.823 E2.12026
G1 X40.214 Y84.043 E2.13491
G1 X40.084 Y83.513 E2.14456
G1 X39.994 Y82.973 E2.15424
G1 X39.944 Y82.423 E2.16401
G1 X39.934 Y81.873 E2.17374
G1 X39.974 Y81.323 E2.18349
G1 X40.054 Y80.773 E2.19332
G1 X40.174 Y80.243 E2.20293
G1 X40.344 Y79.713 E2.21277
G1 X40.544 Y79.203 E2.22246
G1 X40.794 Y78.713 E2.23219
G1 X41.074 Y78.243 E2.24186
G1 X41.394 Y77.793 E2.25163
G1 X41.754 Y77.373 E2.26141
G1 X42.134 Y76.973 E2.27116
G1 X42.554 Y76.613 E2.28095
G1 X42.994 Y76.283 E2.29067
G1 X43.464 Y75.993 E2.30044
G1 X48.344 Y73.213 E2.39976
G1 X48.894 Y72.953 E2.41052
G1 X49.754 Y72.663 E2.42657
G1 X50.344 Y72.533 E2.43725
G1 X50.644 Y72.493 E2.44260
G1 X51.554 Y72.433 E2.45873
G1 X148.744 Y72.443 E4.17742
G1 X149.354 Y72.493 E4.18825
G1 X149.954 Y72.593 E4.19900
G1 X150.534 Y72.753 E4.20964
G1 X151.384 Y73.083 E4.22577
G1 X151.924 Y73.363 E4.23653
G1 X156.534 Y76.003 E4.33047
G1 X157.004 Y76.293 E4.34024
G1 X157.224 Y76.453 E4.34505
G1 X157.654 Y76.793 E4.35474
G1 X158.054 Y77.173 E4.36450
G1 X158.594 Y77.793 E4.37904
G1 X159.064 Y78.473 E4.39365
G1 X159.444 Y79.213 E4.40836
G1 X159.644 Y79.723 E4.41805
G1 X159.814 Y80.243 E4.42773
G1 X159.934 Y80.783 E4.43751
G1 X160.014 Y81.323 E4.44716
G1 X160.054 Y81.873 E4.45691
G1 X160.044 Y82.423 E4.46664
G1 X159.994 Y82.973 E4.47641
G1 X159.904 Y83.513 E4.48609
G1 X159.774 Y84.053 E4.49591
G1 X159.594 Y84.573 E4.50564
G1 X159.494 Y84.823 E4.51040
G1 X159.124 Y85.563 E4.52503
G1 X158.984 Y85.803 E4.52995
G1 X158.504 Y86.473 E4.54452
G1 X129.924 Y119.143 E5.31212
G1 X129.464 Y119.623 E5.32388
G1 X129.214 Y119.843 E5.32977
G1 X128.694 Y120.253 E5.34148
G1 X128.414 Y120.443 E5.34746
G1 X117.404 Y126.733 E5.57170
G1 X116.854 Y126.993 E5.58245
G1 X116.284 Y127.193 E5.59314
G1 X115.994 Y127.283 E5.59851
G1 X115.404 Y127.413 E5.60919
G1 X114.804 Y127.483 E5.61987
G1 X114.194 Y127.513 E5.63067
G1 X85.869 Y127.513 E6.13157
G1 X85.794 Y127.513 E6.13289
G1 X85.794 Y127.013 F7800.000
G1 X85.234 Y126.993 F900.000 E6.14280
G1 X84.954 Y126.963 E6.14778
G1 X84.394 Y126.863 E6.15784
G1 X83.584 Y126.623 E6.17278
G1 X82.814 Y126.293 E6.18760
G1 X72.104 Y120.173 E6.40573
G1 X71.334 Y119.663 E6.42206
G1 X70.874 Y119.263 E6.43284
G1 X70.444 Y118.813 E6.44385
G1 X42.044 Y86.353 E7.20656
G1 X41.714 Y85.943 E7.21587
G1 X41.284 Y85.293 E7.22965
G1 X41.044 Y84.823 E7.23898
G1 X40.844 Y84.343 E7.24818
G1 X40.754 Y84.093 E7.25288
G1 X40.554 Y83.333 E7.26677
G1 X40.474 Y82.823 E7.27590
G1 X40.434 Y82.303 E7.28513
G1 X40.454 Y81.513 E7.29910
G1 X40.574 Y80.743 E7.31288
G1 X40.704 Y80.233 E7.32219
G1 X40.864 Y79.733 E7.33147
G1 X41.074 Y79.253 E7.34074
G1 X41.324 Y78.793 E7.35000
G1 X41.604 Y78.353 E7.35922
G1 X41.914 Y77.933 E7.36845
G1 X42.264 Y77.553 E7.37759
G1 X42.644 Y77.183 E7.38696
G1 X43.264 Y76.703 E7.40083
G1 X48.574 Y73.653 E7.50912
G1 X48.824 Y73.533 E7.51402
G1 X49.354 Y73.323 E7.52410
G1 X50.154 Y73.083 E7.53887
G1 X50.714 Y72.983 E7.54893
G1 X50.994 Y72.953 E7.55391
G1 X51.554 Y72.933 E7.56382
G1 X148.444 Y72.933 E9.27721
G1 X149.004 Y72.953 E9.28712
G1 X149.284 Y72.983 E9.29210
G1 X149.844 Y73.083 E9.30216
G1 X150.114 Y73.153 E9.30710
G1 X150.654 Y73.323 E9.31711
G1 X151.174 Y73.533 E9.32702
G1 X151.674 Y73.793 E9.33699
G1 X156.284 Y76.433 E9.43093
G1 X156.944 Y76.863 E9.44486
G1 X157.534 Y77.363 E9.45854
G1 X158.074 Y77.943 E9.47255
G1 X158.534 Y78.573 E9.48635
G1 X158.794 Y79.023 E9.49554
G1 X159.024 Y79.503 E9.50495
G1 X159.214 Y79.983 E9.51408
G1 X159.354 Y80.483 E9.52326
G1 X159.464 Y81.003 E9.53266
G1 X159.534 Y81.513 E9.54177
G1 X159.554 Y82.303 E9.55574
G1 X159.514 Y82.823 E9.56496
G1 X159.434 Y83.343 E9.57427
G1 X159.234 Y84.093 E9.58799
G1 X158.944 Y84.823 E9.60188
G1 X158.824 Y85.063 E9.60663
G1 X158.704 Y85.293 E9.61122
G1 X158.274 Y85.943 E9.62500
G1 X157.944 Y86.353 E9.63431
G1 X129.544 Y118.813 E10.39701
G1 X129.114 Y119.263 E10.40802
G1 X128.654 Y119.663 E10.41880
G1 X128.404 Y119.843 E10.42425
G1 X127.884 Y120.173 E10.43514
G1 X117.174 Y126.293 E10.65327
G1 X116.664 Y126.523 E10.66317
G1 X116.134 Y126.713 E10.67312
G1 X115.594 Y126.863 E10.68304
G1 X115.034 Y126.963 E10.69310
G1 X114.754 Y126.993 E10.69808
G1 X114.194 Y127.013 E10.70798
G1 X85.869 Y127.013 E11.20888
G1 X85.794 Y127.013 E11.21021
G1 F1800.000 E10.21021
G92 E0
G1 X139.075 Y85.608 F7800.000
G1 F1800.000 E1.00000
G1 X138.639 Y85.041 F300.000 E1.01265
G1 X138.365 Y84.379 E1.02533
G1 X138.271 Y83.669 E1.03798
G1 X138.365 Y82.961 E1.05061
G1 X138.637 Y82.302 E1.06322
G1 X139.075 Y81.732 E1.07593
G1 X139.640 Y81.297 E1.08855
G1 X139.750 Y81.251 E1.09065
G1 X140.302 Y81.022 E1.10122
G1 X141.012 Y80.929 E1.11388
G1 X141.722 Y81.022 E1.12654
G1 X142.274 Y81.251 E1.13711
G1 X142.383 Y81.296 E1.13919
G1 X142.951 Y81.732 E1.15186
G1 X143.384 Y82.297 E1.16445
G1 X143.661 Y82.961 E1.17717
G1 X143.752 Y83.668 E1.18977
G1 X143.661 Y84.378 E1.20242
G1 X143.404 Y84.994 E1.21423
G1 X143.556 Y85.144 E1.21800
G1 X142.951 Y85.608 E1.23148
G1 X142.786 Y85.823 E1.23628
G1 X142.671 Y85.823 E1.23832
G1 X142.273 Y86.128 E1.24717
G1 X142.181 Y86.128 E1.24881
G1 X141.722 Y86.318 E1.25759
G1 X141.012 Y86.412 E1.27026
G1 X140.300 Y86.317 E1.28296
G1 X139.641 Y86.044 E1.29558
G1 X139.135 Y85.654 E1.30688
G1 X139.075 Y85.608 E1.30821
G1 X139.432 Y85.251 F7800.000
G1 X139.076 Y84.789 F300.000 E1.31852
G1 X138.852 Y84.248 E1.32887
G1 X138.776 Y83.669 E1.33920
G1 X138.852 Y83.092 E1.34950
G1 X139.075 Y82.552 E1.35982
G1 X139.432 Y82.089 E1.37016
G1 X139.942 Y81.713 E1.38137
G1 X140.433 Y81.509 E1.39077
G1 X141.012 Y81.433 E1.40110
G1 X141.591 Y81.509 E1.41143
G1 X142.082 Y81.713 E1.42083
G1 X142.594 Y82.089 E1.43207
G1 X142.948 Y82.550 E1.44235
G1 X143.174 Y83.092 E1.45272
G1 X143.248 Y83.669 E1.46301
G1 X143.174 Y84.248 E1.47333
G1 X142.948 Y84.790 E1.48372
G1 X142.749 Y85.050 E1.48951
G1 X142.796 Y85.097 E1.49069
G1 X142.594 Y85.251 E1.49519
G1 X142.539 Y85.323 E1.49678
G1 X142.501 Y85.323 E1.49746
G1 X142.104 Y85.628 E1.50631
G1 X141.591 Y85.831 E1.51606
G1 X141.012 Y85.907 E1.52639
G1 X140.432 Y85.830 E1.53675
G1 X139.894 Y85.607 E1.54705
G1 X139.491 Y85.297 E1.55603
G1 X139.432 Y85.251 E1.55736
G1 X138.944 Y85.360 F7800.000
G1 F1800.000 E0.55736
G92 E0
G1 X61.729 Y83.669 F7800.000
G1 F1800.000 E1.00000
G1 X61.635 Y84.378 F300.000 E1.01266
G1 X61.361 Y85.041 E1.02534
G1 X60.925 Y85.608 E1.03798
G1 X60.359 Y86.044 E1.05063
G1 X59.695 Y86.318 E1.06332
G1 X59.007 Y86.408 E1.07558
G1 X58.283 Y86.320 E1.08849
G1 X57.615 Y86.044 E1.10126
G1 X57.049 Y85.608 E1.11390
G1 X56.613 Y85.041 E1.12654
G1 X56.339 Y84.378 E1.13922
G1 X56.245 Y83.669 E1.15188
G1 X56.339 Y82.961 E1.16450
G1 X56.613 Y82.298 E1.17718
G1 X57.049 Y81.732 E1.18983
G1 X57.616 Y81.296 E1.20247
G1 X58.279 Y81.022 E1.21515
G1 X58.988 Y80.928 E1.22781
G1 X59.696 Y81.022 E1.24043
G1 X60.358 Y81.296 E1.25311
G1 X60.925 Y81.732 E1.26575
G1 X61.361 Y82.298 E1.27839
G1 X61.635 Y82.961 E1.29107
G1 X61.719 Y83.595 E1.30237
G1 X61.729 Y83.669 E1.30370
G1 X61.224 Y83.669 F7800.000
G1 X61.148 Y84.248 F300.000 E1.31403
G1 X60.924 Y84.789 E1.32438
G1 X60.568 Y85.251 E1.33469
G1 X60.106 Y85.607 E1.34501
G1 X59.565 Y85.831 E1.35536
G1 X59.007 Y85.903 E1.36531
G1 X58.410 Y85.831 E1.37594
G1 X57.868 Y85.607 E1.38632
G1 X57.406 Y85.251 E1.39664
G1 X57.050 Y84.789 E1.40695
G1 X56.826 Y84.248 E1.41730
G1 X56.750 Y83.669 E1.42763
G1 X56.826 Y83.092 E1.43793
G1 X57.050 Y82.551 E1.44828
G1 X57.406 Y82.089 E1.45860
G1 X57.868 Y81.733 E1.46891
G1 X58.409 Y81.509 E1.47926
G1 X58.988 Y81.433 E1.48959
G1 X59.565 Y81.510 E1.49989
G1 X60.106 Y81.733 E1.51024
G1 X60.568 Y82.089 E1.52055
G1 X60.924 Y82.551 E1.53087
G1 X61.148 Y83.092 E1.54122
G1 X61.214 Y83.595 E1.55019
G1 X61.224 Y83.669 E1.55151
G1 X61.646 Y83.938 F7800.000
G1 F1800.000 E0.55151
G92 E0
G1 X83.861 Y112.602 F7800.000
G1 F1800.000 E1.00000
G1 X84.430 Y112.166 F300.000 E1.01268
G1 X85.090 Y111.892 E1.02532
G1 X85.801 Y111.798 E1.03799
G1 X86.511 Y111.893 E1.05066
G1 X87.171 Y112.166 E1.06330
G1 X87.737 Y112.602 E1.07593
G1 X88.173 Y113.168 E1.08857
G1 X88.447 Y113.831 E1.10125
G1 X88.541 Y114.539 E1.11387
G1 X88.447 Y115.249 E1.12654
G1 X88.173 Y115.909 E1.13918
G1 X87.737 Y116.477 E1.15184
G1 X87.171 Y116.914 E1.16448
G1 X86.508 Y117.188 E1.17717
G1 X85.800 Y117.279 E1.18979
G1 X85.091 Y117.188 E1.20243
G1 X84.430 Y116.914 E1.21509
G1 X83.860 Y116.477 E1.22779
G1 X83.427 Y115.909 E1.24042
G1 X83.151 Y115.249 E1.25308
G1 X83.060 Y114.539 E1.26574
G1 X83.151 Y113.831 E1.27835
G1 X83.427 Y113.169 E1.29105
G1 X83.815 Y112.662 E1.30234
G1 X83.861 Y112.602 E1.30366
G1 X84.218 Y112.959 F7800.000
G1 X84.682 Y112.603 F300.000 E1.31401
G1 X85.221 Y112.380 E1.32432
G1 X85.800 Y112.303 E1.33466
G1 X86.380 Y112.380 E1.34500
G1 X86.918 Y112.603 E1.35531
G1 X87.380 Y112.959 E1.36562
G1 X87.736 Y113.421 E1.37594
G1 X87.960 Y113.962 E1.38629
G1 X88.036 Y114.539 E1.39658
G1 X87.960 Y115.118 E1.40692
G1 X87.736 Y115.657 E1.41723
G1 X87.381 Y116.121 E1.42757
G1 X86.918 Y116.477 E1.43789
G1 X86.379 Y116.701 E1.44822
G1 X85.800 Y116.775 E1.45853
G1 X85.221 Y116.701 E1.46886
G1 X84.682 Y116.477 E1.47918
G1 X84.217 Y116.121 E1.48953
G1 X83.864 Y115.657 E1.49985
G1 X83.638 Y115.118 E1.51018
G1 X83.564 Y114.539 E1.52050
G1 X83.638 Y113.962 E1.53080
G1 X83.864 Y113.421 E1.54116
G1 X84.172 Y113.018 E1.55013
G1 X84.218 Y112.959 E1.55145
G1 X84.109 Y112.471 F7800.000
G1 F1800.000 E0.55145
G92 E0
G1 X98.632 Y92.569 F7800.000
G1 F1800.000 E1.00000
G1 X98.062 Y92.135 F300.000 E1.01267
G1 X97.628 Y91.568 E1.02531
G1 X97.351 Y90.907 E1.03797
G1 X97.260 Y90.197 E1.05063
G1 X97.351 Y89.488 E1.06328
G1 X97.628 Y88.826 E1.07598
G1 X98.061 Y88.258 E1.08860
G1 X98.630 Y87.824 E1.10125
G1 X99.289 Y87.548 E1.11389
G1 X100.000 Y87.457 E1.12656
G1 X100.709 Y87.548 E1.13920
G1 X101.371 Y87.825 E1.15189
G1 X101.937 Y88.258 E1.16449
G1 X102.373 Y88.827 E1.17718
G1 X102.647 Y89.488 E1.18982
G1 X102.741 Y90.197 E1.20248
G1 X102.647 Y90.907 E1.21514
G1 X102.373 Y91.567 E1.22778
G1 X101.937 Y92.133 E1.24042
G1 X101.641 Y92.362 E1.24703
G1 X101.362 Y92.572 E1.25321
G1 X100.712 Y92.843 E1.26567
G1 X100.000 Y92.938 E1.27836
G1 X99.290 Y92.844 E1.29103
G1 X98.701 Y92.598 E1.30230
G1 X98.632 Y92.569 E1.30363
G1 X98.886 Y92.133 F7800.000
G1 X98.418 Y91.778 F300.000 E1.31401
G1 X98.064 Y91.315 E1.32432
G1 X97.838 Y90.776 E1.33465
G1 X97.764 Y90.197 E1.34498
G1 X97.838 Y89.618 E1.35530
G1 X98.064 Y89.079 E1.36564
G1 X98.418 Y88.615 E1.37596
G1 X98.882 Y88.261 E1.38628
G1 X99.420 Y88.035 E1.39660
G1 X100.000 Y87.961 E1.40694
G1 X100.579 Y88.035 E1.41726
G1 X101.118 Y88.261 E1.42760
G1 X101.580 Y88.615 E1.43789
G1 X101.936 Y89.079 E1.44824
G1 X102.160 Y89.618 E1.45855
G1 X102.236 Y90.197 E1.46888
G1 X102.160 Y90.776 E1.47922
G1 X101.936 Y91.315 E1.48952
G1 X101.580 Y91.777 E1.49984
G1 X101.336 Y91.966 E1.50529
G1 X101.113 Y92.134 E1.51025
G1 X100.580 Y92.356 E1.52046
G1 X100.000 Y92.433 E1.53080
G1 X99.421 Y92.357 E1.54113
G1 X98.955 Y92.162 E1.55006
G1 X98.886 Y92.133 E1.55139
G1 X98.443 Y92.365 F7800.000
G1 F1800.000 E0.55139
G92 E0
G1 X112.829 Y112.166 F7800.000
G1 F1800.000 E1.00000
G1 X113.490 Y111.892 F300.000 E1.01266
G1 X114.199 Y111.798 E1.02531
G1 X114.912 Y111.893 E1.03803
G1 X115.572 Y112.167 E1.05066
G1 X116.137 Y112.602 E1.06327
G1 X116.573 Y113.169 E1.07592
G1 X116.847 Y113.831 E1.08860
G1 X116.941 Y114.539 E1.10122
G1 X116.846 Y115.251 E1.11392
G1 X116.573 Y115.909 E1.12652
G1 X116.137 Y116.477 E1.13918
G1 X115.571 Y116.914 E1.15183
G1 X114.909 Y117.188 E1.16451
G1 X114.200 Y117.279 E1.17715
G1 X113.491 Y117.188 E1.18978
G1 X112.830 Y116.914 E1.20244
G1 X112.260 Y116.477 E1.21513
G1 X111.827 Y115.910 E1.22775
G1 X111.553 Y115.249 E1.24040
G1 X111.459 Y114.542 E1.25301
G1 X111.546 Y113.850 E1.26535
G1 X111.826 Y113.170 E1.27836
G1 X112.262 Y112.601 E1.29102
G1 X112.769 Y112.212 E1.30233
G1 X112.829 Y112.166 E1.30366
G1 X113.081 Y112.603 F7800.000
G1 X113.621 Y112.380 F300.000 E1.31398
G1 X114.200 Y112.303 E1.32431
G1 X114.780 Y112.380 E1.33467
G1 X115.319 Y112.603 E1.34498
G1 X115.780 Y112.959 E1.35528
G1 X116.136 Y113.421 E1.36560
G1 X116.360 Y113.962 E1.37595
G1 X116.436 Y114.539 E1.38624
G1 X116.359 Y115.119 E1.39659
G1 X116.136 Y115.657 E1.40689
G1 X116.104 Y115.699 E1.40783
G1 X115.780 Y116.121 E1.41723
G1 X115.318 Y116.477 E1.42755
G1 X114.779 Y116.701 E1.43787
G1 X114.200 Y116.775 E1.44820
G1 X113.621 Y116.701 E1.45852
G1 X113.082 Y116.477 E1.46884
G1 X112.617 Y116.121 E1.47919
G1 X112.264 Y115.658 E1.48950
G1 X112.041 Y115.119 E1.49982
G1 X111.964 Y114.540 E1.51013
G1 X112.036 Y113.973 E1.52025
G1 X112.263 Y113.421 E1.53080
G1 X112.618 Y112.958 E1.54111
G1 X113.022 Y112.649 E1.55011
G1 X113.081 Y112.603 E1.55144
G1 X113.103 Y112.103 F7800.000
G1 F1800.000 E0.55144
G92 E0
G1 X114.240 Y109.159 F7800.000
G1 F1800.000 E1.00000
G1 X123.654 Y114.539 F900.000 E1.19175
G1 X114.200 Y119.943 E1.38433
G1 X103.433 Y113.789 E1.60364
G1 X96.567 Y113.789 E1.72506
G1 X85.800 Y119.943 E1.94437
G1 X76.346 Y114.539 E2.13694
G1 X86.550 Y108.708 E2.34478
G1 X86.550 Y104.142 E2.42553
G1 X47.945 Y82.083 E3.21180
G1 X51.687 Y79.943 E3.28803
G1 X63.113 Y79.943 E3.49008
G1 X68.167 Y82.833 E3.59303
G1 X75.033 Y82.833 E3.71446
G1 X80.087 Y79.943 E3.81741
G1 X91.513 Y79.943 E4.01946
G1 X96.567 Y82.833 E4.12241
G1 X103.433 Y82.833 E4.24384
G1 X108.487 Y79.943 E4.34680
G1 X119.913 Y79.943 E4.54884
G1 X124.967 Y82.833 E4.65180
G1 X131.833 Y82.833 E4.77322
G1 X136.887 Y79.943 E4.87618
G1 X148.313 Y79.943 E5.07823
G1 X152.055 Y82.083 E5.15445
G1 X113.450 Y104.142 E5.94073
G1 X113.450 Y108.708 E6.02148
G1 X114.174 Y109.122 E6.03623
G1 X114.240 Y109.159 E6.03756
G1 X114.488 Y108.725 F7800.000
G1 X124.662 Y114.539 F900.000 E6.24478
G1 X114.200 Y120.519 E6.45789
G1 X103.300 Y114.289 E6.67990
G1 X96.700 Y114.289 E6.79662
G1 X85.800 Y120.519 E7.01864
G1 X75.338 Y114.539 E7.23174
G1 X86.050 Y108.418 E7.44991
G1 X86.050 Y104.432 E7.52040
G1 X46.938 Y82.083 E8.31701
G1 X51.554 Y79.443 E8.41106
G1 X63.246 Y79.443 E8.61780
G1 X68.300 Y82.333 E8.72076
G1 X74.900 Y82.333 E8.83749
G1 X79.954 Y79.443 E8.94044
G1 X91.646 Y79.443 E9.14718
G1 X96.700 Y82.333 E9.25014
G1 X103.300 Y82.333 E9.36687
G1 X108.354 Y79.443 E9.46982
G1 X120.046 Y79.443 E9.67657
G1 X125.100 Y82.333 E9.77952
G1 X131.700 Y82.333 E9.89625
G1 X136.754 Y79.443 E9.99921
G1 X148.446 Y79.443 E10.20595
G1 X153.062 Y82.083 E10.30000
G1 X113.950 Y104.432 E11.09661
G1 X113.950 Y108.418 E11.16710
