; generated by Slic3r 0.9.8 on 2013-05-29 at 13:18:28

; layer_height = .25
; perimeters = 1
; top_solid_layers = 4
; bottom_solid_layers = 4
; fill_density = .9
; perimeter_speed = 30
; infill_speed = 40
; travel_speed = 130
; scale = 1
; nozzle_diameter = 0.5
; filament_diameter = 3
; extrusion_multiplier = 1
; perimeters extrusion width = 0.80mm
; infill extrusion width = 0.80mm
; first layer extrusion width = 0.50mm

M107
M104 S210 ; set temperature
G28 ; home all axes
M109 S210 ; wait for temperature to be reached
G90 ; use absolute coordinates
G21 ; set units to millimeters
G92 E0
M82 ; use absolute distances for extrusion
G1 F1800.000 E-1.00000
G92 E0
G1 Z0.250 F7800.000
G1 X85.794 Y127.513
G1 F1800.000 E1.00000
G1 X84.884 Y127.453 F900.000 E1.01613
G1 X84.584 Y127.413 E1.02148
G1 X83.994 Y127.283 E1.03216
G1 X83.134 Y126.993 E1.04821
G1 X82.584 Y126.733 E1.05897
G1 X71.574 Y120.443 E1.28320
G1 X71.034 Y120.053 E1.29498
G1 X70.524 Y119.623 E1.30678
G1 X70.064 Y119.143 E1.31854
G1 X41.664 Y86.683 E2.08125
G1 X41.484 Y86.473 E2.08614
G1 X41.004 Y85.803 E2.10071
G1 X40.734 Y85.323 E2.11045
G1 X40.494 Y84.823 E2.12026
G1 X40.214 Y84.043 E2.13491
G1 X40.084 Y83.513 E2.14456
G1 X39.994 Y82.973 E2.15424
G1 X39.944 Y82.423 E2.16401
G1 X39.934 Y81.873 E2.17374
G1 X39.974 Y81.323 E2.18349
G1 X40.054 Y80.773 E2.19332
G1 X40.174 Y80.243 E2.20293
G1 X40.344 Y79.713 E2.21277
G1 X40.544 Y79.203 E2.22246
G1 X40.794 Y78.713 E2.23219
G1 X41.074 Y78.243 E2.24186
G1 X41.394 Y77.793 E2.25163
G1 X41.754 Y77.373 E2.26141
G1 X42.134 Y76.973 E2.27116
G1 X42.554 Y76.613 E2.28095
G1 X42.994 Y76.283 E2.29067
G1 X43.464 Y75.993 E2.30044
G1 X48.344 Y73.213 E2.39976
G1 X48.894 Y72.953 E2.41052
G1 X49.754 Y72.663 E2.42657
G1 X50.344 Y72.533 E2.43725
G1 X50.644 Y72.493 E2.44260
G1 X51.554 Y72.433 E2.45873
G1 X148.744 Y72.443 E4.17742
G1 X149.354 Y72.493 E4.18825
G1 X149.954 Y72.593 E4.19900
G1 X150.534 Y72.753 E4.20964
G1 X151.384 Y73.083 E4.22577
G1 X151.924 Y73.363 E4.23653
G1 X156.534 Y76.003 E4.33047
G1 X157.004 Y76.293 E4.34024
G1 X157.224 Y76.453 E4.34505
G1 X157.654 Y76.793 E4.35474
G1 X158.054 Y77.173 E4.36450
G1 X158.594 Y77.793 E4.37904
G1 X159.064 Y78.473 E4.39365
G1 X159.444 Y79.213 E4.40836
G1 X159.644 Y79.723 E4.41805
G1 X159.814 Y80.243 E4.42773
G1 X159.934 Y80.783 E4.43751
G1 X160.014 Y81.323 E4.44716
G1 X160.054 Y81.873 E4.45691
G1 X160.044 Y82.423 E4.46664
G1 X159.994 Y82.973 E4.47641
G1 X159.904 Y83.513 E4.48609
G1 X159.774 Y84.053 E4.49591
G1 X159.594 Y84.573 E4.50564
G1 X159.494 Y84.823 E4.51040
G1 X159.124 Y85.563 E4.52503
G1 X158.984 Y85.803 E4.52995
G1 X158.504 Y86.473 E4.54452
G1 X129.924 Y119.143 E5.31212
G1 X129.464 Y119.623 E5.32388
G1 X129.214 Y119.843 E5.32977
G1 X128.694 Y120.253 E5.34148
G1 X128.414 Y120.443 E5.34746
G1 X117.404 Y126.733 E5.57170
G1 X116.854 Y126.993 E5.58245
G1 X116.284 Y127.193 E5.59314
G1 X115.994 Y127.283 E5.59851
G1 X115.404 Y127.413 E5.60919
G1 X114.804 Y127.483 E5.61987
G1 X114.194 Y127.513 E5.63067
G1 X85.869 Y127.513 E6.13157
G1 X85.794 Y127.513 E6.13289
G1 X85.794 Y127.013 F7800.000
G1 X85.234 Y126.993 F900.000 E6.14280
G1 X84.954 Y126.963 E6.14778
G1 X84.394 Y126.863 E6.15784
G1 X83.584 Y126.623 E6.17278
G1 X82.814 Y126.293 E6.18760
G1 X72.104 Y120.173 E6.40573
G1 X71.334 Y119.663 E6.42206
G1 X70.874 Y119.263 E6.43284
G1 X70.444 Y118.813 E6.44385
G1 X42.044 Y86.353 E7.20656
G1 X41.714 Y85.943 E7.21587
G1 X41.284 Y85.293 E7.22965
G1 X41.044 Y84.823 E7.23898
G1 X40.844 Y84.343 E7.24818
G1 X40.754 Y84.093 E7.25288
G1 X40.554 Y83.333 E7.26677
G1 X40.474 Y82.823 E7.27590
G1 X40.434 Y82.303 E7.28513
G1 X40.454 Y81.513 E7.29910
G1 X40.574 Y80.743 E7.31288
G1 X40.704 Y80.233 E7.32219
G1 X40.864 Y79.733 E7.33147
G1 X41.074 Y79.253 E7.34074
G1 X41.324 Y78.793 E7.35000
G1 X41.604 Y78.353 E7.35922
G1 X41.914 Y77.933 E7.36845
G1 X42.264 Y77.553 E7.37759
G1 X42.644 Y77.183 E7.38696
G1 X43.264 Y76.703 E7.40083
G1 X48.574 Y73.653 E7.50912
G1 X48.824 Y73.533 E7.51402
G1 X49.354 Y73.323 E7.52410
G1 X50.154 Y73.083 E7.53887
G1 X50.714 Y72.983 E7.54893
G1 X50.994 Y72.953 E7.55391
G1 X51.554 Y72.933 E7.56382
G1 X148.444 Y72.933 E9.27721
G1 X149.004 Y72.953 E9.28712
G1 X149.284 Y72.983 E9.29210
G1 X149.844 Y73.083 E9.30216
G1 X150.114 Y73.153 E9.30710
G1 X150.654 Y73.323 E9.31711
G1 X151.174 Y73.533 E9.32702
G1 X151.674 Y73.793 E9.33699
G1 X156.284 Y76.433 E9.43093
G1 X156.944 Y76.863 E9.44486
G1 X157.534 Y77.363 E9.45854
G1 X158.074 Y77.943 E9.47255
G1 X158.534 Y78.573 E9.48635
G1 X158.794 Y79.023 E9.49554
G1 X159.024 Y79.503 E9.50495
G1 X159.214 Y79.983 E9.51408
G1 X159.354 Y80.483 E9.52326
G1 X159.464 Y81.003 E9.53266
G1 X159.534 Y81.513 E9.54177
G1 X159.554 Y82.303 E9.55574
G1 X159.514 Y82.823 E9.56496
G1 X159.434 Y83.343 E9.57427
G1 X159.234 Y84.093 E9.58799
G1 X158.944 Y84.823 E9.60188
G1 X158.824 Y85.063 E9.60663
G1 X158.704 Y85.293 E9.61122
G1 X158.274 Y85.943 E9.62500
G1 X157.944 Y86.353 E9.63431
G1 X129.544 Y118.813 E10.39701
G1 X129.114 Y119.263 E10.40802
G1 X128.654 Y119.663 E10.41880
G1 X128.404 Y119.843 E10.42425
G1 X127.884 Y120.173 E10.43514
G1 X117.174 Y126.293 E10.65327
G1 X116.664 Y126.523 E10.66317
G1 X116.134 Y126.713 E10.67312
G1 X115.594 Y126.863 E10.68304
G1 X115.034 Y126.963 E10.69310
G1 X114.754 Y126.993 E10.69808
G1 X114.194 Y127.013 E10.70798
G1 X85.869 Y127.013 E11.20888
G1 X85.794 Y127.013 E11.21021
G1 F1800.000 E10.21021
G92 E0
G1 X85.800 Y119.941 F7800.000
G1 F1800.000 E1.00000
G1 X76.346 Y114.539 F900.000 E1.19256
G1 X86.550 Y108.708 E1.40039
G1 X86.550 Y104.142 E1.48114
G1 X47.946 Y82.081 E2.26742
G1 X51.687 Y79.943 E2.34363
G1 X63.113 Y79.943 E2.54568
G1 X68.167 Y82.831 E2.64862
G1 X75.033 Y82.831 E2.77004
G1 X80.087 Y79.943 E2.87298
G1 X91.513 Y79.943 E3.07503
G1 X96.567 Y82.831 E3.17797
G1 X103.433 Y82.831 E3.29939
G1 X108.487 Y79.943 E3.40233
G1 X119.913 Y79.943 E3.60438
G1 X124.967 Y82.831 E3.70732
G1 X131.833 Y82.831 E3.82874
G1 X136.887 Y79.943 E3.93168
G1 X148.313 Y79.943 E4.13373
G1 X152.054 Y82.081 E4.20994
G1 X113.450 Y104.142 E4.99622
G1 X113.450 Y108.708 E5.07697
G1 X123.654 Y114.539 E5.28481
G1 X114.200 Y119.941 E5.47736
G1 X103.433 Y113.789 E5.69665
G1 X96.567 Y113.789 E5.81808
G1 X85.865 Y119.904 E6.03604
G1 X85.800 Y119.941 E6.03737
G1 X85.492 Y120.341 F7800.000
G1 X75.338 Y114.539 F900.000 E6.24419
G1 X86.050 Y108.418 E6.46236
G1 X86.050 Y104.432 E6.53285
G1 X46.938 Y82.081 E7.32948
G1 X51.554 Y79.443 E7.42350
G1 X63.246 Y79.443 E7.63025
G1 X68.300 Y82.331 E7.73319
G1 X74.900 Y82.331 E7.84991
G1 X79.954 Y79.443 E7.95285
G1 X91.646 Y79.443 E8.15960
G1 X96.700 Y82.331 E8.26254
G1 X103.300 Y82.331 E8.37926
G1 X108.354 Y79.443 E8.48220
G1 X120.046 Y79.443 E8.68895
G1 X125.100 Y82.331 E8.79189
G1 X131.700 Y82.331 E8.90862
G1 X136.754 Y79.443 E9.01155
G1 X148.446 Y79.443 E9.21830
G1 X153.062 Y82.081 E9.31233
G1 X113.950 Y104.432 E10.10895
G1 X113.950 Y108.418 E10.17944
G1 X124.662 Y114.539 E10.39762
G1 X114.200 Y120.517 E10.61070
G1 X103.300 Y114.289 E10.83270
G1 X96.700 Y114.289 E10.94942
G1 X85.800 Y120.517 E11.17142
G1 X85.558 Y120.379 E11.17636
G1 X85.492 Y120.341 E11.17768
G1 X85.490 Y119.841 F7800.000
G1 X85.575 Y119.365
G1 X86.025 Y119.365 F1500.000 E11.18574
G1 X86.910 Y118.860 E11.20395
G1 X84.690 Y118.860 E11.24364
G1 X83.805 Y118.354 E11.26185
G1 X87.794 Y118.354 E11.33317
G1 X88.679 Y117.849 E11.35138
G1 X82.921 Y117.849 E11.45433
G1 X82.036 Y117.343 E11.47254
G1 X89.564 Y117.343 E11.60712
G1 X90.448 Y116.838 E11.62533
G1 X81.152 Y116.838 E11.79154
G1 X80.267 Y116.332 E11.80976
G1 X91.333 Y116.332 E12.00760
G1 X92.218 Y115.827 E12.02581
G1 X79.382 Y115.827 E12.25528
G1 X78.498 Y115.321 E12.27350
G1 X93.102 Y115.321 E12.53460
G1 X93.987 Y114.816 E12.55281
G1 X77.613 Y114.816 E12.84554
G1 X77.528 Y114.311 E12.85470
G1 X94.872 Y114.311 E13.16477
G1 X95.756 Y113.805 E13.18298
G1 X78.413 Y113.805 E13.49305
G1 F1800.000 E12.49305
G92 E0
G1 X86.375 Y109.256 F7800.000
G1 F1800.000 E1.00000
G1 X113.625 Y109.256 F1500.000 E1.48719
G1 X114.510 Y109.761 E1.50540
G1 X85.490 Y109.761 E2.02422
G1 X84.605 Y110.267 E2.04243
G1 X115.395 Y110.267 E2.59288
G1 X116.279 Y110.772 E2.61109
G1 X83.721 Y110.772 E3.19317
G1 X82.836 Y111.278 E3.21139
G1 X117.164 Y111.278 E3.82509
G1 X118.049 Y111.783 E3.84331
G1 X81.951 Y111.783 E4.48865
G1 X81.067 Y112.289 E4.50687
G1 X118.933 Y112.289 E5.18384
G1 X119.818 Y112.794 E5.20205
G1 X80.182 Y112.794 E5.91066
G1 X79.298 Y113.300 E5.92887
G1 X96.641 Y113.300 E6.23893
G1 F1800.000 E5.23893
G92 E0
G1 X103.359 Y113.300 F7800.000
G1 F1800.000 E1.00000
G1 X120.702 Y113.300 F1500.000 E1.31006
G1 X121.587 Y113.805 E1.32828
G1 X104.244 Y113.805 E1.63834
G1 X105.128 Y114.311 E1.65656
G1 X122.472 Y114.311 E1.96662
G1 X122.387 Y114.816 E1.97578
G1 X106.013 Y114.816 E2.26851
G1 X106.898 Y115.321 E2.28673
G1 X121.502 Y115.321 E2.54783
G1 X120.618 Y115.827 E2.56605
G1 X107.782 Y115.827 E2.79552
G1 X108.667 Y116.332 E2.81373
G1 X119.733 Y116.332 E3.01157
G1 X118.848 Y116.838 E3.02978
G1 X109.552 Y116.838 E3.19599
G1 X110.436 Y117.343 E3.21421
G1 X117.964 Y117.343 E3.34879
G1 X117.079 Y117.849 E3.36700
G1 X111.321 Y117.849 E3.46995
G1 X112.206 Y118.354 E3.48816
G1 X116.194 Y118.354 E3.55948
G1 X115.310 Y118.860 E3.57769
G1 X113.090 Y118.860 E3.61737
G1 X113.975 Y119.365 E3.63559
G1 X114.425 Y119.365 E3.64364
G1 F1800.000 E2.64364
G92 E0
G1 X86.825 Y108.750 F7800.000
G1 F1800.000 E1.00000
G1 X113.175 Y108.750 F1500.000 E1.47109
G1 X113.175 Y108.245 E1.48013
G1 X86.825 Y108.245 E1.95121
G1 X86.825 Y107.739 E1.96025
G1 X113.175 Y107.739 E2.43134
G1 X113.175 Y107.234 E2.44037
G1 X86.825 Y107.234 E2.91146
G1 X86.825 Y106.728 E2.92050
G1 X113.175 Y106.728 E3.39159
G1 X113.175 Y106.222 E3.40063
G1 X86.825 Y106.222 E3.87172
G1 X86.825 Y105.717 E3.88075
G1 X113.175 Y105.717 E4.35184
G1 X113.175 Y105.212 E4.36087
G1 X86.825 Y105.212 E4.83196
G1 X86.825 Y104.706 E4.84100
G1 X113.175 Y104.706 E5.31209
G1 X113.175 Y104.201 E5.32112
G1 X86.825 Y104.201 E5.79221
G1 X86.551 Y103.695 F7800.000
G1 X113.449 Y103.695 F1500.000 E6.27308
G1 X114.333 Y103.190 E6.29129
G1 X85.667 Y103.190 E6.80378
G1 X84.782 Y102.684 E6.82200
G1 X115.218 Y102.684 E7.36613
G1 X116.102 Y102.179 E7.38434
G1 X83.898 Y102.179 E7.96010
G1 X83.013 Y101.673 E7.97831
G1 X116.987 Y101.673 E8.58570
G1 X117.872 Y101.168 E8.60391
G1 X82.128 Y101.168 E9.24292
G1 X81.244 Y100.662 E9.26113
G1 X118.756 Y100.662 E9.93177
G1 X119.641 Y100.157 E9.94998
G1 X80.359 Y100.157 E10.65225
G1 X79.475 Y99.651 E10.67047
G1 X120.525 Y99.651 E11.40437
G1 X121.410 Y99.146 E11.42258
G1 X78.590 Y99.146 E12.18810
G1 X77.706 Y98.640 E12.20632
G1 X122.294 Y98.640 E13.00347
G1 X123.179 Y98.135 E13.02168
G1 X76.821 Y98.135 E13.85046
G1 X75.937 Y97.629 E13.86868
G1 X124.063 Y97.629 E14.72908
G1 X124.948 Y97.124 E14.74730
G1 X75.052 Y97.124 E15.63933
G1 X74.167 Y96.618 E15.65755
G1 X125.833 Y96.618 E16.58121
G1 X126.717 Y96.113 E16.59942
G1 X73.283 Y96.113 E17.55472
G1 X72.398 Y95.607 E17.57294
G1 X127.602 Y95.607 E18.55986
G1 X128.486 Y95.102 E18.57807
G1 X71.514 Y95.102 E19.59661
G1 X70.629 Y94.596 E19.61483
G1 X129.371 Y94.596 E20.66501
G1 X130.255 Y94.091 E20.68322
G1 X69.745 Y94.091 E21.76502
G1 X68.860 Y93.585 E21.78324
G1 X131.140 Y93.585 E22.89668
G1 X132.024 Y93.080 E22.91488
G1 X67.976 Y93.080 E24.05994
G1 X67.091 Y92.574 E24.07816
G1 X132.909 Y92.574 E25.25485
G1 X133.794 Y92.069 E25.27306
G1 X66.206 Y92.069 E26.48138
G1 X65.322 Y91.563 E26.49960
G1 X134.678 Y91.563 E27.73954
G1 X135.563 Y91.058 E27.75775
G1 X64.437 Y91.058 E29.02933
G1 X63.553 Y90.552 E29.04755
G1 X136.447 Y90.552 E30.35075
G1 X137.332 Y90.047 E30.36896
G1 X62.668 Y90.047 E31.70379
G1 X61.784 Y89.541 E31.72201
G1 X138.216 Y89.541 E33.08846
G1 X139.101 Y89.036 E33.10667
G1 X60.899 Y89.036 E34.50476
G1 X60.014 Y88.530 E34.52298
G1 X139.986 Y88.530 E35.95269
G1 X140.870 Y88.025 E35.97090
G1 X59.130 Y88.025 E37.43224
G1 X58.245 Y87.520 E37.45045
G1 X141.755 Y87.520 E38.94342
G1 X142.639 Y87.014 E38.96164
G1 X57.361 Y87.014 E40.48624
G1 X56.476 Y86.509 E40.50445
G1 X143.524 Y86.509 E42.06068
G1 X144.408 Y86.003 E42.07890
G1 X55.592 Y86.003 E43.66675
G1 X54.707 Y85.498 E43.68496
G1 X145.293 Y85.498 E45.30444
G1 X146.177 Y84.992 E45.32266
G1 X53.823 Y84.992 E46.97377
G1 X52.938 Y84.487 E46.99198
G1 X147.062 Y84.487 E48.67472
G1 X147.947 Y83.981 E48.69294
G1 X52.053 Y83.981 E50.40731
G1 X51.169 Y83.476 E50.42552
G1 X148.831 Y83.476 E52.17151
G1 X149.716 Y82.970 E52.18973
G1 X132.372 Y82.970 E52.49980
G1 X133.257 Y82.465 E52.51801
G1 X150.600 Y82.465 E52.82807
G1 X151.059 Y81.959 E52.84028
G1 X134.141 Y81.959 E53.14274
G1 X135.026 Y81.454 E53.16095
G1 X150.174 Y81.454 E53.43177
G1 X149.290 Y80.948 E53.44999
G1 X135.910 Y80.948 E53.68919
G1 X136.795 Y80.443 E53.70740
G1 X148.405 Y80.443 E53.91497
G1 F1800.000 E52.91497
G92 E0
G1 X124.428 Y82.970 F7800.000
G1 F1800.000 E1.00000
G1 X103.972 Y82.970 F1500.000 E1.36571
G1 X104.857 Y82.465 E1.38392
G1 X123.543 Y82.465 E1.71800
G1 X122.659 Y81.959 E1.73622
G1 X105.741 Y81.959 E2.03867
G1 X106.626 Y81.454 E2.05688
G1 X121.774 Y81.454 E2.32770
G1 X120.890 Y80.948 E2.34592
G1 X107.510 Y80.948 E2.58512
G1 X108.395 Y80.443 E2.60333
G1 X120.005 Y80.443 E2.81090
G1 F1800.000 E1.81090
G92 E0
G1 X96.028 Y82.970 F7800.000
G1 F1800.000 E1.00000
G1 X75.572 Y82.970 F1500.000 E1.36571
G1 X76.457 Y82.465 E1.38391
G1 X95.143 Y82.465 E1.71799
G1 X94.259 Y81.959 E1.73621
G1 X77.341 Y81.959 E2.03866
G1 X78.226 Y81.454 E2.05687
G1 X93.374 Y81.454 E2.32770
G1 X92.490 Y80.948 E2.34592
G1 X79.110 Y80.948 E2.58511
G1 X79.995 Y80.443 E2.60332
G1 X91.605 Y80.443 E2.81089
G1 F1800.000 E1.81089
G92 E0
G1 X67.628 Y82.970 F7800.000
G1 F1800.000 E1.00000
G1 X50.284 Y82.970 F1500.000 E1.31007
G1 X49.400 Y82.465 E1.32828
G1 X66.743 Y82.465 E1.63834
G1 X65.859 Y81.959 E1.65656
G1 X48.941 Y81.959 E1.95901
G1 X49.826 Y81.454 E1.97722
G1 X64.974 Y81.454 E2.24805
G1 X64.090 Y80.948 E2.26626
G1 X50.710 Y80.948 E2.50546
G1 X51.595 Y80.443 E2.52367
G1 X63.205 Y80.443 E2.73124
G1 F1800.000 E1.73124
G92 E0
G1 Z0.500 F7800.000
G1 X63.008 Y80.339
G1 F1800.000 E1.00000
G1 X68.061 Y83.228 F1800.000 E1.15365
G1 X75.139 Y83.228 E1.34047
G1 X80.192 Y80.339 E1.49412
G1 X91.408 Y80.339 E1.79017
G1 X96.461 Y83.228 E1.94382
G1 X103.538 Y83.228 E2.13063
G1 X108.593 Y80.339 E2.28429
G1 X119.808 Y80.339 E2.58033
G1 X124.861 Y83.228 E2.73398
G1 X131.939 Y83.228 E2.92080
G1 X136.992 Y80.339 E3.07445
G1 X148.208 Y80.339 E3.37049
G1 X151.256 Y82.081 E3.46317
G1 X113.054 Y103.912 E4.62461
G1 X113.054 Y108.938 E4.75730
G1 X122.855 Y114.539 E5.05529
G1 X114.200 Y119.485 E5.31843
G1 X103.538 Y113.393 E5.64257
G1 X96.462 Y113.393 E5.82937
G1 X85.800 Y119.485 E6.15351
G1 X77.145 Y114.539 E6.41665
G1 X86.946 Y108.938 E6.71465
G1 X86.946 Y103.912 E6.84733
G1 X48.745 Y82.081 E8.00877
G1 X51.793 Y80.339 E8.10144
G1 X62.896 Y80.339 E8.39453
G1 X63.008 Y80.339 E8.39748
G1 X63.206 Y79.593 F7800.000
G1 X68.260 Y82.481 F1800.000 E8.55114
G1 X74.940 Y82.481 E8.72748
G1 X79.994 Y79.593 E8.88114
G1 X91.606 Y79.593 E9.18765
G1 X96.660 Y82.481 E9.34130
G1 X103.340 Y82.481 E9.51765
G1 X108.394 Y79.593 E9.67131
G1 X120.006 Y79.593 E9.97781
G1 X125.060 Y82.481 E10.13147
G1 X131.740 Y82.481 E10.30781
G1 X136.794 Y79.593 E10.46147
G1 X148.406 Y79.593 E10.76798
G1 X152.760 Y82.081 E10.90035
G1 X113.800 Y104.345 E12.08484
G1 X113.800 Y108.505 E12.19466
G1 X124.360 Y114.539 E12.51570
G1 X114.200 Y120.345 E12.82458
G1 X103.340 Y114.139 E13.15474
G1 X96.660 Y114.139 E13.33109
G1 X85.800 Y120.345 E13.66125
G1 X75.640 Y114.539 E13.97013
